; generated by Slic3r 1.3.1-dev (Build 05a2f9028a35c56e039cf7a531d63b7ff7e97645) on 2019-02-24 at 19:42:03

; Filament notes: 
; Benötigt -100um compensation
; 
; external perimeters extrusion width = 0.44mm (1.05mm^3/s)
; perimeters extrusion width = 0.56mm (2.69mm^3/s)
; infill extrusion width = 0.50mm (3.35mm^3/s)
; solid infill extrusion width = 0.56mm (2.69mm^3/s)
; top infill extrusion width = 0.56mm (2.15mm^3/s)

M107
M104 S215 ; set temperature
G21                                  ; set units to millimeters
G90                                  ; use absolute coordinates
G92 E0                               ; Reset the extruder's origin
M82                                  ; use absolute distances for extrusion
G1 F900.000 E-4.00000                ; Retract 4 millimetres of filament
G92 E0                               ; Reset the extruder's origin
G1 Z0.350 F6000.000                  ; move to Z=0.35
G1 X5.000 Y31.000                    ; move to X=3, Y=31 (start)
G1 F900.000 E4.00000                 ; Extrude 4 millimetres of filament
G1 X5.000 Y81.000 E50.00000
; Filament gcode

M109 S215 ; set temperature and wait for it to be reached
G21 ; set units to millimeters
G90 ; use absolute coordinates
M82 ; use absolute distances for extrusion
G92 E0
G92 E0
G1 E-3.00000 F2400.00000
G92 E0
G1 Z0.300 F9000.000
G1 X55.089 Y46.900 F9000.000
G1 E3.00000 F2400.00000
G1 F375
G1 X93.911 Y46.900 E6.89021
G1 X93.911 Y50.759 E7.27689
G1 X93.927 Y51.128 E7.31395
G1 X93.976 Y51.504 E7.35189
G1 X94.058 Y51.873 E7.38983
G1 X94.172 Y52.234 E7.42776
G1 X94.317 Y52.584 E7.46570
G1 X94.492 Y52.920 E7.50364
G1 X94.695 Y53.239 E7.54158
G1 X94.926 Y53.540 E7.57952
G1 X95.181 Y53.819 E7.61745
G1 X95.460 Y54.074 E7.65539
G1 X95.761 Y54.305 E7.69333
G1 X96.080 Y54.508 E7.73127
G1 X96.416 Y54.683 E7.76921
G1 X96.766 Y54.828 E7.80714
G1 X97.127 Y54.942 E7.84508
G1 X97.496 Y55.024 E7.88302
G1 X97.872 Y55.073 E7.92096
G1 X98.241 Y55.089 E7.95802
G1 X102.100 Y55.089 E8.34470
G1 X102.100 Y93.911 E12.23491
G1 X98.241 Y93.911 E12.62158
G1 X97.872 Y93.927 E12.65865
G1 X97.496 Y93.976 E12.69658
G1 X97.127 Y94.058 E12.73452
G1 X96.766 Y94.172 E12.77246
G1 X96.416 Y94.317 E12.81040
G1 X96.080 Y94.492 E12.84834
G1 X95.761 Y94.695 E12.88627
G1 X95.460 Y94.926 E12.92421
G1 X95.181 Y95.181 E12.96215
G1 X94.926 Y95.460 E13.00009
G1 X94.695 Y95.761 E13.03803
G1 X94.492 Y96.080 E13.07596
G1 X94.317 Y96.416 E13.11390
G1 X94.172 Y96.766 E13.15184
G1 X94.058 Y97.127 E13.18978
G1 X93.976 Y97.496 E13.22772
G1 X93.927 Y97.872 E13.26565
G1 X93.911 Y98.241 E13.30272
G1 X93.911 Y102.100 E13.68939
G1 X55.089 Y102.100 E17.57960
G1 X55.089 Y98.241 E17.96628
G1 X55.073 Y97.872 E18.00334
G1 X55.024 Y97.496 E18.04128
G1 X54.942 Y97.127 E18.07922
G1 X54.828 Y96.766 E18.11716
G1 X54.683 Y96.416 E18.15509
G1 X54.508 Y96.080 E18.19303
G1 X54.305 Y95.761 E18.23097
G1 X54.074 Y95.460 E18.26891
G1 X53.819 Y95.181 E18.30685
G1 X53.540 Y94.926 E18.34478
G1 X53.239 Y94.695 E18.38272
G1 X52.920 Y94.492 E18.42066
G1 X52.584 Y94.317 E18.45860
G1 X52.234 Y94.172 E18.49654
G1 X51.873 Y94.058 E18.53447
G1 X51.504 Y93.976 E18.57241
G1 X51.128 Y93.927 E18.61035
G1 X50.759 Y93.911 E18.64741
G1 X46.900 Y93.911 E19.03409
G1 X46.900 Y55.089 E22.92430
G1 X50.759 Y55.089 E23.31097
G1 X51.128 Y55.073 E23.34804
G1 X51.504 Y55.024 E23.38598
G1 X51.873 Y54.942 E23.42391
G1 X52.234 Y54.828 E23.46185
G1 X52.584 Y54.683 E23.49979
G1 X52.920 Y54.508 E23.53773
G1 X53.239 Y54.305 E23.57566
G1 X53.540 Y54.074 E23.61360
G1 X53.819 Y53.819 E23.65154
G1 X54.074 Y53.540 E23.68948
G1 X54.305 Y53.239 E23.72742
G1 X54.508 Y52.920 E23.76536
G1 X54.683 Y52.584 E23.80329
G1 X54.828 Y52.234 E23.84123
G1 X54.942 Y51.873 E23.87917
G1 X55.024 Y51.504 E23.91711
G1 X55.073 Y51.128 E23.95504
G1 X55.089 Y50.759 E23.99211
G1 X55.089 Y46.960 E24.37277
G1 X55.435 Y47.100 F9000.000
G1 X55.625 Y47.436 F9000.000
G1 F750
G1 X93.375 Y47.436 E28.15564
G1 X93.375 Y50.770 E28.48981
G1 X93.393 Y51.175 E28.53039
G1 X93.448 Y51.597 E28.57301
G1 X93.540 Y52.012 E28.61564
G1 X93.668 Y52.418 E28.65826
G1 X93.831 Y52.811 E28.70089
G1 X94.027 Y53.188 E28.74351
G1 X94.256 Y53.547 E28.78613
G1 X94.515 Y53.884 E28.82876
G1 X94.802 Y54.198 E28.87138
G1 X95.116 Y54.485 E28.91401
G1 X95.453 Y54.744 E28.95663
G1 X95.812 Y54.973 E28.99926
G1 X96.189 Y55.169 E29.04188
G1 X96.582 Y55.332 E29.08451
G1 X96.988 Y55.460 E29.12713
G1 X97.403 Y55.552 E29.16976
G1 X97.825 Y55.607 E29.21238
G1 X98.230 Y55.625 E29.25296
G1 X101.564 Y55.625 E29.58713
G1 X101.564 Y93.375 E33.37000
G1 X98.230 Y93.375 E33.70417
G1 X97.825 Y93.393 E33.74475
G1 X97.403 Y93.448 E33.78737
G1 X96.988 Y93.540 E33.83000
G1 X96.582 Y93.668 E33.87262
G1 X96.189 Y93.831 E33.91525
G1 X95.812 Y94.027 E33.95787
G1 X95.453 Y94.256 E34.00050
G1 X95.116 Y94.515 E34.04312
G1 X94.802 Y94.802 E34.08575
G1 X94.515 Y95.116 E34.12837
G1 X94.256 Y95.453 E34.17100
G1 X94.027 Y95.812 E34.21362
G1 X93.831 Y96.189 E34.25625
G1 X93.668 Y96.582 E34.29887
G1 X93.540 Y96.988 E34.34150
G1 X93.448 Y97.403 E34.38412
G1 X93.393 Y97.825 E34.42675
G1 X93.375 Y98.230 E34.46732
G1 X93.375 Y101.564 E34.80150
G1 X55.625 Y101.564 E38.58436
G1 X55.625 Y98.230 E38.91854
G1 X55.607 Y97.825 E38.95911
G1 X55.552 Y97.403 E39.00174
G1 X55.460 Y96.988 E39.04436
G1 X55.332 Y96.582 E39.08699
G1 X55.169 Y96.189 E39.12961
G1 X54.973 Y95.812 E39.17224
G1 X54.744 Y95.453 E39.21486
G1 X54.485 Y95.116 E39.25749
G1 X54.198 Y94.802 E39.30011
G1 X53.884 Y94.515 E39.34274
G1 X53.547 Y94.256 E39.38536
G1 X53.188 Y94.027 E39.42799
G1 X52.811 Y93.831 E39.47061
G1 X52.418 Y93.668 E39.51324
G1 X52.012 Y93.540 E39.55586
G1 X51.597 Y93.448 E39.59849
G1 X51.175 Y93.393 E39.64111
G1 X50.770 Y93.375 E39.68169
G1 X47.436 Y93.375 E40.01586
G1 X47.436 Y55.625 E43.79873
G1 X50.770 Y55.625 E44.13290
G1 X51.175 Y55.607 E44.17348
G1 X51.597 Y55.552 E44.21610
G1 X52.012 Y55.460 E44.25873
G1 X52.418 Y55.332 E44.30135
G1 X52.811 Y55.169 E44.34398
G1 X53.188 Y54.973 E44.38660
G1 X53.547 Y54.744 E44.42923
G1 X53.884 Y54.485 E44.47185
G1 X54.198 Y54.198 E44.51448
G1 X54.485 Y53.884 E44.55710
G1 X54.744 Y53.547 E44.59973
G1 X54.973 Y53.188 E44.64235
G1 X55.169 Y52.811 E44.68497
G1 X55.332 Y52.418 E44.72760
G1 X55.460 Y52.012 E44.77022
G1 X55.552 Y51.597 E44.81285
G1 X55.607 Y51.175 E44.85547
G1 X55.625 Y50.770 E44.89605
G1 X55.625 Y47.496 E45.22421
G1 X56.161 Y47.971 F9000.000
G1 F750
G1 X92.839 Y47.971 E48.89973
G1 X92.839 Y50.782 E49.18140
G1 X92.859 Y51.222 E49.22549
G1 X92.920 Y51.690 E49.27280
G1 X93.022 Y52.151 E49.32012
G1 X93.164 Y52.601 E49.36743
G1 X93.345 Y53.037 E49.41474
G1 X93.563 Y53.456 E49.46205
G1 X93.817 Y53.854 E49.50936
G1 X94.104 Y54.229 E49.55668
G1 X94.423 Y54.577 E49.60399
G1 X94.771 Y54.896 E49.65130
G1 X95.146 Y55.183 E49.69861
G1 X95.544 Y55.437 E49.74592
G1 X95.963 Y55.655 E49.79323
G1 X96.399 Y55.836 E49.84054
G1 X96.849 Y55.978 E49.88786
G1 X97.310 Y56.080 E49.93517
G1 X97.778 Y56.141 E49.98248
G1 X98.218 Y56.161 E50.02657
G1 X101.029 Y56.161 E50.30824
G1 X101.029 Y92.839 E53.98376
G1 X98.218 Y92.839 E54.26543
G1 X97.778 Y92.859 E54.30953
G1 X97.310 Y92.920 E54.35684
G1 X96.849 Y93.022 E54.40415
G1 X96.399 Y93.164 E54.45146
G1 X95.963 Y93.345 E54.49877
G1 X95.544 Y93.563 E54.54608
G1 X95.146 Y93.817 E54.59340
G1 X94.771 Y94.104 E54.64071
G1 X94.423 Y94.423 E54.68802
G1 X94.104 Y94.771 E54.73533
G1 X93.817 Y95.146 E54.78264
G1 X93.563 Y95.544 E54.82995
G1 X93.345 Y95.963 E54.87727
G1 X93.164 Y96.399 E54.92458
G1 X93.022 Y96.849 E54.97189
G1 X92.920 Y97.310 E55.01920
G1 X92.859 Y97.778 E55.06651
G1 X92.839 Y98.218 E55.11060
G1 X92.839 Y101.029 E55.39228
G1 X56.161 Y101.029 E59.06779
G1 X56.161 Y98.218 E59.34947
G1 X56.141 Y97.778 E59.39356
G1 X56.080 Y97.310 E59.44087
G1 X55.978 Y96.849 E59.48818
G1 X55.836 Y96.399 E59.53549
G1 X55.655 Y95.963 E59.58280
G1 X55.437 Y95.544 E59.63012
G1 X55.183 Y95.146 E59.67743
G1 X54.896 Y94.771 E59.72474
G1 X54.577 Y94.423 E59.77205
G1 X54.229 Y94.104 E59.81936
G1 X53.854 Y93.817 E59.86667
G1 X53.456 Y93.563 E59.91399
G1 X53.037 Y93.345 E59.96130
G1 X52.601 Y93.164 E60.00861
G1 X52.151 Y93.022 E60.05592
G1 X51.690 Y92.920 E60.10323
G1 X51.222 Y92.859 E60.15054
G1 X50.782 Y92.839 E60.19464
G1 X47.971 Y92.839 E60.47631
G1 X47.971 Y56.161 E64.15182
G1 X50.782 Y56.161 E64.43350
G1 X51.222 Y56.141 E64.47759
G1 X51.690 Y56.080 E64.52490
G1 X52.151 Y55.978 E64.57221
G1 X52.601 Y55.836 E64.61952
G1 X53.037 Y55.655 E64.66684
G1 X53.456 Y55.437 E64.71415
G1 X53.854 Y55.183 E64.76146
G1 X54.229 Y54.896 E64.80877
G1 X54.577 Y54.577 E64.85608
G1 X54.896 Y54.229 E64.90339
G1 X55.183 Y53.854 E64.95071
G1 X55.437 Y53.456 E64.99802
G1 X55.655 Y53.037 E65.04533
G1 X55.836 Y52.601 E65.09264
G1 X55.978 Y52.151 E65.13995
G1 X56.080 Y51.690 E65.18726
G1 X56.141 Y51.222 E65.23457
G1 X56.161 Y50.782 E65.27867
G1 X56.161 Y48.031 E65.55433
G1 X56.696 Y48.507 F9000.000
G1 F750
G1 X92.304 Y48.507 E69.12250
G1 X92.304 Y50.794 E69.35167
G1 X92.325 Y51.268 E69.39927
G1 X92.392 Y51.783 E69.45127
G1 X92.505 Y52.289 E69.50327
G1 X92.661 Y52.784 E69.55527
G1 X92.859 Y53.264 E69.60727
G1 X93.099 Y53.724 E69.65926
G1 X93.378 Y54.162 E69.71126
G1 X93.693 Y54.573 E69.76326
G1 X94.044 Y54.956 E69.81526
G1 X94.427 Y55.307 E69.86726
G1 X94.838 Y55.622 E69.91926
G1 X95.276 Y55.901 E69.97126
G1 X95.736 Y56.141 E70.02325
G1 X96.216 Y56.339 E70.07525
G1 X96.711 Y56.495 E70.12725
G1 X97.217 Y56.608 E70.17925
G1 X97.732 Y56.675 E70.23125
G1 X98.206 Y56.696 E70.27885
G1 X100.493 Y56.696 E70.50802
G1 X100.493 Y92.304 E74.07620
G1 X98.206 Y92.304 E74.30536
G1 X97.732 Y92.325 E74.35297
G1 X97.217 Y92.392 E74.40497
G1 X96.711 Y92.505 E74.45697
G1 X96.216 Y92.661 E74.50897
G1 X95.736 Y92.859 E74.56097
G1 X95.276 Y93.099 E74.61296
G1 X94.838 Y93.378 E74.66496
G1 X94.427 Y93.693 E74.71696
G1 X94.044 Y94.044 E74.76896
G1 X93.693 Y94.427 E74.82096
G1 X93.378 Y94.838 E74.87296
G1 X93.099 Y95.276 E74.92496
G1 X92.859 Y95.736 E74.97695
G1 X92.661 Y96.216 E75.02895
G1 X92.505 Y96.711 E75.08095
G1 X92.392 Y97.217 E75.13295
G1 X92.325 Y97.732 E75.18495
G1 X92.304 Y98.206 E75.23256
G1 X92.304 Y100.493 E75.46172
G1 X56.696 Y100.493 E79.02990
G1 X56.696 Y98.206 E79.25907
G1 X56.675 Y97.732 E79.30667
G1 X56.608 Y97.217 E79.35867
G1 X56.495 Y96.711 E79.41067
G1 X56.339 Y96.216 E79.46267
G1 X56.141 Y95.736 E79.51467
G1 X55.901 Y95.276 E79.56666
G1 X55.622 Y94.838 E79.61866
G1 X55.307 Y94.427 E79.67066
G1 X54.956 Y94.044 E79.72266
G1 X54.573 Y93.693 E79.77466
G1 X54.162 Y93.378 E79.82666
G1 X53.724 Y93.099 E79.87865
G1 X53.264 Y92.859 E79.93065
G1 X52.784 Y92.661 E79.98265
G1 X52.289 Y92.505 E80.03465
G1 X51.783 Y92.392 E80.08665
G1 X51.268 Y92.325 E80.13865
G1 X50.794 Y92.304 E80.18625
G1 X48.507 Y92.304 E80.41542
G1 X48.507 Y56.696 E83.98359
G1 X50.794 Y56.696 E84.21276
G1 X51.268 Y56.675 E84.26037
G1 X51.783 Y56.608 E84.31237
G1 X52.289 Y56.495 E84.36437
G1 X52.784 Y56.339 E84.41637
G1 X53.264 Y56.141 E84.46836
G1 X53.724 Y55.901 E84.52036
G1 X54.162 Y55.622 E84.57236
G1 X54.573 Y55.307 E84.62436
G1 X54.956 Y54.956 E84.67636
G1 X55.307 Y54.573 E84.72836
G1 X55.622 Y54.162 E84.78036
G1 X55.901 Y53.724 E84.83235
G1 X56.141 Y53.264 E84.88435
G1 X56.339 Y52.784 E84.93635
G1 X56.495 Y52.289 E84.98835
G1 X56.608 Y51.783 E85.04035
G1 X56.675 Y51.268 E85.09235
G1 X56.696 Y50.794 E85.13995
G1 X56.696 Y48.567 E85.36311
G1 X57.289 Y48.986 F9000.000
G1 F750
G1 X57.175 Y49.099 E85.37935
G1 X57.175 Y49.862 E85.45636
G1 X58.052 Y48.986 E85.58151
G1 X58.815 Y48.986 E85.65852
G1 X57.175 Y50.625 E85.89257
G1 X57.147 Y51.416 E85.97247
G1 X59.578 Y48.986 E86.31944
G1 X60.341 Y48.986 E86.39645
G1 X56.989 Y52.337 E86.87482
G1 X56.786 Y53.025 E86.94718
G1 X56.590 Y53.500 E86.99908
G1 X61.104 Y48.986 E87.64342
G1 X61.867 Y48.986 E87.72043
G1 X48.986 Y61.867 E89.55905
G1 X48.986 Y62.629 E89.63605
G1 X62.629 Y48.986 E91.58358
G1 X63.392 Y48.986 E91.66059
G1 X48.986 Y63.392 E93.71702
G1 X48.986 Y64.155 E93.79403
G1 X64.155 Y48.986 E95.95936
G1 X64.918 Y48.986 E96.03637
G1 X48.986 Y64.918 E98.31061
G1 X48.986 Y65.681 E98.38762
G1 X65.681 Y48.986 E100.77076
G1 X66.444 Y48.986 E100.84777
G1 X48.986 Y66.444 E103.33982
G1 X48.986 Y67.207 E103.41683
G1 X67.207 Y48.986 E106.01778
G1 X67.970 Y48.986 E106.09479
G1 X48.986 Y67.970 E108.80465
G1 X48.986 Y68.733 E108.88165
G1 X68.733 Y48.986 E111.70042
G1 X69.496 Y48.986 E111.77742
G1 X48.986 Y69.496 E114.70509
G1 X48.986 Y70.259 E114.78210
G1 X70.259 Y48.986 E117.81867
G1 X71.022 Y48.986 E117.89568
G1 X48.986 Y71.022 E121.04116
G1 X48.986 Y71.785 E121.11817
G1 X71.785 Y48.986 E124.37255
G1 X72.548 Y48.986 E124.44956
G1 X48.986 Y72.548 E127.81284
G1 X48.986 Y73.311 E127.88985
G1 X73.311 Y48.986 E131.36204
G1 X74.074 Y48.986 E131.43905
G1 X48.986 Y74.074 E135.02015
G1 X48.986 Y74.837 E135.09715
G1 X74.837 Y48.986 E138.78715
G1 X75.600 Y48.986 E138.86416
G1 X48.986 Y75.600 E142.66307
G1 X48.986 Y76.363 E142.74007
G1 X76.363 Y48.986 E146.64788
G1 X77.126 Y48.986 E146.72489
G1 X48.986 Y77.126 E150.74161
G1 X48.986 Y77.889 E150.81861
G1 X77.889 Y48.986 E154.94423
G1 X78.652 Y48.986 E155.02124
G1 X48.986 Y78.652 E159.25576
G1 X48.986 Y79.415 E159.33277
G1 X79.415 Y48.986 E163.67620
G1 X80.178 Y48.986 E163.75321
G1 X48.986 Y80.177 E168.20554
G1 X48.986 Y80.940 E168.28255
G1 X80.940 Y48.986 E172.84379
G1 X81.703 Y48.986 E172.92079
G1 X48.986 Y81.703 E177.59094
G1 X48.986 Y82.466 E177.66794
G1 X82.466 Y48.986 E182.44699
G1 X83.229 Y48.986 E182.52400
G1 X48.986 Y83.229 E187.41195
G1 X48.986 Y83.992 E187.48896
G1 X83.992 Y48.986 E192.48582
G1 X84.755 Y48.986 E192.56282
G1 X48.986 Y84.755 E197.66859
G1 X48.986 Y85.518 E197.74559
G1 X85.518 Y48.986 E202.96026
G1 X86.281 Y48.986 E203.03727
G1 X48.986 Y86.281 E208.36084
G1 X48.986 Y87.044 E208.43784
G1 X87.044 Y48.986 E213.87032
G1 X87.807 Y48.986 E213.94733
G1 X48.986 Y87.807 E219.48871
G1 X48.986 Y88.570 E219.56572
G1 X88.570 Y48.986 E225.21600
G1 X89.333 Y48.986 E225.29301
G1 X48.986 Y89.333 E231.05220
G1 X48.986 Y90.096 E231.12921
G1 X90.096 Y48.986 E236.99730
G1 X90.859 Y48.986 E237.07431
G1 X48.986 Y90.859 E243.05131
G1 X48.986 Y91.622 E243.12831
G1 X91.622 Y48.986 E249.21422
G1 X91.825 Y48.986 E249.23472
G1 X91.825 Y49.545 E249.29123
G1 X49.545 Y91.825 E255.32622
G1 X50.308 Y91.825 E255.40323
G1 X91.825 Y50.308 E261.32932
G1 X91.839 Y51.058 E261.40498
G1 X51.058 Y91.839 E267.22602
G1 X51.748 Y91.912 E267.29604
G1 X91.912 Y51.748 E273.02906
G1 X92.045 Y52.377 E273.09400
G1 X52.377 Y92.045 E278.75626
G1 X52.954 Y92.231 E278.81744
G1 X92.231 Y52.954 E284.42393
G1 X92.459 Y53.489 E284.48265
G1 X53.489 Y92.459 E290.04522
G1 X53.987 Y92.724 E290.10215
G1 X92.724 Y53.987 E295.63152
G1 X93.024 Y54.450 E295.68720
G1 X54.450 Y93.024 E301.19328
G1 X54.880 Y93.357 E301.24817
G1 X93.357 Y54.880 E306.74037
G1 X93.722 Y55.278 E306.79488
G1 X55.278 Y93.722 E312.28232
G1 X55.643 Y94.120 E312.33682
G1 X94.120 Y55.643 E317.82902
G1 X94.550 Y55.976 E317.88392
G1 X55.976 Y94.550 E323.39000
G1 X56.276 Y95.013 E323.44568
G1 X95.013 Y56.276 E328.97505
G1 X95.511 Y56.541 E329.03198
G1 X56.541 Y95.511 E334.59456
G1 X56.769 Y96.046 E334.65327
G1 X96.046 Y56.769 E340.25977
G1 X96.623 Y56.955 E340.32095
G1 X56.955 Y96.623 E345.98321
G1 X57.088 Y97.252 E346.04815
G1 X97.252 Y57.088 E351.78118
G1 X97.942 Y57.161 E351.85120
G1 X57.161 Y97.942 E357.67225
G1 X57.175 Y98.692 E357.74790
G1 X98.692 Y57.175 E363.67400
G1 X99.455 Y57.175 E363.75101
G1 X57.175 Y99.455 E369.78602
G1 X57.175 Y100.014 E369.84251
G1 X57.378 Y100.014 E369.86302
G1 X100.014 Y57.378 E375.94892
G1 X100.014 Y58.141 E376.02593
G1 X58.141 Y100.014 E382.00292
G1 X58.904 Y100.014 E382.07993
G1 X100.014 Y58.904 E387.94802
G1 X100.014 Y59.667 E388.02502
G1 X59.667 Y100.014 E393.78421
G1 X60.430 Y100.014 E393.86121
G1 X100.014 Y60.430 E399.51149
G1 X100.014 Y61.193 E399.58850
G1 X61.193 Y100.014 E405.12987
G1 X61.956 Y100.014 E405.20688
G1 X100.014 Y61.956 E410.63935
G1 X100.014 Y62.719 E410.71636
G1 X62.719 Y100.014 E416.03992
G1 X63.482 Y100.014 E416.11693
G1 X100.014 Y63.482 E421.33159
G1 X100.014 Y64.245 E421.40860
G1 X64.245 Y100.014 E426.51435
