; generated by Slic3r 1.3.1-dev (Build 05a2f9028a35c56e039cf7a531d63b7ff7e97645) on 2019-02-24 at 19:42:29

; Filament notes: 
; Benötigt -100um compensation
; 
; external perimeters extrusion width = 0.44mm (1.05mm^3/s)
; perimeters extrusion width = 0.56mm (2.69mm^3/s)
; infill extrusion width = 0.50mm (3.35mm^3/s)
; solid infill extrusion width = 0.56mm (2.69mm^3/s)
; top infill extrusion width = 0.56mm (2.15mm^3/s)

M107
M104 S215 ; set temperature
G21                                  ; set units to millimeters
G90                                  ; use absolute coordinates
G92 E0                               ; Reset the extruder's origin
M82                                  ; use absolute distances for extrusion
G1 F900.000 E-4.00000                ; Retract 4 millimetres of filament
G92 E0                               ; Reset the extruder's origin
G1 Z0.350 F6000.000                  ; move to Z=0.35
G1 X5.000 Y31.000                    ; move to X=3, Y=31 (start)
G1 F900.000 E4.00000                 ; Extrude 4 millimetres of filament
G1 X5.000 Y81.000 E50.00000
; Filament gcode

M109 S215 ; set temperature and wait for it to be reached
G21 ; set units to millimeters
G90 ; use absolute coordinates
M82 ; use absolute distances for extrusion
G92 E0
G92 E0
G1 E-3.00000 F2400.00000
G92 E0
G1 Z0.300 F9000.000
G1 X49.395 Y49.374 F9000.000
G1 E3.00000 F2400.00000
G1 F750
G1 X49.720 Y49.096 E3.04292
G1 X49.939 Y48.948 E3.06933
G1 X50.355 Y48.736 E3.11619
G1 X50.803 Y48.591 E3.16329
G1 X51.052 Y48.542 E3.18880
G1 X51.512 Y48.507 E3.23499
G1 X97.472 Y48.507 E7.84061
G1 X97.969 Y48.545 E7.89049
G1 X98.431 Y48.657 E7.93811
G1 X98.645 Y48.736 E7.96103
G1 X99.073 Y48.956 E8.00920
G1 X99.269 Y49.088 E8.03291
G1 X99.595 Y49.365 E8.07582
G1 X99.920 Y49.742 E8.12566
G1 X100.172 Y50.155 E8.17418
G1 X100.270 Y50.371 E8.19795
G1 X100.403 Y50.779 E8.24089
G1 X100.455 Y51.036 E8.26721
G1 X100.493 Y51.538 E8.31768
G1 X100.493 Y97.474 E12.92080
G1 X100.453 Y97.977 E12.97138
G1 X100.406 Y98.209 E12.99505
G1 X100.275 Y98.616 E13.03794
G1 X100.051 Y99.063 E13.08810
G1 X99.921 Y99.257 E13.11140
G1 X99.615 Y99.616 E13.15869
G1 X99.256 Y99.921 E13.20592
G1 X99.048 Y100.060 E13.23098
G1 X98.668 Y100.254 E13.27378
G1 X98.179 Y100.413 E13.32529
G1 X97.757 Y100.480 E13.36809
G1 X97.458 Y100.493 E13.39810
G1 X51.526 Y100.493 E18.00084
G1 X51.023 Y100.453 E18.05142
G1 X50.791 Y100.406 E18.07509
G1 X50.384 Y100.275 E18.11798
G1 X49.937 Y100.051 E18.16814
G1 X49.743 Y99.921 E18.19144
G1 X49.384 Y99.615 E18.23873
G1 X49.079 Y99.256 E18.28596
G1 X48.940 Y99.048 E18.31102
G1 X48.746 Y98.668 E18.35382
G1 X48.587 Y98.179 E18.40533
G1 X48.520 Y97.757 E18.44813
G1 X48.507 Y97.458 E18.47814
G1 X48.507 Y51.526 E23.08088
G1 X48.547 Y51.023 E23.13146
G1 X48.594 Y50.791 E23.15513
G1 X48.725 Y50.384 E23.19801
G1 X48.949 Y49.937 E23.24818
G1 X49.079 Y49.743 E23.27148
G1 X49.354 Y49.418 E23.31417
G1 X49.003 Y49.009 F9000.000
G1 F750
G1 X49.404 Y48.663 E23.36723
G1 X49.658 Y48.492 E23.39798
G1 X50.150 Y48.241 E23.45331
G1 X50.677 Y48.070 E23.50883
G1 X50.970 Y48.013 E23.53871
G1 X51.501 Y47.972 E23.59210
G1 X97.484 Y47.971 E28.19993
G1 X98.053 Y48.016 E28.25712
G1 X98.595 Y48.147 E28.31300
G1 X98.850 Y48.241 E28.34032
G1 X99.354 Y48.499 E28.39707
G1 X99.585 Y48.655 E28.42496
G1 X99.973 Y48.985 E28.47599
G1 X100.354 Y49.427 E28.53445
G1 X100.507 Y49.655 E28.56199
G1 X100.766 Y50.168 E28.61954
G1 X100.924 Y50.652 E28.67060
G1 X100.985 Y50.951 E28.70117
G1 X101.029 Y51.528 E28.75913
G1 X101.029 Y97.485 E33.36438
G1 X100.982 Y98.062 E33.42244
G1 X100.927 Y98.335 E33.45031
G1 X100.771 Y98.819 E33.50132
G1 X100.508 Y99.344 E33.56011
G1 X100.355 Y99.572 E33.58770
G1 X99.994 Y99.995 E33.64334
G1 X99.572 Y100.355 E33.69894
G1 X99.327 Y100.517 E33.72840
G1 X98.874 Y100.749 E33.77935
G1 X98.589 Y100.855 E33.80984
G1 X98.303 Y100.935 E33.83964
G1 X97.801 Y101.014 E33.89058
G1 X97.469 Y101.029 E33.92380
G1 X51.515 Y101.029 E38.52878
G1 X50.938 Y100.982 E38.58684
G1 X50.665 Y100.927 E38.61471
G1 X50.181 Y100.771 E38.66572
G1 X49.656 Y100.508 E38.72451
G1 X49.428 Y100.355 E38.75210
G1 X49.005 Y99.994 E38.80774
G1 X48.645 Y99.572 E38.86334
G1 X48.483 Y99.327 E38.89279
G1 X48.251 Y98.874 E38.94375
G1 X48.145 Y98.589 E38.97423
G1 X48.065 Y98.303 E39.00403
G1 X47.986 Y97.801 E39.05498
G1 X47.971 Y97.469 E39.08820
G1 X47.971 Y51.515 E43.69318
G1 X48.018 Y50.938 E43.75124
G1 X48.073 Y50.665 E43.77911
G1 X48.229 Y50.181 E43.83012
G1 X48.492 Y49.656 E43.88891
G1 X48.645 Y49.428 E43.91649
G1 X48.962 Y49.053 E43.96564
G1 X48.611 Y48.644 F9000.000
G1 F750
G1 X48.861 Y48.410 E43.99998
G1 X49.378 Y48.035 E44.06394
G1 X49.945 Y47.745 E44.12776
G1 X50.552 Y47.549 E44.19168
G1 X50.887 Y47.483 E44.22594
G1 X51.490 Y47.436 E44.28652
G1 X97.495 Y47.436 E48.89658
G1 X97.830 Y47.450 E48.93022
G1 X98.413 Y47.541 E48.98935
G1 X98.759 Y47.636 E49.02526
G1 X99.056 Y47.746 E49.05697
G1 X99.345 Y47.879 E49.08885
G1 X99.636 Y48.043 E49.12235
G1 X99.902 Y48.222 E49.15444
G1 X100.351 Y48.605 E49.21359
G1 X100.592 Y48.863 E49.24896
G1 X100.788 Y49.112 E49.28071
G1 X100.964 Y49.376 E49.31255
G1 X101.129 Y49.672 E49.34655
G1 X101.262 Y49.964 E49.37867
G1 X101.445 Y50.526 E49.43783
G1 X101.514 Y50.866 E49.47266
G1 X101.551 Y51.181 E49.50445
G1 X101.564 Y51.517 E49.53816
G1 X101.564 Y97.496 E54.14555
G1 X101.551 Y97.819 E54.17794
G1 X101.512 Y98.147 E54.21114
G1 X101.448 Y98.461 E54.24321
G1 X101.267 Y99.023 E54.30235
G1 X101.119 Y99.348 E54.33810
G1 X100.965 Y99.624 E54.36982
G1 X100.788 Y99.888 E54.40169
G1 X100.373 Y100.374 E54.46569
G1 X99.887 Y100.788 E54.52966
G1 X99.606 Y100.975 E54.56351
G1 X99.081 Y101.243 E54.62261
G1 X98.755 Y101.365 E54.65745
G1 X98.427 Y101.456 E54.69163
G1 X97.844 Y101.549 E54.75073
G1 X97.481 Y101.564 E54.78715
G1 X51.504 Y101.564 E59.39437
G1 X51.181 Y101.551 E59.42676
G1 X50.853 Y101.512 E59.45995
G1 X50.539 Y101.448 E59.49202
G1 X49.977 Y101.267 E59.55116
G1 X49.652 Y101.119 E59.58692
G1 X49.376 Y100.965 E59.61864
G1 X49.112 Y100.788 E59.65050
G1 X48.626 Y100.373 E59.71450
G1 X48.212 Y99.887 E59.77848
G1 X48.025 Y99.606 E59.81233
G1 X47.757 Y99.081 E59.87143
G1 X47.635 Y98.755 E59.90627
G1 X47.544 Y98.427 E59.94044
G1 X47.451 Y97.844 E59.99954
G1 X47.436 Y97.481 E60.03596
G1 X47.436 Y51.504 E64.64318
G1 X47.449 Y51.181 E64.67558
G1 X47.488 Y50.853 E64.70877
G1 X47.552 Y50.539 E64.74084
G1 X47.733 Y49.977 E64.79998
G1 X47.881 Y49.652 E64.83574
G1 X48.035 Y49.376 E64.86745
G1 X48.212 Y49.112 E64.89932
G1 X48.570 Y48.688 E64.95493
G1 X48.219 Y48.279 F9000.000
G1 F375
G1 X48.513 Y48.002 E64.99538
G1 X48.771 Y47.798 E65.02835
G1 X49.097 Y47.578 E65.06778
G1 X49.431 Y47.392 E65.10609
G1 X49.740 Y47.250 E65.14012
G1 X50.051 Y47.135 E65.17339
G1 X50.426 Y47.027 E65.21250
G1 X50.805 Y46.953 E65.25113
G1 X51.139 Y46.914 E65.28486
G1 X51.479 Y46.901 E65.31897
G1 X97.506 Y46.900 E69.93124
G1 X97.873 Y46.916 E69.96808
G1 X98.220 Y46.957 E70.00310
G1 X98.537 Y47.020 E70.03539
G1 X98.923 Y47.126 E70.07555
G1 X99.261 Y47.251 E70.11165
G1 X99.589 Y47.402 E70.14780
G1 X99.917 Y47.587 E70.18562
G1 X100.218 Y47.789 E70.22190
G1 X100.488 Y48.003 E70.25640
G1 X100.729 Y48.225 E70.28922
G1 X100.998 Y48.514 E70.32884
G1 X101.221 Y48.797 E70.36495
G1 X101.422 Y49.097 E70.40109
G1 X101.608 Y49.431 E70.43943
G1 X101.758 Y49.761 E70.47572
G1 X101.875 Y50.079 E70.50969
G1 X101.965 Y50.399 E70.54304
G1 X102.043 Y50.781 E70.58213
G1 X102.086 Y51.139 E70.61825
G1 X102.100 Y51.507 E70.65513
G1 X102.100 Y97.506 E75.26465
G1 X102.086 Y97.861 E75.30026
G1 X102.041 Y98.233 E75.33772
G1 X101.969 Y98.587 E75.37399
G1 X101.874 Y98.922 E75.40886
G1 X101.763 Y99.226 E75.44131
G1 X101.598 Y99.590 E75.48131
G1 X101.422 Y99.904 E75.51741
G1 X101.221 Y100.204 E75.55356
G1 X100.986 Y100.501 E75.59157
G1 X100.752 Y100.753 E75.62597
G1 X100.511 Y100.976 E75.65887
G1 X100.203 Y101.222 E75.69837
G1 X99.885 Y101.433 E75.73661
G1 X99.588 Y101.599 E75.77072
G1 X99.287 Y101.738 E75.80391
G1 X98.921 Y101.875 E75.84310
G1 X98.550 Y101.978 E75.88165
G1 X98.219 Y102.043 E75.91546
G1 X97.888 Y102.083 E75.94896
G1 X97.493 Y102.100 E75.98858
G1 X51.494 Y102.100 E80.59804
G1 X51.139 Y102.086 E80.63364
G1 X50.767 Y102.041 E80.67110
G1 X50.413 Y101.969 E80.70738
G1 X50.078 Y101.874 E80.74225
G1 X49.774 Y101.763 E80.77469
G1 X49.410 Y101.598 E80.81470
G1 X49.096 Y101.422 E80.85080
G1 X48.796 Y101.221 E80.88695
G1 X48.499 Y100.986 E80.92496
G1 X48.247 Y100.752 E80.95936
G1 X48.024 Y100.511 E80.99226
G1 X47.778 Y100.203 E81.03176
G1 X47.567 Y99.885 E81.07000
G1 X47.401 Y99.588 E81.10410
G1 X47.262 Y99.287 E81.13730
G1 X47.125 Y98.921 E81.17649
G1 X47.022 Y98.550 E81.21504
G1 X46.957 Y98.219 E81.24884
G1 X46.917 Y97.888 E81.28234
G1 X46.900 Y97.493 E81.32196
G1 X46.900 Y51.494 E85.93143
G1 X46.914 Y51.139 E85.96703
G1 X46.959 Y50.767 E86.00449
G1 X47.031 Y50.413 E86.04077
G1 X47.126 Y50.078 E86.07563
G1 X47.237 Y49.774 E86.10808
G1 X47.402 Y49.410 E86.14809
G1 X47.578 Y49.096 E86.18419
G1 X47.779 Y48.796 E86.22034
G1 X48.178 Y48.323 E86.28241
G1 X48.279 Y48.292 F9000.000
G1 E83.28241 F2400.00000
G92 E0
G1 X49.825 Y49.703 F9000.000
G1 E3.00000 F2400.00000
G1 F750
G1 X49.590 Y49.946 E3.03399
G1 X49.351 Y50.273 E3.07478
G1 X49.165 Y50.644 E3.11657
G1 X49.056 Y50.984 E3.15248
G1 X49.012 Y51.278 E3.18240
G1 X51.280 Y49.010 E3.50534
G1 X51.589 Y48.986 E3.53659
G1 X52.064 Y48.986 E3.58442
G1 X48.986 Y52.065 E4.02274
G1 X48.986 Y52.826 E4.09938
G1 X52.825 Y48.986 E4.64605
G1 X53.586 Y48.987 E4.72266
G1 X48.986 Y53.587 E5.37769
G1 X48.986 Y54.348 E5.45432
G1 X54.347 Y48.987 E6.21769
G1 X55.108 Y48.987 E6.29430
G1 X48.986 Y55.109 E7.16603
G1 X48.986 Y55.870 E7.24266
G1 X55.869 Y48.987 E8.22273
G1 X56.630 Y48.987 E8.29934
G1 X48.986 Y56.631 E9.38776
G1 X48.986 Y57.392 E9.46440
G1 X57.390 Y48.988 E10.66117
G1 X58.151 Y48.988 E10.73778
G1 X48.986 Y58.153 E12.04290
G1 X48.986 Y58.914 E12.11953
G1 X58.912 Y48.988 E13.53300
G1 X59.673 Y48.988 E13.60961
G1 X48.986 Y59.676 E15.13143
G1 X48.986 Y60.437 E15.20806
G1 X60.434 Y48.988 E16.83823
G1 X61.195 Y48.988 E16.91485
G1 X48.986 Y61.198 E18.65336
G1 X48.986 Y61.959 E18.72999
G1 X61.956 Y48.989 E20.57686
G1 X62.717 Y48.989 E20.65347
G1 X48.986 Y62.720 E22.60869
G1 X48.986 Y63.481 E22.68532
G1 X63.478 Y48.989 E24.74889
G1 X64.239 Y48.989 E24.82550
G1 X48.986 Y64.242 E26.99742
G1 X48.986 Y65.003 E27.07405
G1 X65.000 Y48.989 E29.35431
G1 X65.761 Y48.990 E29.43093
G1 X48.986 Y65.764 E31.81954
G1 X48.986 Y66.525 E31.89617
G1 X66.521 Y48.990 E34.39313
G1 X67.282 Y48.990 E34.46975
G1 X48.986 Y67.287 E37.07506
G1 X48.986 Y68.048 E37.15169
G1 X68.043 Y48.990 E39.86535
G1 X68.804 Y48.990 E39.94197
G1 X48.986 Y68.809 E42.76398
G1 X48.986 Y69.570 E42.84061
G1 X69.565 Y48.990 E45.77097
G1 X70.326 Y48.991 E45.84758
G1 X48.986 Y70.331 E48.88629
G1 X48.986 Y71.092 E48.96293
G1 X71.087 Y48.991 E52.10998
G1 X71.848 Y48.991 E52.18660
G1 X48.986 Y71.853 E55.44201
G1 X48.986 Y72.614 E55.51864
G1 X72.609 Y48.991 E58.88240
G1 X73.370 Y48.991 E58.95901
G1 X48.986 Y73.375 E62.43112
G1 X48.986 Y74.136 E62.50775
G1 X74.131 Y48.992 E66.08820
G1 X74.892 Y48.992 E66.16482
G1 X48.986 Y74.898 E69.85362
G1 X48.986 Y75.659 E69.93026
G1 X75.653 Y48.992 E73.72741
G1 X76.413 Y48.992 E73.80403
G1 X48.986 Y76.420 E77.70953
G1 X48.986 Y77.181 E77.78616
G1 X77.174 Y48.992 E81.80002
G1 X77.935 Y48.992 E81.87663
G1 X48.986 Y77.942 E85.99883
G1 X48.986 Y78.703 E86.07546
G1 X78.696 Y48.993 E90.30602
G1 X79.457 Y48.993 E90.38263
G1 X48.986 Y79.464 E94.72153
G1 X48.986 Y80.225 E94.79817
G1 X80.218 Y48.993 E99.24542
G1 X80.979 Y48.993 E99.32203
G1 X48.986 Y80.986 E103.87763
G1 X48.986 Y81.748 E103.95426
G1 X81.740 Y48.993 E108.61821
G1 X82.501 Y48.994 E108.69483
G1 X48.986 Y82.509 E113.46713
G1 X48.986 Y83.270 E113.54376
G1 X83.262 Y48.994 E118.42441
G1 X84.023 Y48.994 E118.50102
G1 X48.986 Y84.031 E123.49002
G1 X48.986 Y84.792 E123.56665
G1 X84.784 Y48.994 E128.66400
G1 X85.544 Y48.994 E128.74061
G1 X48.986 Y85.553 E133.94631
G1 X48.986 Y86.314 E134.02294
G1 X86.305 Y48.994 E139.33699
G1 X87.066 Y48.995 E139.41360
G1 X48.986 Y87.075 E144.83600
G1 X48.986 Y87.836 E144.91263
G1 X87.827 Y48.995 E150.44338
G1 X88.588 Y48.995 E150.51999
G1 X48.986 Y88.597 E156.15908
G1 X48.986 Y89.359 E156.23572
G1 X89.349 Y48.995 E161.98316
G1 X90.110 Y48.995 E162.05977
G1 X48.986 Y90.120 E167.91557
G1 X48.986 Y90.881 E167.99220
G1 X90.871 Y48.996 E173.95634
G1 X91.632 Y48.996 E174.03296
G1 X48.986 Y91.642 E180.10545
G1 X48.986 Y92.403 E180.18208
G1 X92.393 Y48.996 E186.36292
G1 X93.154 Y48.996 E186.43954
G1 X48.986 Y93.164 E192.72873
G1 X48.986 Y93.925 E192.80536
G1 X93.915 Y48.996 E199.20290
G1 X94.675 Y48.996 E199.27951
G1 X48.986 Y94.686 E205.78540
G1 X48.986 Y95.447 E205.86204
G1 X95.436 Y48.997 E212.47627
G1 X96.197 Y48.997 E212.55289
G1 X48.986 Y96.208 E219.27548
G1 X48.986 Y96.970 E219.35211
G1 X96.958 Y48.997 E226.18305
G1 X97.719 Y48.997 E226.25966
G1 X48.995 Y97.721 E233.19761
G1 X49.052 Y98.110 E233.23717
G1 X49.130 Y98.348 E233.26234
G1 X98.353 Y49.124 E240.27137
G1 X98.669 Y49.255 E240.30580
G1 X98.863 Y49.375 E240.32880
G1 X49.370 Y98.869 E247.37635
G1 X49.450 Y98.990 E247.39102
G1 X49.707 Y99.292 E247.43095
G1 X99.292 Y49.708 E254.49142
G1 X99.421 Y49.846 E254.51046
G1 X99.629 Y50.132 E254.54606
G1 X50.130 Y99.631 E261.59429
G1 X50.531 Y99.835 E261.63956
G1 X50.649 Y99.873 E261.65207
G1 X99.875 Y50.646 E268.66156
G1 X99.981 Y51.062 E268.70475
G1 X99.998 Y51.285 E268.72724
G1 X51.285 Y99.998 E275.66363
G1 X52.030 Y100.014 E275.73864
G1 X100.014 Y52.030 E282.57130
G1 X100.014 Y52.791 E282.64793
G1 X52.791 Y100.014 E289.37221
G1 X53.552 Y100.014 E289.44884
G1 X100.014 Y53.552 E296.06475
G1 X100.014 Y54.313 E296.14138
G1 X54.313 Y100.014 E302.64891
G1 X55.074 Y100.014 E302.72555
G1 X100.014 Y55.074 E309.12470
G1 X100.014 Y55.835 E309.20134
G1 X55.835 Y100.014 E315.49212
G1 X56.596 Y100.014 E315.56875
G1 X100.014 Y56.596 E321.75116
G1 X100.014 Y57.357 E321.82779
G1 X57.357 Y100.014 E327.90182
G1 X58.118 Y100.014 E327.97845
G1 X100.014 Y58.118 E333.94411
G1 X100.014 Y58.880 E334.02074
G1 X58.880 Y100.014 E339.87802
G1 X59.641 Y100.014 E339.95466
G1 X100.014 Y59.641 E345.70356
G1 X100.014 Y60.402 E345.78020
G1 X60.402 Y100.014 E351.42073
G1 X61.163 Y100.014 E351.49736
G1 X100.014 Y61.163 E357.02952
G1 X100.014 Y61.924 E357.10615
G1 X61.924 Y100.014 E362.52994
G1 X62.685 Y100.014 E362.60657
G1 X100.014 Y62.685 E367.92198
G1 X100.014 Y63.446 E367.99861
G1 X63.446 Y100.014 E373.20564
G1 X64.207 Y100.014 E373.28227
G1 X100.014 Y64.207 E378.38093
G1 X100.014 Y64.968 E378.45756
G1 X64.968 Y100.014 E383.44785
G1 X65.729 Y100.014 E383.52448
G1 X100.014 Y65.729 E388.40639
G1 X100.014 Y66.491 E388.48302
G1 X66.491 Y100.014 E393.25656
G1 X67.252 Y100.014 E393.33319
G1 X100.014 Y67.252 E397.99835
G1 X100.014 Y68.013 E398.07498
G1 X68.013 Y100.014 E402.63176
G1 X68.774 Y100.014 E402.70840
G1 X100.014 Y68.774 E407.15681
G1 X100.014 Y69.535 E407.23344
G1 X69.535 Y100.014 E411.57347
G1 X70.296 Y100.014 E411.65011
G1 X100.014 Y70.296 E415.88177
G1 X100.014 Y71.057 E415.95840
G1 X71.057 Y100.014 E420.08168
G1 X71.818 Y100.014 E420.15832
G1 X100.014 Y71.818 E424.17323
G1 X100.014 Y72.579 E424.24986
G1 X72.579 Y100.014 E428.15639
G1 X73.340 Y100.014 E428.23303
G1 X100.014 Y73.340 E432.03119
G1 X100.014 Y74.102 E432.10782
G1 X74.102 Y100.014 E435.79760
G1 X74.863 Y100.014 E435.87424
G1 X100.014 Y74.863 E439.45565
G1 X100.014 Y75.624 E439.53228
G1 X75.624 Y100.014 E443.00532
G1 X76.385 Y100.014 E443.08195
G1 X100.014 Y76.385 E446.44661
G1 X100.014 Y77.146 E446.52324
G1 X77.146 Y100.014 E449.77953
G1 X77.907 Y100.014 E449.85616
G1 X100.014 Y77.907 E453.00407
G1 X100.014 Y78.668 E453.08071
G1 X78.668 Y100.014 E456.12024
G1 X79.429 Y100.014 E456.19688
G1 X100.014 Y79.429 E459.12804
G1 X100.014 Y80.190 E459.20467
G1 X80.190 Y100.014 E462.02746
G1 X80.951 Y100.014 E462.10409
G1 X100.014 Y80.951 E464.81850
G1 X100.014 Y81.713 E464.89513
G1 X81.712 Y100.014 E467.50117
G1 X82.474 Y100.014 E467.57780
G1 X100.014 Y82.474 E470.07547
G1 X100.014 Y83.235 E470.15210
