; generated by Slic3r 1.3.1-dev (Build 05a2f9028a35c56e039cf7a531d63b7ff7e97645) on 2019-02-25 at 21:21:07

; Filament notes: 
; Benötigt -100um compensation
; 
; external perimeters extrusion width = 0.44mm (1.05mm^3/s)
; perimeters extrusion width = 0.56mm (2.69mm^3/s)
; infill extrusion width = 0.50mm (3.35mm^3/s)
; solid infill extrusion width = 0.56mm (2.69mm^3/s)
; top infill extrusion width = 0.56mm (2.15mm^3/s)

M107
M104 S215 ; set temperature
G21                                  ; set units to millimeters
G90                                  ; use absolute coordinates
G92 E0                               ; Reset the extruder's origin
M82                                  ; use absolute distances for extrusion
G1 F900.000 E-4.00000                ; Retract 4 millimetres of filament
G92 E0                               ; Reset the extruder's origin
G1 Z0.350 F6000.000                  ; move to Z=0.35
G1 X5.000 Y31.000                    ; move to X=3, Y=31 (start)
G1 F900.000 E4.00000                 ; Extrude 4 millimetres of filament
G1 X5.000 Y81.000 E50.00000
; Filament gcode

M109 S215 ; set temperature and wait for it to be reached
G21 ; set units to millimeters
G90 ; use absolute coordinates
M82 ; use absolute distances for extrusion
G92 E0
G92 E0
G1 E-3.00000 F2400.00000
G92 E0
G1 Z0.300 F9000.000
G1 X121.619 Y24.414 F9000.000
G1 E3.00000 F2400.00000
G1 F600
G1 X121.750 Y23.966 E3.04898
G1 X121.877 Y23.661 E3.08352
G1 X122.026 Y23.381 E3.11679
G1 X122.199 Y23.115 E3.15006
G1 X122.392 Y22.869 E3.18295
G1 X122.729 Y22.522 E3.23356
G1 X122.972 Y22.324 E3.26647
G1 X123.235 Y22.146 E3.29974
G1 X123.509 Y21.994 E3.33264
G1 X123.953 Y21.805 E3.38325
G1 X124.268 Y21.713 E3.41768
G1 X124.565 Y21.654 E3.44943
G1 X124.877 Y21.620 E3.48233
G1 X125.356 Y21.618 E3.53249
G1 X125.678 Y21.654 E3.56646
G1 X125.983 Y21.717 E3.59912
G1 X126.287 Y21.807 E3.63238
G1 X126.582 Y21.924 E3.66565
G1 X126.865 Y22.066 E3.69890
G1 X127.135 Y22.233 E3.73216
G1 X127.387 Y22.420 E3.76506
G1 X127.739 Y22.750 E3.81566
G1 X127.943 Y22.989 E3.84855
G1 X128.127 Y23.247 E3.88181
G1 X128.286 Y23.517 E3.91471
G1 X128.483 Y23.958 E3.96530
G1 X128.577 Y24.253 E3.99783
G1 X128.674 Y24.726 E4.04844
G1 X128.701 Y25.039 E4.08135
G1 X128.701 Y25.356 E4.11461
G1 X128.672 Y25.672 E4.14787
G1 X128.617 Y25.984 E4.18113
G1 X128.452 Y26.511 E4.23898
G1 X128.321 Y26.807 E4.27294
G1 X128.126 Y27.152 E4.31445
G1 X127.944 Y27.407 E4.34736
G1 X127.712 Y27.675 E4.38452
G1 X127.454 Y27.919 E4.42171
G1 X127.148 Y28.153 E4.46212
G1 X126.846 Y28.339 E4.49931
G1 X126.555 Y28.480 E4.53327
G1 X126.224 Y28.609 E4.57044
G1 X125.882 Y28.701 E4.60763
G1 X125.532 Y28.757 E4.64481
G1 X125.178 Y28.784 E4.68198
G1 X124.824 Y28.771 E4.71918
G1 X124.442 Y28.719 E4.75959
G1 X124.098 Y28.634 E4.79678
G1 X123.763 Y28.517 E4.83396
G1 X123.442 Y28.367 E4.87115
G1 X123.136 Y28.186 E4.90835
G1 X122.849 Y27.976 E4.94566
G1 X122.589 Y27.737 E4.98272
G1 X122.349 Y27.475 E5.01991
G1 X122.140 Y27.189 E5.05707
G1 X121.970 Y26.913 E5.09104
G1 X121.804 Y26.566 E5.13144
G1 X121.685 Y26.232 E5.16863
G1 X121.598 Y25.880 E5.20663
G1 X121.535 Y25.359 E5.26159
G1 X121.535 Y25.039 E5.29521
G1 X121.608 Y24.473 E5.35503
G1 X121.619 Y24.414 F9000.000
G1 E2.35503 F2400.00000
G92 E0
G1 X31.509 Y115.215 F9000.000
G1 E3.00000 F2400.00000
G1 F600
G1 X31.639 Y114.767 E3.04898
G1 X31.766 Y114.463 E3.08352
G1 X31.915 Y114.183 E3.11679
G1 X32.088 Y113.917 E3.15006
G1 X32.282 Y113.670 E3.18295
G1 X32.618 Y113.324 E3.23356
G1 X32.861 Y113.125 E3.26647
G1 X33.124 Y112.948 E3.29974
G1 X33.398 Y112.795 E3.33264
G1 X33.842 Y112.606 E3.38325
G1 X34.158 Y112.514 E3.41768
G1 X34.455 Y112.456 E3.44943
G1 X34.767 Y112.421 E3.48233
G1 X35.245 Y112.420 E3.53249
G1 X35.567 Y112.456 E3.56646
G1 X35.872 Y112.518 E3.59912
G1 X36.176 Y112.609 E3.63238
G1 X36.471 Y112.726 E3.66565
G1 X36.755 Y112.868 E3.69890
G1 X37.024 Y113.034 E3.73216
G1 X37.276 Y113.222 E3.76506
G1 X37.628 Y113.552 E3.81566
G1 X37.832 Y113.790 E3.84855
G1 X38.016 Y114.048 E3.88181
G1 X38.175 Y114.319 E3.91471
G1 X38.372 Y114.759 E3.96530
G1 X38.467 Y115.055 E3.99783
G1 X38.564 Y115.528 E4.04844
G1 X38.590 Y115.840 E4.08135
G1 X38.590 Y116.158 E4.11461
G1 X38.562 Y116.473 E4.14787
G1 X38.506 Y116.786 E4.18113
G1 X38.341 Y117.312 E4.23898
G1 X38.211 Y117.609 E4.27294
G1 X38.016 Y117.953 E4.31445
G1 X37.833 Y118.209 E4.34736
G1 X37.601 Y118.476 E4.38452
G1 X37.343 Y118.720 E4.42171
G1 X37.038 Y118.955 E4.46212
G1 X36.736 Y119.141 E4.49931
G1 X36.444 Y119.282 E4.53327
G1 X36.114 Y119.410 E4.57044
G1 X35.771 Y119.502 E4.60763
G1 X35.421 Y119.559 E4.64481
G1 X35.068 Y119.585 E4.68198
G1 X34.713 Y119.573 E4.71918
G1 X34.331 Y119.520 E4.75959
G1 X33.987 Y119.436 E4.79678
G1 X33.652 Y119.318 E4.83396
G1 X33.331 Y119.168 E4.87115
G1 X33.026 Y118.988 E4.90835
G1 X32.739 Y118.777 E4.94566
G1 X32.478 Y118.538 E4.98272
G1 X32.239 Y118.277 E5.01991
G1 X32.029 Y117.991 E5.05707
G1 X31.860 Y117.715 E5.09104
G1 X31.694 Y117.367 E5.13144
G1 X31.575 Y117.033 E5.16863
G1 X31.487 Y116.681 E5.20663
G1 X31.425 Y116.161 E5.26159
G1 X31.424 Y115.840 E5.29521
G1 X31.498 Y115.274 E5.35503
G1 X31.509 Y115.215 F9000.000
M106 S255
M104 S210 ; set temperature
G1 E2.35503 F2400.00000
G92 E0
G1 Z0.400 F9000.000
G1 X121.623 Y24.415 F9000.000
G1 E3.00000 F2400.00000
G1 F600
G1 X121.741 Y23.995 E3.01624
G1 X121.876 Y23.667 E3.02944
G1 X122.059 Y23.328 E3.04379
G1 X122.240 Y23.059 E3.05585
G1 X122.485 Y22.762 E3.07020
G1 X122.741 Y22.516 E3.08340
G1 X123.016 Y22.293 E3.09661
G1 X123.287 Y22.115 E3.10867
G1 X123.628 Y21.935 E3.12302
G1 X123.950 Y21.806 E3.13593
G1 X124.268 Y21.713 E3.14829
G1 X124.617 Y21.647 E3.16150
G1 X124.970 Y21.616 E3.17470
G1 X125.356 Y21.618 E3.18905
G1 X125.678 Y21.654 E3.20111
G1 X125.983 Y21.717 E3.21271
G1 X126.287 Y21.807 E3.22452
G1 X126.582 Y21.924 E3.23633
G1 X126.865 Y22.066 E3.24814
G1 X127.135 Y22.233 E3.25995
G1 X127.387 Y22.420 E3.27164
G1 X127.739 Y22.750 E3.28960
G1 X127.943 Y22.989 E3.30128
G1 X128.125 Y23.244 E3.31296
G1 X128.361 Y23.665 E3.33093
G1 X128.482 Y23.955 E3.34261
G1 X128.577 Y24.253 E3.35429
G1 X128.674 Y24.726 E3.37226
G1 X128.701 Y25.039 E3.38395
G1 X128.701 Y25.356 E3.39576
G1 X128.672 Y25.672 E3.40757
G1 X128.617 Y25.981 E3.41925
G1 X128.481 Y26.444 E3.43721
G1 X128.359 Y26.733 E3.44890
G1 X128.212 Y27.010 E3.46058
G1 X127.942 Y27.410 E3.47855
G1 X127.737 Y27.648 E3.49023
G1 X127.510 Y27.869 E3.50205
G1 X127.264 Y28.070 E3.51386
G1 X127.002 Y28.248 E3.52567
G1 X126.728 Y28.401 E3.53735
G1 X126.283 Y28.586 E3.55531
G1 X126.025 Y28.667 E3.56537
G1 X125.678 Y28.741 E3.57858
G1 X125.325 Y28.775 E3.59178
G1 X124.970 Y28.780 E3.60499
G1 X124.617 Y28.748 E3.61819
G1 X124.299 Y28.689 E3.63026
G1 X123.953 Y28.590 E3.64363
G1 X123.600 Y28.444 E3.65786
G1 X123.233 Y28.251 E3.67328
G1 X122.975 Y28.067 E3.68510
G1 X122.729 Y27.873 E3.69678
G1 X122.467 Y27.609 E3.71063
G1 X122.240 Y27.336 E3.72384
G1 X122.059 Y27.067 E3.73590
G1 X121.878 Y26.737 E3.74992
G1 X121.742 Y26.400 E3.76345
G1 X121.638 Y26.061 E3.77666
G1 X121.574 Y25.743 E3.78872
G1 X121.535 Y25.360 E3.80307
G1 X121.539 Y25.036 E3.81514
G1 X121.570 Y24.682 E3.82833
G1 X121.610 Y24.473 E3.83626
G1 X121.562 Y24.360 F9000.000
G1 E0.83626 F2400.00000
G92 E0
G1 X31.512 Y115.216 F9000.000
G1 E3.00000 F2400.00000
G1 F600
G1 X31.630 Y114.796 E3.01624
G1 X31.765 Y114.469 E3.02944
G1 X31.948 Y114.129 E3.04379
G1 X32.129 Y113.861 E3.05585
G1 X32.375 Y113.563 E3.07020
G1 X32.630 Y113.318 E3.08340
G1 X32.906 Y113.094 E3.09661
G1 X33.176 Y112.916 E3.10867
G1 X33.517 Y112.737 E3.12302
G1 X33.839 Y112.607 E3.13593
G1 X34.158 Y112.514 E3.14829
G1 X34.506 Y112.448 E3.16150
G1 X34.860 Y112.417 E3.17470
G1 X35.245 Y112.420 E3.18905
G1 X35.567 Y112.456 E3.20111
G1 X35.872 Y112.518 E3.21271
G1 X36.176 Y112.609 E3.22452
G1 X36.471 Y112.726 E3.23633
G1 X36.755 Y112.868 E3.24814
G1 X37.024 Y113.034 E3.25995
G1 X37.276 Y113.222 E3.27164
G1 X37.628 Y113.552 E3.28960
G1 X37.832 Y113.790 E3.30128
G1 X38.014 Y114.045 E3.31296
G1 X38.250 Y114.467 E3.33093
G1 X38.371 Y114.756 E3.34261
G1 X38.467 Y115.055 E3.35429
G1 X38.564 Y115.528 E3.37226
G1 X38.590 Y115.840 E3.38395
G1 X38.590 Y116.158 E3.39576
G1 X38.562 Y116.473 E3.40757
G1 X38.506 Y116.782 E3.41925
G1 X38.371 Y117.245 E3.43721
G1 X38.248 Y117.534 E3.44890
G1 X38.101 Y117.811 E3.46058
G1 X37.831 Y118.211 E3.47855
G1 X37.627 Y118.449 E3.49023
G1 X37.399 Y118.671 E3.50205
G1 X37.154 Y118.871 E3.51386
G1 X36.891 Y119.050 E3.52567
G1 X36.617 Y119.203 E3.53735
G1 X36.172 Y119.387 E3.55531
G1 X35.914 Y119.469 E3.56537
G1 X35.567 Y119.542 E3.57858
G1 X35.214 Y119.577 E3.59178
G1 X34.859 Y119.582 E3.60499
G1 X34.506 Y119.550 E3.61819
G1 X34.188 Y119.490 E3.63026
G1 X33.842 Y119.391 E3.64363
G1 X33.489 Y119.246 E3.65786
G1 X33.123 Y119.052 E3.67328
G1 X32.864 Y118.868 E3.68510
G1 X32.618 Y118.674 E3.69678
G1 X32.356 Y118.410 E3.71063
G1 X32.129 Y118.137 E3.72384
G1 X31.948 Y117.869 E3.73590
G1 X31.768 Y117.538 E3.74992
G1 X31.631 Y117.201 E3.76345
G1 X31.527 Y116.862 E3.77666
G1 X31.464 Y116.544 E3.78872
G1 X31.424 Y116.161 E3.80307
G1 X31.428 Y115.837 E3.81514
G1 X31.459 Y115.484 E3.82833
G1 X31.499 Y115.275 E3.83626
G1 X31.452 Y115.161 F9000.000
G1 E0.83626 F2400.00000
G92 E0
G1 Z0.500 F9000.000
G1 X121.619 Y24.414 F9000.000
G1 E3.00000 F2400.00000
G1 F600
G1 X121.750 Y23.966 E3.01758
G1 X121.877 Y23.661 E3.02997
G1 X122.026 Y23.381 E3.04191
G1 X122.197 Y23.118 E3.05372
G1 X122.486 Y22.762 E3.07097
G1 X122.726 Y22.524 E3.08369
G1 X122.972 Y22.324 E3.09563
G1 X123.232 Y22.148 E3.10744
G1 X123.628 Y21.936 E3.12436
G1 X123.950 Y21.806 E3.13741
G1 X124.268 Y21.713 E3.14990
G1 X124.565 Y21.654 E3.16129
G1 X124.877 Y21.620 E3.17310
G1 X125.325 Y21.617 E3.18994
G1 X125.822 Y21.680 E3.20880
G1 X126.125 Y21.754 E3.22054
G1 X126.392 Y21.846 E3.23114
G1 X126.688 Y21.976 E3.24332
G1 X127.026 Y22.160 E3.25782
G1 X127.293 Y22.345 E3.27001
G1 X127.586 Y22.595 E3.28451
G1 X127.830 Y22.852 E3.29786
G1 X128.125 Y23.244 E3.31631
G1 X128.361 Y23.665 E3.33447
G1 X128.482 Y23.955 E3.34628
G1 X128.578 Y24.257 E3.35821
G1 X128.648 Y24.566 E3.37015
G1 X128.690 Y24.877 E3.38195
G1 X128.701 Y25.360 E3.40011
G1 X128.672 Y25.672 E3.41191
G1 X128.617 Y25.984 E3.42385
G1 X128.534 Y26.287 E3.43565
G1 X128.357 Y26.736 E3.45381
G1 X128.212 Y27.010 E3.46548
G1 X127.942 Y27.410 E3.48364
G1 X127.737 Y27.648 E3.49545
G1 X127.510 Y27.869 E3.50739
G1 X127.264 Y28.070 E3.51933
G1 X127.002 Y28.248 E3.53126
G1 X126.728 Y28.401 E3.54307
G1 X126.284 Y28.589 E3.56122
G1 X125.983 Y28.677 E3.57303
G1 X125.671 Y28.738 E3.58496
G1 X125.360 Y28.776 E3.59677
G1 X124.970 Y28.779 E3.61143
G1 X124.617 Y28.748 E3.62477
G1 X124.299 Y28.689 E3.63696
G1 X123.950 Y28.589 E3.65061
G1 X123.628 Y28.460 E3.66366
G1 X123.313 Y28.296 E3.67701
G1 X123.016 Y28.102 E3.69035
G1 X122.741 Y27.879 E3.70370
G1 X122.485 Y27.633 E3.71704
G1 X122.259 Y27.360 E3.73039
G1 X122.043 Y27.041 E3.74489
G1 X121.877 Y26.733 E3.75803
G1 X121.754 Y26.441 E3.76997
G1 X121.658 Y26.138 E3.78191
G1 X121.589 Y25.829 E3.79385
G1 X121.548 Y25.518 E3.80565
G1 X121.535 Y25.035 E3.82381
G1 X121.608 Y24.473 E3.84515
G1 X121.619 Y24.414 F9000.000
G1 E0.84515 F2400.00000
G92 E0
G1 X31.509 Y115.216 F9000.000
G1 E3.00000 F2400.00000
G1 F600
G1 X31.639 Y114.767 E3.01758
G1 X31.766 Y114.463 E3.02997
G1 X31.915 Y114.183 E3.04191
G1 X32.086 Y113.920 E3.05372
G1 X32.375 Y113.564 E3.07097
G1 X32.615 Y113.326 E3.08369
G1 X32.861 Y113.125 E3.09563
G1 X33.121 Y112.949 E3.10744
G1 X33.517 Y112.737 E3.12436
G1 X33.839 Y112.607 E3.13741
G1 X34.158 Y112.514 E3.14990
G1 X34.455 Y112.456 E3.16129
G1 X34.767 Y112.421 E3.17310
G1 X35.214 Y112.419 E3.18994
G1 X35.712 Y112.481 E3.20880
G1 X36.014 Y112.556 E3.22054
G1 X36.281 Y112.647 E3.23114
G1 X36.578 Y112.777 E3.24332
G1 X36.916 Y112.962 E3.25782
G1 X37.182 Y113.146 E3.27001
G1 X37.475 Y113.397 E3.28451
G1 X37.720 Y113.653 E3.29786
G1 X38.014 Y114.045 E3.31631
G1 X38.250 Y114.467 E3.33447
G1 X38.371 Y114.756 E3.34628
G1 X38.468 Y115.058 E3.35821
G1 X38.537 Y115.368 E3.37015
G1 X38.579 Y115.679 E3.38195
G1 X38.590 Y116.161 E3.40011
G1 X38.562 Y116.473 E3.41191
G1 X38.506 Y116.786 E3.42385
G1 X38.424 Y117.088 E3.43565
G1 X38.247 Y117.537 E3.45381
G1 X38.101 Y117.811 E3.46548
G1 X37.831 Y118.211 E3.48364
G1 X37.627 Y118.449 E3.49545
G1 X37.399 Y118.671 E3.50739
G1 X37.154 Y118.871 E3.51933
G1 X36.891 Y119.050 E3.53126
G1 X36.617 Y119.203 E3.54307
G1 X36.173 Y119.390 E3.56122
G1 X35.872 Y119.479 E3.57303
G1 X35.561 Y119.539 E3.58496
G1 X35.249 Y119.578 E3.59677
G1 X34.860 Y119.580 E3.61143
G1 X34.506 Y119.550 E3.62477
G1 X34.188 Y119.490 E3.63696
G1 X33.839 Y119.390 E3.65061
G1 X33.517 Y119.261 E3.66366
G1 X33.203 Y119.097 E3.67701
G1 X32.906 Y118.904 E3.69035
G1 X32.630 Y118.680 E3.70370
G1 X32.375 Y118.434 E3.71704
G1 X32.148 Y118.161 E3.73039
G1 X31.932 Y117.842 E3.74489
G1 X31.766 Y117.535 E3.75803
G1 X31.643 Y117.242 E3.76997
G1 X31.547 Y116.940 E3.78191
G1 X31.478 Y116.630 E3.79385
G1 X31.437 Y116.319 E3.80565
G1 X31.424 Y115.837 E3.82381
G1 X31.498 Y115.275 E3.84515
G1 X31.509 Y115.215 F9000.000
G1 E0.84515 F2400.00000
G92 E0
G1 Z0.600 F9000.000
G1 X121.623 Y24.415 F9000.000
G1 E3.00000 F2400.00000
G1 F600
G1 X121.741 Y23.995 E3.01641
G1 X121.876 Y23.667 E3.02976
G1 X122.059 Y23.328 E3.04426
G1 X122.240 Y23.059 E3.05645
G1 X122.485 Y22.762 E3.07095
G1 X122.726 Y22.524 E3.08367
G1 X122.972 Y22.324 E3.09561
G1 X123.232 Y22.148 E3.10742
G1 X123.628 Y21.936 E3.12434
G1 X123.950 Y21.806 E3.13739
G1 X124.268 Y21.713 E3.14988
G1 X124.565 Y21.654 E3.16127
G1 X124.877 Y21.620 E3.17308
G1 X125.356 Y21.618 E3.19108
G1 X125.678 Y21.654 E3.20327
G1 X125.983 Y21.717 E3.21499
G1 X126.287 Y21.807 E3.22692
G1 X126.579 Y21.923 E3.23873
G1 X127.006 Y22.147 E3.25689
G1 X127.265 Y22.324 E3.26870
G1 X127.510 Y22.526 E3.28064
G1 X127.737 Y22.748 E3.29257
G1 X127.943 Y22.989 E3.30451
G1 X128.125 Y23.244 E3.31631
G1 X128.398 Y23.748 E3.33787
G1 X128.514 Y24.050 E3.35006
G1 X128.620 Y24.421 E3.36456
G1 X128.676 Y24.740 E3.37675
G1 X128.704 Y25.124 E3.39125
G1 X128.693 Y25.479 E3.40460
G1 X128.617 Y25.984 E3.42384
G1 X128.452 Y26.511 E3.44460
G1 X128.323 Y26.808 E3.45678
G1 X128.131 Y27.142 E3.47128
G1 X127.941 Y27.405 E3.48347
G1 X127.712 Y27.675 E3.49681
G1 X127.454 Y27.919 E3.51016
G1 X127.148 Y28.153 E3.52466
G1 X126.846 Y28.339 E3.53800
G1 X126.555 Y28.480 E3.55019
G1 X126.224 Y28.609 E3.56353
G1 X125.882 Y28.701 E3.57687
G1 X125.532 Y28.757 E3.59022
G1 X125.178 Y28.784 E3.60356
G1 X124.824 Y28.771 E3.61690
G1 X124.442 Y28.719 E3.63141
G1 X124.098 Y28.634 E3.64475
G1 X123.792 Y28.526 E3.65694
G1 X123.469 Y28.382 E3.67028
G1 X123.162 Y28.203 E3.68362
G1 X122.875 Y27.995 E3.69697
G1 X122.611 Y27.758 E3.71031
G1 X122.368 Y27.499 E3.72365
G1 X122.155 Y27.216 E3.73700
G1 X121.970 Y26.913 E3.75034
G1 X121.818 Y26.593 E3.76369
G1 X121.693 Y26.261 E3.77702
G1 X121.606 Y25.918 E3.79037
G1 X121.535 Y25.360 E3.81153
G1 X121.548 Y24.877 E3.82969
G1 X121.610 Y24.473 E3.84506
G1 X121.562 Y24.360 F9000.000
G1 E0.84506 F2400.00000
G92 E0
G1 X31.512 Y115.216 F9000.000
G1 E3.00000 F2400.00000
G1 F600
G1 X31.630 Y114.796 E3.01641
G1 X31.765 Y114.469 E3.02976
G1 X31.948 Y114.129 E3.04426
G1 X32.129 Y113.861 E3.05645
G1 X32.375 Y113.563 E3.07095
G1 X32.615 Y113.326 E3.08367
G1 X32.861 Y113.125 E3.09561
G1 X33.121 Y112.949 E3.10742
G1 X33.517 Y112.737 E3.12434
G1 X33.839 Y112.607 E3.13739
G1 X34.158 Y112.514 E3.14988
G1 X34.455 Y112.456 E3.16127
G1 X34.767 Y112.421 E3.17308
G1 X35.245 Y112.420 E3.19108
G1 X35.567 Y112.456 E3.20327
G1 X35.872 Y112.518 E3.21499
G1 X36.176 Y112.609 E3.22692
G1 X36.468 Y112.724 E3.23873
G1 X36.895 Y112.948 E3.25689
G1 X37.154 Y113.126 E3.26870
G1 X37.399 Y113.327 E3.28064
G1 X37.626 Y113.549 E3.29257
G1 X37.832 Y113.790 E3.30451
G1 X38.014 Y114.045 E3.31631
G1 X38.287 Y114.549 E3.33787
G1 X38.404 Y114.851 E3.35006
G1 X38.510 Y115.222 E3.36456
G1 X38.565 Y115.541 E3.37675
G1 X38.593 Y115.926 E3.39125
G1 X38.582 Y116.280 E3.40460
G1 X38.506 Y116.786 E3.42384
G1 X38.341 Y117.312 E3.44460
G1 X38.212 Y117.609 E3.45678
