; generated by Slic3r 1.3.1-dev (Build 05a2f9028a35c56e039cf7a531d63b7ff7e97645) on 2019-03-22 at 19:00:48

; Filament notes: 
; Benötigt -100um compensation
; 
; external perimeters extrusion width = 0.44mm (1.05mm^3/s)
; perimeters extrusion width = 0.56mm (2.69mm^3/s)
; infill extrusion width = 0.50mm (3.35mm^3/s)
; solid infill extrusion width = 0.56mm (2.69mm^3/s)
; top infill extrusion width = 0.56mm (2.15mm^3/s)

M107
M104 S215 ; set temperature
G21                                  ; set units to millimeters
G90                                  ; use absolute coordinates
G92 E0                               ; Reset the extruder's origin
M82                                  ; use absolute distances for extrusion
G1 F900.000 E-4.00000                ; Retract 4 millimetres of filament
G92 E0                               ; Reset the extruder's origin
G1 Z0.350 F6000.000                  ; move to Z=0.35
G1 X5.000 Y31.000                    ; move to X=3, Y=31 (start)
G1 F900.000 E4.00000                 ; Extrude 4 millimetres of filament
G1 X5.000 Y81.000 E50.00000
; Filament gcode

M109 S215 ; set temperature and wait for it to be reached
G21 ; set units to millimeters
G90 ; use absolute coordinates
M82 ; use absolute distances for extrusion
G92 E0
G92 E0
G1 E-3.00000 F2400.00000
G92 E0
G1 Z0.300 F9000.000
G1 X53.050 Y61.867 F9000.000
G1 E3.00000 F2400.00000
G1 F750
G1 X118.317 Y61.867 E9.66039
G1 X121.383 Y64.933 E10.10274
G1 X121.383 Y91.067 E12.76975
G1 X118.317 Y94.133 E13.21211
G1 X110.183 Y94.133 E14.04225
G1 X107.117 Y91.067 E14.48461
G1 X107.117 Y84.933 E15.11065
G1 X109.074 Y82.976 E15.39299
G1 X109.117 Y82.871 E15.40462
G1 X109.117 Y74.300 E16.27924
G1 X108.950 Y74.133 E16.30345
G1 X40.050 Y74.133 E23.33450
G1 X39.883 Y74.300 E23.35871
G1 X39.883 Y82.871 E24.23333
G1 X39.926 Y82.976 E24.24495
G1 X41.883 Y84.933 E24.52730
G1 X41.883 Y91.067 E25.15334
G1 X38.817 Y94.133 E25.59570
G1 X30.683 Y94.133 E26.42584
G1 X27.617 Y91.067 E26.86820
G1 X27.617 Y57.933 E30.24954
G1 X30.683 Y54.867 E30.69190
G1 X49.817 Y54.867 E32.64457
G1 X52.883 Y57.933 E33.08693
G1 X52.883 Y61.700 E33.47135
G1 X53.008 Y61.825 E33.48944
G1 X52.505 Y62.413 F9000.000
G1 F750
G1 X118.091 Y62.413 E40.18243
G1 X120.837 Y65.159 E40.57867
G1 X120.837 Y90.841 E43.19957
G1 X118.091 Y93.587 E43.59581
G1 X110.409 Y93.587 E44.37984
G1 X107.663 Y90.841 E44.77609
G1 X107.663 Y85.159 E45.35602
G1 X109.619 Y83.202 E45.63836
G1 X109.663 Y83.097 E45.64999
G1 X109.663 Y73.755 E46.60332
G1 X109.495 Y73.587 E46.62753
G1 X39.505 Y73.587 E53.76991
G1 X39.337 Y73.755 E53.79412
G1 X39.337 Y83.097 E54.74746
G1 X39.381 Y83.202 E54.75909
G1 X41.337 Y85.159 E55.04143
G1 X41.337 Y90.841 E55.62136
G1 X38.591 Y93.587 E56.01761
G1 X30.909 Y93.587 E56.80163
G1 X28.163 Y90.841 E57.19788
G1 X28.163 Y58.159 E60.53311
G1 X30.909 Y55.413 E60.92936
G1 X49.591 Y55.413 E62.83591
G1 X52.337 Y58.159 E63.23216
G1 X52.337 Y62.245 E63.64919
G1 X52.462 Y62.370 E63.66728
G1 X51.959 Y62.958 F9000.000
G1 F750
G1 X117.866 Y62.958 E70.39287
G1 X120.292 Y65.384 E70.74301
G1 X120.292 Y90.616 E73.31779
G1 X117.866 Y93.042 E73.66792
G1 X110.634 Y93.042 E74.40584
G1 X108.208 Y90.616 E74.75597
G1 X108.208 Y85.384 E75.28979
G1 X110.165 Y83.428 E75.57213
G1 X110.208 Y83.323 E75.58376
G1 X110.208 Y73.209 E76.61581
G1 X110.041 Y73.042 E76.64002
G1 X38.959 Y73.042 E83.89373
G1 X38.792 Y73.209 E83.91794
G1 X38.792 Y83.323 E84.94999
G1 X38.835 Y83.428 E84.96162
G1 X40.792 Y85.384 E85.24396
G1 X40.792 Y90.616 E85.77778
G1 X38.366 Y93.042 E86.12791
G1 X31.134 Y93.042 E86.86583
G1 X28.708 Y90.616 E87.21596
G1 X28.708 Y58.384 E90.50508
G1 X31.134 Y55.958 E90.85522
G1 X49.366 Y55.958 E92.71566
G1 X51.792 Y58.384 E93.06579
G1 X51.792 Y62.791 E93.51543
G1 X51.917 Y62.916 E93.53352
G1 X51.414 Y63.504 F9000.000
G1 F750
G1 X117.640 Y63.504 E100.29172
G1 X119.746 Y65.610 E100.59574
G1 X119.746 Y90.390 E103.12441
G1 X117.640 Y92.496 E103.42843
G1 X110.860 Y92.496 E104.12024
G1 X108.754 Y90.390 E104.42426
G1 X108.754 Y85.610 E104.91196
G1 X110.710 Y83.654 E105.19431
G1 X110.754 Y83.549 E105.20593
G1 X110.754 Y72.664 E106.31671
G1 X110.586 Y72.496 E106.34092
G1 X38.414 Y72.496 E113.70595
G1 X38.246 Y72.664 E113.73015
G1 X38.246 Y83.549 E114.84093
G1 X38.290 Y83.654 E114.85255
G1 X40.246 Y85.610 E115.13490
G1 X40.246 Y90.390 E115.62261
G1 X38.140 Y92.496 E115.92663
G1 X31.360 Y92.496 E116.61843
G1 X29.254 Y90.390 E116.92245
G1 X29.254 Y58.610 E120.16546
G1 X31.360 Y56.504 E120.46948
G1 X49.140 Y56.504 E122.28381
G1 X51.246 Y58.610 E122.58783
G1 X51.246 Y63.336 E123.07007
G1 X51.372 Y63.461 E123.08816
G1 X50.868 Y64.049 F9000.000
G1 F750
G1 X117.414 Y64.049 E129.87897
G1 X119.201 Y65.836 E130.13688
G1 X119.201 Y90.164 E132.61944
G1 X117.414 Y91.951 E132.87734
G1 X111.086 Y91.951 E133.52304
G1 X109.299 Y90.164 E133.78094
G1 X109.299 Y85.836 E134.22254
G1 X111.086 Y84.049 E134.48045
G1 X111.132 Y84.049 E134.48506
G1 X111.299 Y83.882 E134.50926
G1 X111.299 Y72.118 E135.70966
G1 X111.132 Y71.951 E135.73387
G1 X37.868 Y71.951 E143.21022
G1 X37.701 Y72.118 E143.23443
G1 X37.701 Y83.882 E144.43483
G1 X37.868 Y84.049 E144.45904
G1 X37.914 Y84.049 E144.46364
G1 X39.701 Y85.836 E144.72155
G1 X39.701 Y90.164 E145.16315
G1 X37.914 Y91.951 E145.42106
G1 X31.586 Y91.951 E146.06675
G1 X29.799 Y90.164 E146.32465
G1 X29.799 Y58.836 E149.52155
G1 X31.586 Y57.049 E149.77946
G1 X48.914 Y57.049 E151.54768
G1 X50.701 Y58.836 E151.80558
G1 X50.701 Y63.882 E152.32044
G1 X50.826 Y64.007 E152.33852
G1 X50.323 Y64.595 F9000.000
G1 F750
G1 X117.188 Y64.595 E159.16194
G1 X118.655 Y66.062 E159.37373
G1 X118.655 Y89.938 E161.81018
G1 X117.188 Y91.405 E162.02197
G1 X111.312 Y91.405 E162.62155
G1 X109.845 Y89.938 E162.83335
G1 X109.845 Y86.062 E163.22883
G1 X111.312 Y84.595 E163.44063
G1 X111.677 Y84.595 E163.47784
G1 X111.845 Y84.427 E163.50205
G1 X111.845 Y71.573 E164.81377
G1 X111.677 Y71.405 E164.83798
G1 X37.323 Y71.405 E172.42566
G1 X37.155 Y71.573 E172.44987
G1 X37.155 Y84.427 E173.76159
G1 X37.323 Y84.595 E173.78580
G1 X37.688 Y84.595 E173.82301
G1 X39.155 Y86.062 E174.03481
G1 X39.155 Y89.938 E174.43029
G1 X37.688 Y91.405 E174.64209
G1 X31.812 Y91.405 E175.24167
G1 X30.345 Y89.938 E175.45346
G1 X30.345 Y59.062 E178.60424
G1 X31.812 Y57.595 E178.81604
G1 X48.688 Y57.595 E180.53815
G1 X50.155 Y59.062 E180.74994
G1 X50.155 Y64.427 E181.29740
G1 X50.281 Y64.552 E181.31549
G1 X49.778 Y65.140 F9000.000
G1 F750
G1 X116.962 Y65.140 E188.17151
G1 X118.110 Y66.288 E188.33719
G1 X118.110 Y89.712 E190.72752
G1 X116.962 Y90.860 E190.89321
G1 X111.538 Y90.860 E191.44667
G1 X110.390 Y89.712 E191.61236
G1 X110.390 Y86.288 E191.96173
G1 X111.538 Y85.140 E192.12741
G1 X112.222 Y85.140 E192.19723
G1 X112.390 Y84.972 E192.22144
G1 X112.390 Y71.028 E193.64449
G1 X112.222 Y70.860 E193.66870
G1 X36.778 Y70.860 E201.36770
G1 X36.610 Y71.028 E201.39191
G1 X36.610 Y84.972 E202.81495
G1 X36.778 Y85.140 E202.83916
G1 X37.462 Y85.140 E202.90899
G1 X38.610 Y86.288 E203.07467
G1 X38.610 Y89.712 E203.42404
G1 X37.462 Y90.860 E203.58972
G1 X32.038 Y90.860 E204.14319
G1 X30.890 Y89.712 E204.30887
G1 X30.890 Y59.288 E207.41354
G1 X32.038 Y58.140 E207.57922
G1 X48.462 Y58.140 E209.25522
G1 X49.610 Y59.288 E209.42090
G1 X49.610 Y64.972 E210.00097
G1 X49.735 Y65.098 E210.01905
G1 X49.232 Y65.686 F9000.000
G1 F750
G1 X116.736 Y65.686 E216.90768
G1 X117.564 Y66.514 E217.02725
G1 X117.564 Y89.486 E219.37147
G1 X116.736 Y90.314 E219.49104
G1 X111.764 Y90.314 E219.99840
G1 X110.936 Y89.486 E220.11797
G1 X110.936 Y86.514 E220.42123
G1 X111.764 Y85.686 E220.54080
G1 X112.768 Y85.686 E220.64323
G1 X112.936 Y85.518 E220.66743
G1 X112.936 Y70.482 E222.20180
G1 X112.768 Y70.314 E222.22601
G1 X36.232 Y70.314 E230.03634
G1 X36.064 Y70.482 E230.06055
G1 X36.064 Y85.518 E231.59492
G1 X36.232 Y85.686 E231.61913
G1 X37.236 Y85.686 E231.72156
G1 X38.064 Y86.514 E231.84113
G1 X38.064 Y89.486 E232.14439
G1 X37.236 Y90.314 E232.26396
G1 X32.264 Y90.314 E232.77131
G1 X31.436 Y89.486 E232.89088
G1 X31.436 Y59.514 E235.94944
G1 X32.264 Y58.686 E236.06901
G1 X48.236 Y58.686 E237.69890
G1 X49.064 Y59.514 E237.81847
G1 X49.064 Y65.518 E238.43114
G1 X49.190 Y65.643 E238.44922
G1 X48.687 Y66.231 F9000.000
G1 F750
G1 X116.510 Y66.231 E245.37046
G1 X117.019 Y66.740 E245.44392
G1 X117.019 Y89.260 E247.74202
G1 X116.510 Y89.769 E247.81548
G1 X111.990 Y89.769 E248.27672
G1 X111.481 Y89.260 E248.35018
G1 X111.481 Y86.740 E248.60733
G1 X111.990 Y86.231 E248.68079
G1 X113.313 Y86.231 E248.81582
G1 X113.481 Y86.063 E248.84003
G1 X113.481 Y69.937 E250.48573
G1 X113.313 Y69.769 E250.50993
G1 X35.687 Y69.769 E258.43159
G1 X35.519 Y69.937 E258.45580
G1 X35.519 Y86.063 E260.10149
G1 X35.687 Y86.231 E260.12570
G1 X37.010 Y86.231 E260.26074
G1 X37.519 Y86.740 E260.33420
G1 X37.519 Y89.260 E260.59134
G1 X37.010 Y89.769 E260.66480
G1 X32.490 Y89.769 E261.12604
G1 X31.981 Y89.260 E261.19950
G1 X31.981 Y59.740 E264.21194
G1 X32.490 Y59.231 E264.28540
G1 X48.010 Y59.231 E265.86917
G1 X48.519 Y59.740 E265.94263
G1 X48.519 Y66.063 E266.58791
G1 X48.644 Y66.189 E266.60599
G1 X48.141 Y66.777 F9000.000
G1 F750
G1 X116.284 Y66.777 E273.55984
G1 X116.473 Y66.966 E273.58718
G1 X116.473 Y89.034 E275.83918
G1 X116.284 Y89.223 E275.86652
G1 X112.216 Y89.223 E276.28165
G1 X112.027 Y89.034 E276.30900
G1 X112.027 Y86.966 E276.52003
G1 X112.216 Y86.777 E276.54738
G1 X113.859 Y86.777 E276.71502
G1 X114.027 Y86.609 E276.73923
G1 X114.027 Y69.391 E278.49625
G1 X113.859 Y69.223 E278.52046
G1 X35.141 Y69.223 E286.55344
G1 X34.973 Y69.391 E286.57765
G1 X34.973 Y86.609 E288.33467
G1 X35.141 Y86.777 E288.35888
G1 X36.784 Y86.777 E288.52652
G1 X36.973 Y86.966 E288.55386
G1 X36.973 Y89.034 E288.76490
G1 X36.784 Y89.223 E288.79224
G1 X32.716 Y89.223 E289.20737
G1 X32.527 Y89.034 E289.23472
G1 X32.527 Y59.966 E292.20105
G1 X32.716 Y59.777 E292.22840
G1 X47.784 Y59.777 E293.76606
G1 X47.973 Y59.966 E293.79340
G1 X47.973 Y66.609 E294.47128
G1 X48.099 Y66.734 E294.48937
G1 E291.48937 F2400.00000
G92 E0
G1 X114.650 Y87.400 F9000.000
G1 E3.00000 F2400.00000
G1 F375
G1 X114.650 Y68.600 E4.88391
G1 X34.350 Y68.600 E12.93062
G1 X34.350 Y87.400 E14.81454
G1 X36.350 Y87.400 E15.01495
G1 X36.350 Y88.600 E15.13520
G1 X33.150 Y88.600 E15.45587
G1 X33.150 Y60.400 E18.28174
G1 X47.350 Y60.400 E19.70469
G1 X47.350 Y67.400 E20.40615
G1 X115.850 Y67.400 E27.27041
G1 X115.850 Y88.600 E29.39482
G1 X112.650 Y88.600 E29.71548
G1 X112.650 Y87.400 E29.83573
G1 X114.590 Y87.400 E30.03014
G1 X115.044 Y87.328 F9000.000
G1 E27.03014 F2400.00000
G92 E0
G1 X46.814 Y68.064 F9000.000
G1 E3.00000 F2400.00000
G1 F450
G1 X33.686 Y68.064 E4.31561
G1 X33.686 Y60.936 E5.02997
G1 X46.814 Y60.936 E6.34558
G1 X46.814 Y68.004 E7.05392
G1 X46.279 Y67.529 F9000.000
G1 F450
G1 X34.221 Y67.529 E8.26219
G1 X34.221 Y61.471 E8.86920
G1 X46.279 Y61.471 E10.07746
G1 X46.279 Y67.469 E10.67846
G1 X45.743 Y66.993 F9000.000
G1 F450
G1 X34.757 Y66.993 E11.77938
G1 X34.757 Y62.007 E12.27904
G1 X45.743 Y62.007 E13.37996
G1 X45.743 Y66.933 E13.87361
G1 X45.151 Y66.514 F9000.000
G1 F750
G1 X45.264 Y66.401 E13.88996
G1 X45.264 Y65.632 E13.96806
G1 X44.382 Y66.514 E14.09486
G1 X43.614 Y66.514 E14.17295
G1 X45.264 Y64.864 E14.41019
G1 X45.264 Y64.096 E14.48828
G1 X42.846 Y66.514 E14.83597
G1 X42.077 Y66.514 E14.91406
G1 X45.264 Y63.327 E15.37219
G1 X45.264 Y62.559 E15.45028
G1 X41.309 Y66.514 E16.01885
G1 X40.541 Y66.514 E16.09694
G1 X44.569 Y62.486 E16.67605
G1 X43.801 Y62.486 E16.75415
G1 X39.772 Y66.514 E17.33325
G1 X39.004 Y66.514 E17.41135
G1 X43.033 Y62.486 E17.99046
G1 X42.264 Y62.486 E18.06855
G1 X38.236 Y66.514 E18.64766
G1 X37.467 Y66.514 E18.72575
G1 X41.496 Y62.486 E19.30486
G1 X40.728 Y62.486 E19.38295
G1 X36.699 Y66.514 E19.96206
G1 X35.931 Y66.514 E20.04016
G1 X39.959 Y62.486 E20.61926
G1 X39.191 Y62.486 E20.69736
G1 X35.236 Y66.441 E21.26593
G1 X35.236 Y65.673 E21.34402
G1 X38.423 Y62.486 E21.80215
G1 X37.654 Y62.486 E21.88024
G1 X35.236 Y64.904 E22.22793
G1 X35.236 Y64.136 E22.30602
G1 X36.886 Y62.486 E22.54327
G1 X36.118 Y62.486 E22.62136
G1 X35.236 Y63.368 E22.74816
G1 X35.236 Y62.599 E22.82625
G1 X35.349 Y62.486 E22.84261
G1 E19.84261 F2400.00000
G92 E0
G1 X33.750 Y68.332 F9000.000
G1 E3.00000 F2400.00000
G1 F300
G1 X33.750 Y87.668 E5.17048
G1 F300
G1 X33.807 Y87.943 E5.20603
G1 X33.990 Y87.981 E5.22972
G1 F300
G1 X34.082 Y88.000 E5.24024
G1 X36.082 Y88.000 E5.46474
G1 E2.46474 F2400.00000
G92 E0
G1 X47.082 Y68.000 F9000.000
G1 E3.00000 F2400.00000
G1 F300
G1 X114.918 Y68.000 E10.61474
G1 F300
G1 X115.193 Y68.057 E10.65028
G1 X115.231 Y68.240 E10.67398
G1 F300
G1 X115.250 Y68.332 E10.68449
G1 X115.250 Y87.668 E12.85498
G1 F300
G1 X115.193 Y87.943 E12.89052
G1 X115.010 Y87.981 E12.91422
G1 F300
G1 X114.918 Y88.000 E12.92473
G1 X112.918 Y88.000 E13.14924
M106 S255
M104 S210 ; set temperature
G1 E10.14924 F2400.00000
G92 E0
G1 Z0.400 F9000.000
G1 X45.874 Y67.124 F9000.000
G1 E3.00000 F2400.00000
G1 F1220.16
G1 X34.626 Y67.124 E3.37779
G1 X34.626 Y61.876 E3.55407
G1 X45.874 Y61.876 E3.93185
G1 X45.874 Y67.064 E4.10612
G1 X46.413 Y67.663 F9000.000
G1 F1220.16
G1 X34.087 Y67.663 E4.52008
G1 X34.087 Y61.337 E4.73253
G1 X46.413 Y61.337 E5.14649
G1 X46.413 Y67.603 E5.35693
G1 X46.951 Y67.799 F9000.000
G1 F2033.59
G1 X115.451 Y67.799 E7.65749
G1 X115.451 Y88.201 E8.34272
G1 X113.049 Y88.201 E8.42342
G1 X113.049 Y87.799 E8.43695
G1 X115.049 Y87.799 E8.50412
G1 X115.049 Y68.201 E9.16229
G1 X33.951 Y68.201 E11.88592
G1 X33.951 Y87.799 E12.54408
G1 X35.951 Y87.799 E12.61125
G1 X35.951 Y88.201 E12.62479
G1 X33.549 Y88.201 E12.70549
G1 X33.549 Y60.799 E13.62581
G1 X46.951 Y60.799 E14.07595
G1 X46.951 Y67.739 E14.30902
G1 X47.430 Y67.320 F9000.000
G1 F1016.8
G1 X115.930 Y67.320 E16.09696
G1 X115.930 Y88.680 E16.65449
G1 X112.570 Y88.680 E16.74219
G1 X112.570 Y87.320 E16.77768
G1 X114.570 Y87.320 E16.82989
G1 X114.570 Y68.680 E17.31642
G1 X34.430 Y68.680 E19.40817
G1 X34.430 Y87.320 E19.89470
G1 X36.430 Y87.320 E19.94690
G1 X36.430 Y88.680 E19.98240
G1 X33.070 Y88.680 E20.07010
G1 X33.070 Y60.320 E20.81033
G1 X47.430 Y60.320 E21.18515
G1 X47.430 Y67.260 E21.36629
G1 X47.576 Y67.693 F9000.000
G1 X45.393 Y62.471 F9000.000
G1 F2033.59
G1 X45.279 Y62.357 E21.37198
G1 X44.482 Y62.357 E21.39998
G1 X45.393 Y63.268 E21.44526
G1 X45.393 Y64.065 E21.47326
G1 X43.685 Y62.357 E21.55814
G1 X42.888 Y62.357 E21.58614
G1 X45.393 Y64.862 E21.71061
G1 X45.393 Y65.659 E21.73861
G1 X42.091 Y62.357 E21.90269
G1 X41.294 Y62.357 E21.93069
G1 X45.393 Y66.456 E22.13436
G1 X45.393 Y66.643 E22.14095
G1 X44.784 Y66.643 E22.16236
G1 X40.498 Y62.357 E22.37535
G1 X39.701 Y62.357 E22.40335
G1 X43.987 Y66.643 E22.61633
G1 X43.190 Y66.643 E22.64433
G1 X38.904 Y62.357 E22.85731
G1 X38.107 Y62.357 E22.88531
G1 X42.393 Y66.643 E23.09830
G1 X41.596 Y66.643 E23.12630
G1 X37.310 Y62.357 E23.33928
G1 X36.513 Y62.357 E23.36728
G1 X40.799 Y66.643 E23.58027
G1 X40.002 Y66.643 E23.60827
G1 X35.716 Y62.357 E23.82125
G1 X35.107 Y62.357 E23.84267
G1 X35.107 Y62.544 E23.84925
G1 X39.206 Y66.643 E24.05292
G1 X38.409 Y66.643 E24.08092
G1 X35.107 Y63.341 E24.24500
G1 X35.107 Y64.138 E24.27300
G1 X37.612 Y66.643 E24.39748
G1 X36.815 Y66.643 E24.42548
G1 X35.107 Y64.935 E24.51036
G1 X35.107 Y65.732 E24.53836
G1 X36.018 Y66.643 E24.58364
G1 X35.221 Y66.643 E24.61164
G1 X35.107 Y66.529 E24.61732
G1 E21.61732 F2400.00000
G92 E0
G1 Z0.500 F9000.000
G1 X45.874 Y67.124 F9000.000
G1 E3.00000 F2400.00000
G1 F1220.16
G1 X34.626 Y67.124 E3.37779
G1 X34.626 Y61.876 E3.55407
G1 X45.874 Y61.876 E3.93185
G1 X45.874 Y67.064 E4.10612
G1 X46.413 Y67.663 F9000.000
G1 F1220.16
G1 X34.087 Y67.663 E4.52008
G1 X34.087 Y61.337 E4.73253
G1 X46.413 Y61.337 E5.14649
G1 X46.413 Y67.603 E5.35693
G1 X46.951 Y67.799 F9000.000
G1 F2033.59
G1 X115.451 Y67.799 E7.65749
G1 X115.451 Y88.201 E8.34272
G1 X113.049 Y88.201 E8.42342
G1 X113.049 Y87.799 E8.43695
G1 X115.049 Y87.799 E8.50412
G1 X115.049 Y68.201 E9.16229
G1 X33.951 Y68.201 E11.88592
G1 X33.951 Y87.799 E12.54408
G1 X35.951 Y87.799 E12.61125
G1 X35.951 Y88.201 E12.62479
G1 X33.549 Y88.201 E12.70549
