; generated by Slic3r 1.3.1-dev (Build 05a2f9028a35c56e039cf7a531d63b7ff7e97645) on 2019-03-22 at 06:15:15

; Filament notes: 
; Benötigt -100um compensation
; 
; external perimeters extrusion width = 0.44mm (1.05mm^3/s)
; perimeters extrusion width = 0.56mm (2.69mm^3/s)
; infill extrusion width = 0.50mm (3.35mm^3/s)
; solid infill extrusion width = 0.56mm (2.69mm^3/s)
; top infill extrusion width = 0.56mm (2.15mm^3/s)

M107
M104 S215 ; set temperature
G21                                  ; set units to millimeters
G90                                  ; use absolute coordinates
G92 E0                               ; Reset the extruder's origin
M82                                  ; use absolute distances for extrusion
G1 F900.000 E-4.00000                ; Retract 4 millimetres of filament
G92 E0                               ; Reset the extruder's origin
G1 Z0.350 F6000.000                  ; move to Z=0.35
G1 X5.000 Y31.000                    ; move to X=3, Y=31 (start)
G1 F900.000 E4.00000                 ; Extrude 4 millimetres of filament
G1 X5.000 Y81.000 E50.00000
; Filament gcode

M109 S215 ; set temperature and wait for it to be reached
G21 ; set units to millimeters
G90 ; use absolute coordinates
M82 ; use absolute distances for extrusion
G92 E0
G92 E0
G1 E-3.00000 F2400.00000
G92 E0
G1 Z0.300 F9000.000
G1 X37.483 Y40.417 F9000.000
G1 E3.00000 F2400.00000
G1 F750
G1 X114.517 Y40.417 E10.86126
G1 X117.583 Y43.483 E11.30361
G1 X117.583 Y105.517 E17.63415
G1 X114.517 Y108.583 E18.07651
G1 X34.483 Y108.583 E26.24391
G1 X31.417 Y105.517 E26.68627
G1 X31.417 Y56.483 E31.69018
G1 X34.374 Y53.526 E32.11684
G1 X34.417 Y53.421 E32.12846
G1 X34.417 Y43.483 E33.14265
G1 X37.440 Y40.460 E33.57889
G1 X37.709 Y40.963 F9000.000
G1 F750
G1 X114.291 Y40.963 E41.39403
G1 X117.037 Y43.709 E41.79028
G1 X117.037 Y105.291 E48.07470
G1 X114.291 Y108.037 E48.47095
G1 X34.709 Y108.037 E56.59223
G1 X31.963 Y105.291 E56.98848
G1 X31.963 Y56.709 E61.94628
G1 X34.709 Y53.963 E62.34252
G1 X34.795 Y53.963 E62.35136
G1 X34.963 Y53.795 E62.37557
G1 X34.963 Y43.709 E63.40489
G1 X37.666 Y41.005 E63.79501
G1 E60.79501 F2400.00000
G92 E0
G1 X35.508 Y54.341 F9000.000
G1 E3.00000 F2400.00000
G1 F750
G1 X35.508 Y43.934 E4.06193
G1 X37.934 Y41.508 E4.41206
G1 X114.066 Y41.508 E12.18109
G1 X116.492 Y43.934 E12.53122
G1 X116.492 Y105.066 E18.76953
G1 X114.066 Y107.492 E19.11967
G1 X34.934 Y107.492 E27.19484
G1 X32.508 Y105.066 E27.54498
G1 X32.508 Y56.934 E32.45666
G1 X34.934 Y54.508 E32.80679
G1 X35.341 Y54.508 E32.84824
G1 X35.466 Y54.383 E32.86633
G1 X36.054 Y54.886 F9000.000
G1 F750
G1 X36.054 Y44.160 E33.96086
G1 X38.160 Y42.054 E34.26488
G1 X113.840 Y42.054 E41.98780
G1 X115.946 Y44.160 E42.29182
G1 X115.946 Y104.840 E48.48402
G1 X113.840 Y106.946 E48.78804
G1 X35.160 Y106.946 E56.81710
G1 X33.054 Y104.840 E57.12112
G1 X33.054 Y57.160 E61.98669
G1 X35.160 Y55.054 E62.29071
G1 X35.886 Y55.054 E62.36477
G1 X36.011 Y54.928 E62.38285
G1 X36.599 Y55.432 F9000.000
G1 F750
G1 X36.599 Y44.386 E63.50999
G1 X38.386 Y42.599 E63.76790
G1 X113.614 Y42.599 E71.44471
G1 X115.401 Y44.386 E71.70261
G1 X115.401 Y104.614 E77.84870
G1 X113.614 Y106.401 E78.10661
G1 X35.386 Y106.401 E86.08956
G1 X33.599 Y104.614 E86.34747
G1 X33.599 Y57.386 E91.16693
G1 X35.386 Y55.599 E91.42484
G1 X36.432 Y55.599 E91.53149
G1 X36.557 Y55.474 E91.54958
G1 X37.145 Y55.977 F9000.000
G1 F750
G1 X37.145 Y44.612 E92.70933
G1 X38.612 Y43.145 E92.92112
G1 X113.388 Y43.145 E100.55182
G1 X114.855 Y44.612 E100.76361
G1 X114.855 Y104.388 E106.86359
G1 X113.388 Y105.855 E107.07538
G1 X35.612 Y105.855 E115.01222
G1 X34.145 Y104.388 E115.22402
G1 X34.145 Y57.612 E119.99736
G1 X35.612 Y56.145 E120.20916
G1 X36.977 Y56.145 E120.34842
G1 X37.102 Y56.019 E120.36651
G1 X37.690 Y56.522 F9000.000
G1 F750
G1 X37.690 Y44.838 E121.55886
G1 X38.838 Y43.690 E121.72454
G1 X113.162 Y43.690 E129.30913
G1 X114.310 Y44.838 E129.47481
G1 X114.310 Y104.162 E135.52867
G1 X113.162 Y105.310 E135.69436
G1 X35.838 Y105.310 E143.58508
G1 X34.690 Y104.162 E143.75077
G1 X34.690 Y57.838 E148.47800
G1 X35.838 Y56.690 E148.64368
G1 X37.522 Y56.690 E148.81555
G1 X37.648 Y56.565 E148.83364
G1 X38.236 Y57.068 F9000.000
G1 F750
G1 X38.236 Y45.064 E150.05860
G1 X39.064 Y44.236 E150.17817
G1 X112.936 Y44.236 E157.71664
G1 X113.764 Y45.064 E157.83621
G1 X113.764 Y103.936 E163.84396
G1 X112.936 Y104.764 E163.96353
G1 X36.064 Y104.764 E171.80815
G1 X35.236 Y103.936 E171.92772
G1 X35.236 Y58.064 E176.60884
G1 X36.064 Y57.236 E176.72841
G1 X38.068 Y57.236 E176.93289
G1 X38.193 Y57.110 E176.95097
G1 X38.781 Y57.613 F9000.000
G1 F750
G1 X38.781 Y45.290 E178.20854
G1 X39.290 Y44.781 E178.28200
G1 X112.710 Y44.781 E185.77435
G1 X113.219 Y45.290 E185.84781
G1 X113.219 Y103.710 E191.80945
G1 X112.710 Y104.219 E191.88291
G1 X36.290 Y104.219 E199.68141
G1 X35.781 Y103.710 E199.75487
G1 X35.781 Y58.290 E204.38988
G1 X36.290 Y57.781 E204.46334
G1 X38.613 Y57.781 E204.70042
G1 X38.739 Y57.656 E204.71851
G1 X39.327 Y58.159 F9000.000
G1 F750
G1 X39.327 Y45.516 E206.00868
G1 X39.516 Y45.327 E206.03602
G1 X112.484 Y45.327 E213.48227
G1 X112.673 Y45.516 E213.50961
G1 X112.673 Y103.484 E219.42514
G1 X112.484 Y103.673 E219.45248
G1 X36.516 Y103.673 E227.20488
G1 X36.327 Y103.484 E227.23222
G1 X36.327 Y58.516 E231.82112
G1 X36.516 Y58.327 E231.84847
G1 X39.159 Y58.327 E232.11815
G1 X39.284 Y58.201 E232.13624
G1 E229.13624 F2400.00000
G92 E0
G1 X39.650 Y53.217 F9000.000
G1 E3.00000 F2400.00000
G1 F375
G1 X40.191 Y52.042 E3.04814
G1 X39.650 Y52.283 F9000.000
G1 F375
G1 X40.132 Y53.329 E3.09098
G1 E0.09098 F2400.00000
G92 E0
G1 X39.950 Y58.950 F9000.000
G1 E3.00000 F2400.00000
G1 F375
G1 X39.950 Y53.638 E3.53232
G1 X40.370 Y54.130 E3.59715
G1 X40.603 Y54.329 E3.62783
G1 X40.864 Y54.489 E3.65851
G1 X41.147 Y54.606 E3.68920
G1 X41.445 Y54.677 E3.71988
G1 X41.750 Y54.701 E3.75057
G1 X42.055 Y54.677 E3.78125
G1 X42.353 Y54.606 E3.81194
G1 X42.636 Y54.489 E3.84262
G1 X42.897 Y54.329 E3.87331
G1 X43.130 Y54.130 E3.90399
G1 X43.329 Y53.897 E3.93468
G1 X43.489 Y53.636 E3.96536
G1 X43.606 Y53.353 E3.99605
G1 X43.677 Y53.055 E4.02673
G1 X43.701 Y52.750 E4.05741
G1 X43.677 Y52.445 E4.08810
G1 X43.606 Y52.147 E4.11878
G1 X43.489 Y51.864 E4.14947
G1 X43.329 Y51.603 E4.18015
G1 X43.130 Y51.370 E4.21084
G1 X42.897 Y51.171 E4.24152
G1 X42.636 Y51.011 E4.27221
G1 X42.353 Y50.894 E4.30289
G1 X42.055 Y50.823 E4.33358
G1 X41.750 Y50.799 E4.36426
G1 X41.445 Y50.823 E4.39495
G1 X41.147 Y50.894 E4.42563
G1 X40.864 Y51.011 E4.45631
G1 X40.603 Y51.171 E4.48700
G1 X40.370 Y51.370 E4.51768
G1 X39.950 Y51.862 E4.58251
G1 X39.950 Y45.950 E5.17495
G1 X112.050 Y45.950 E12.39996
G1 X112.050 Y103.050 E18.12184
G1 X36.950 Y103.050 E25.64747
G1 X36.950 Y58.950 E30.06665
G1 X39.890 Y58.950 E30.36126
G1 X40.301 Y58.758 F9000.000
G1 X40.486 Y59.486 F9000.000
G1 F750
G1 X40.486 Y54.912 E30.81961
G1 X40.981 Y55.117 E30.87333
G1 X41.361 Y55.208 E30.91247
G1 X41.750 Y55.239 E30.95160
G1 X42.139 Y55.208 E30.99073
G1 X42.519 Y55.117 E31.02987
G1 X42.880 Y54.967 E31.06900
G1 X43.213 Y54.763 E31.10813
G1 X43.510 Y54.510 E31.14726
G1 X43.763 Y54.213 E31.18640
G1 X43.967 Y53.880 E31.22553
G1 X44.117 Y53.519 E31.26466
G1 X44.208 Y53.139 E31.30380
G1 X44.239 Y52.750 E31.34293
G1 X44.208 Y52.361 E31.38206
G1 X44.117 Y51.981 E31.42119
G1 X43.967 Y51.620 E31.46033
G1 X43.763 Y51.287 E31.49946
G1 X43.510 Y50.990 E31.53860
G1 X43.213 Y50.737 E31.57773
G1 X42.880 Y50.533 E31.61686
G1 X42.519 Y50.383 E31.65599
G1 X42.139 Y50.292 E31.69513
G1 X41.750 Y50.261 E31.73426
G1 X41.361 Y50.292 E31.77339
G1 X40.981 Y50.383 E31.81252
G1 X40.486 Y50.588 E31.86625
G1 X40.486 Y46.486 E32.27738
G1 X111.514 Y46.486 E39.39503
G1 X111.514 Y102.514 E45.00957
G1 X37.486 Y102.514 E52.42785
G1 X37.486 Y59.486 E56.73968
G1 X40.426 Y59.486 E57.03430
G1 X41.021 Y60.021 F9000.000
G1 F750
G1 X41.021 Y55.677 E57.46959
G1 X41.277 Y55.739 E57.49591
G1 X41.750 Y55.776 E57.54349
G1 X42.223 Y55.739 E57.59107
G1 X42.685 Y55.628 E57.63865
G1 X43.124 Y55.446 E57.68623
G1 X43.529 Y55.198 E57.73381
G1 X43.890 Y54.890 E57.78139
G1 X44.198 Y54.529 E57.82898
G1 X44.446 Y54.124 E57.87656
G1 X44.628 Y53.685 E57.92414
G1 X44.739 Y53.223 E57.97172
G1 X44.776 Y52.750 E58.01930
G1 X44.739 Y52.277 E58.06688
G1 X44.628 Y51.815 E58.11446
G1 X44.446 Y51.376 E58.16204
G1 X44.198 Y50.971 E58.20963
G1 X43.890 Y50.610 E58.25721
G1 X43.529 Y50.302 E58.30479
G1 X43.124 Y50.054 E58.35237
G1 X42.685 Y49.872 E58.39995
G1 X42.223 Y49.761 E58.44753
G1 X41.750 Y49.724 E58.49511
G1 X41.277 Y49.761 E58.54270
G1 X41.021 Y49.823 E58.56902
G1 X41.021 Y47.021 E58.84974
G1 X110.979 Y47.021 E65.86005
G1 X110.979 Y101.979 E71.36724
G1 X38.021 Y101.979 E78.67818
G1 X38.021 Y60.021 E82.88266
G1 X40.961 Y60.021 E83.17727
G1 E80.17727 F2400.00000
G92 E0
G1 X105.323 Y53.055 F9000.000
G1 E3.00000 F2400.00000
G1 F450
G1 X105.299 Y52.750 E3.03068
G1 X105.323 Y52.445 E3.06137
G1 X105.394 Y52.147 E3.09205
G1 X105.511 Y51.864 E3.12274
G1 X105.671 Y51.603 E3.15342
G1 X105.870 Y51.370 E3.18411
G1 X106.103 Y51.171 E3.21479
G1 X106.364 Y51.011 E3.24548
G1 X106.647 Y50.894 E3.27616
G1 X106.945 Y50.823 E3.30685
G1 X107.250 Y50.799 E3.33753
G1 X107.555 Y50.823 E3.36821
G1 X107.853 Y50.894 E3.39890
G1 X108.136 Y51.011 E3.42958
G1 X108.397 Y51.171 E3.46027
G1 X108.630 Y51.370 E3.49095
G1 X108.829 Y51.603 E3.52164
G1 X108.989 Y51.864 E3.55232
G1 X109.106 Y52.147 E3.58301
G1 X109.177 Y52.445 E3.61369
G1 X109.201 Y52.750 E3.64438
G1 X109.177 Y53.055 E3.67506
G1 X109.106 Y53.353 E3.70575
G1 X108.989 Y53.636 E3.73643
G1 X108.829 Y53.897 E3.76712
G1 X108.630 Y54.130 E3.79780
G1 X108.397 Y54.329 E3.82848
G1 X108.136 Y54.489 E3.85917
G1 X107.853 Y54.606 E3.88985
G1 X107.555 Y54.677 E3.92054
G1 X107.250 Y54.701 E3.95122
G1 X106.945 Y54.677 E3.98191
G1 X106.647 Y54.606 E4.01259
G1 X106.364 Y54.489 E4.04328
G1 X106.103 Y54.329 E4.07396
G1 X105.870 Y54.130 E4.10465
G1 X105.671 Y53.897 E4.13533
G1 X105.511 Y53.636 E4.16602
G1 X105.394 Y53.353 E4.19670
G1 X105.337 Y53.114 E4.22137
G1 X105.323 Y53.055 F9000.000
G1 X104.802 Y53.180 F9000.000
G1 F450
G1 X104.761 Y52.750 E4.26468
G1 X104.792 Y52.361 E4.30382
G1 X104.883 Y51.981 E4.34295
G1 X105.033 Y51.620 E4.38208
G1 X105.237 Y51.287 E4.42122
G1 X105.490 Y50.990 E4.46035
G1 X105.787 Y50.737 E4.49948
G1 X106.120 Y50.533 E4.53861
G1 X106.481 Y50.383 E4.57775
G1 X106.861 Y50.292 E4.61688
G1 X107.250 Y50.261 E4.65601
G1 X107.639 Y50.292 E4.69515
G1 X108.019 Y50.383 E4.73428
G1 X108.380 Y50.533 E4.77341
G1 X108.713 Y50.737 E4.81254
G1 X109.010 Y50.990 E4.85168
G1 X109.263 Y51.287 E4.89081
G1 X109.467 Y51.620 E4.92994
G1 X109.617 Y51.981 E4.96908
G1 X109.708 Y52.361 E5.00821
G1 X109.739 Y52.750 E5.04734
G1 X109.708 Y53.139 E5.08648
G1 X109.617 Y53.519 E5.12561
G1 X109.467 Y53.880 E5.16474
G1 X109.263 Y54.213 E5.20388
G1 X109.010 Y54.510 E5.24301
G1 X108.713 Y54.763 E5.28214
G1 X108.380 Y54.967 E5.32127
G1 X108.019 Y55.117 E5.36041
G1 X107.639 Y55.208 E5.39954
G1 X107.250 Y55.239 E5.43867
G1 X106.861 Y55.208 E5.47781
G1 X106.481 Y55.117 E5.51694
G1 X106.120 Y54.967 E5.55607
G1 X105.787 Y54.763 E5.59520
G1 X105.490 Y54.510 E5.63434
G1 X105.237 Y54.213 E5.67347
G1 X105.033 Y53.880 E5.71260
G1 X104.883 Y53.519 E5.75174
G1 X104.816 Y53.239 E5.78063
G1 X104.281 Y53.305 F9000.000
G1 F450
G1 X104.224 Y52.750 E5.83658
G1 X104.261 Y52.277 E5.88416
G1 X104.372 Y51.815 E5.93174
G1 X104.554 Y51.376 E5.97932
G1 X104.802 Y50.971 E6.02690
G1 X105.110 Y50.610 E6.07448
G1 X105.471 Y50.302 E6.12207
G1 X105.876 Y50.054 E6.16964
G1 X106.315 Y49.872 E6.21723
G1 X106.777 Y49.761 E6.26481
G1 X107.250 Y49.724 E6.31239
G1 X107.723 Y49.761 E6.35997
G1 X108.185 Y49.872 E6.40755
G1 X108.624 Y50.054 E6.45513
G1 X109.029 Y50.302 E6.50271
G1 X109.390 Y50.610 E6.55030
G1 X109.698 Y50.971 E6.59788
G1 X109.946 Y51.376 E6.64546
G1 X110.128 Y51.815 E6.69304
G1 X110.239 Y52.277 E6.74062
G1 X110.276 Y52.750 E6.78820
G1 X110.239 Y53.223 E6.83578
G1 X110.128 Y53.685 E6.88337
G1 X109.946 Y54.124 E6.93095
G1 X109.698 Y54.529 E6.97853
G1 X109.390 Y54.890 E7.02611
G1 X109.029 Y55.198 E7.07369
G1 X108.624 Y55.446 E7.12127
G1 X108.185 Y55.628 E7.16885
G1 X107.723 Y55.739 E7.21644
G1 X107.250 Y55.776 E7.26402
G1 X106.777 Y55.739 E7.31160
G1 X106.315 Y55.628 E7.35918
G1 X105.876 Y55.446 E7.40676
G1 X105.471 Y55.198 E7.45434
G1 X105.110 Y54.890 E7.50192
G1 X104.802 Y54.529 E7.54951
G1 X104.554 Y54.124 E7.59708
G1 X104.372 Y53.685 E7.64467
G1 X104.295 Y53.364 E7.67779
G1 E4.67779 F2400.00000
G92 E0
G1 X41.557 Y60.557 F9000.000
G1 E3.00000 F2400.00000
G1 F750
G1 X41.557 Y56.298 E3.42677
G1 X41.750 Y56.313 E3.44618
G1 X42.307 Y56.269 E3.50221
G1 X42.851 Y56.139 E3.55824
G1 X43.368 Y55.925 E3.61427
G1 X43.844 Y55.633 E3.67030
G1 X44.270 Y55.270 E3.72633
G1 X44.633 Y54.844 E3.78236
G1 X44.925 Y54.368 E3.83839
G1 X45.139 Y53.851 E3.89442
G1 X45.269 Y53.307 E3.95045
G1 X45.313 Y52.750 E4.00648
G1 X45.269 Y52.193 E4.06251
G1 X45.139 Y51.649 E4.11854
G1 X44.925 Y51.132 E4.17457
G1 X44.633 Y50.656 E4.23060
G1 X44.270 Y50.230 E4.28663
G1 X43.844 Y49.867 E4.34266
G1 X43.368 Y49.575 E4.39869
G1 X42.851 Y49.361 E4.45472
G1 X42.307 Y49.231 E4.51075
G1 X41.750 Y49.187 E4.56678
G1 X41.557 Y49.202 E4.58619
G1 X41.557 Y47.557 E4.75105
G1 X110.443 Y47.557 E11.65401
G1 X110.443 Y50.714 E11.97039
G1 X110.209 Y50.780 E11.99477
G1 X110.133 Y50.656 E12.00941
G1 X109.770 Y50.230 E12.06543
G1 X109.344 Y49.867 E12.12147
G1 X108.868 Y49.575 E12.17750
G1 X108.351 Y49.361 E12.23353
G1 X107.807 Y49.231 E12.28956
G1 X107.250 Y49.187 E12.34558
G1 X106.693 Y49.231 E12.40161
G1 X106.149 Y49.361 E12.45764
G1 X105.632 Y49.575 E12.51368
G1 X105.156 Y49.867 E12.56970
G1 X104.730 Y50.230 E12.62573
G1 X104.367 Y50.656 E12.68176
G1 X104.075 Y51.132 E12.73779
G1 X103.861 Y51.649 E12.79382
G1 X103.731 Y52.193 E12.84985
G1 X103.687 Y52.750 E12.90588
G1 X103.731 Y53.307 E12.96191
G1 X103.861 Y53.851 E13.01794
G1 X104.075 Y54.368 E13.07397
G1 X104.367 Y54.844 E13.13000
G1 X104.730 Y55.270 E13.18603
G1 X105.156 Y55.633 E13.24206
G1 X105.632 Y55.925 E13.29809
G1 X106.149 Y56.139 E13.35412
G1 X106.693 Y56.269 E13.41015
G1 X107.250 Y56.313 E13.46618
G1 X107.807 Y56.269 E13.52221
G1 X108.351 Y56.139 E13.57824
G1 X108.868 Y55.925 E13.63427
G1 X109.344 Y55.633 E13.69030
G1 X109.770 Y55.270 E13.74633
G1 X110.133 Y54.844 E13.80236
G1 X110.209 Y54.720 E13.81699
G1 X110.443 Y54.786 E13.84137
G1 X110.443 Y96.214 E17.99281
G1 X110.209 Y96.280 E18.01719
G1 X110.133 Y96.156 E18.03183
G1 X109.770 Y95.730 E18.08785
G1 X109.344 Y95.367 E18.14389
G1 X108.868 Y95.075 E18.19992
G1 X108.351 Y94.861 E18.25595
G1 X107.807 Y94.731 E18.31197
G1 X107.250 Y94.687 E18.36800
G1 X106.693 Y94.731 E18.42403
G1 X106.149 Y94.861 E18.48006
G1 X105.632 Y95.075 E18.53609
G1 X105.156 Y95.367 E18.59212
G1 X104.730 Y95.730 E18.64815
G1 X104.367 Y96.156 E18.70418
G1 X104.075 Y96.632 E18.76021
G1 X103.861 Y97.149 E18.81624
G1 X103.731 Y97.693 E18.87227
G1 X103.687 Y98.250 E18.92830
G1 X103.731 Y98.807 E18.98433
G1 X103.861 Y99.351 E19.04036
G1 X104.075 Y99.868 E19.09639
G1 X104.367 Y100.344 E19.15242
G1 X104.730 Y100.770 E19.20845
G1 X105.156 Y101.133 E19.26448
G1 X105.280 Y101.209 E19.27912
G1 X105.214 Y101.443 E19.30349
G1 X43.786 Y101.443 E25.45909
G1 X43.720 Y101.209 E25.48347
G1 X43.844 Y101.133 E25.49811
G1 X44.270 Y100.770 E25.55414
G1 X44.633 Y100.344 E25.61017
G1 X44.925 Y99.868 E25.66620
G1 X45.139 Y99.351 E25.72223
G1 X45.269 Y98.807 E25.77825
G1 X45.313 Y98.250 E25.83429
G1 X45.269 Y97.693 E25.89032
G1 X45.139 Y97.149 E25.94634
G1 X44.925 Y96.632 E26.00237
G1 X44.633 Y96.156 E26.05840
G1 X44.270 Y95.730 E26.11443
G1 X43.844 Y95.367 E26.17047
G1 X43.368 Y95.075 E26.22649
G1 X42.851 Y94.861 E26.28252
G1 X42.307 Y94.731 E26.33855
G1 X41.750 Y94.687 E26.39458
G1 X41.193 Y94.731 E26.45061
G1 X40.649 Y94.861 E26.50664
G1 X40.132 Y95.075 E26.56267
G1 X39.656 Y95.367 E26.61870
G1 X39.230 Y95.730 E26.67473
G1 X38.867 Y96.156 E26.73076
G1 X38.791 Y96.280 E26.74539
G1 X38.557 Y96.214 E26.76977
G1 X38.557 Y60.557 E30.34291
G1 X41.497 Y60.557 E30.63753
G1 E27.63753 F2400.00000
G92 E0
