; generated by Slic3r 1.3.1-dev (Build 05a2f9028a35c56e039cf7a531d63b7ff7e97645) on 2019-02-23 at 11:12:12

; Filament notes: 
; Benötigt -100um compensation
; 
; external perimeters extrusion width = 0.44mm (1.05mm^3/s)
; perimeters extrusion width = 0.56mm (2.69mm^3/s)
; infill extrusion width = 0.50mm (3.35mm^3/s)
; solid infill extrusion width = 0.56mm (2.69mm^3/s)
; top infill extrusion width = 0.56mm (2.15mm^3/s)

M107
M104 S215 ; set temperature
G21                                  ; set units to millimeters
G90                                  ; use absolute coordinates
G92 E0                               ; Reset the extruder's origin
M82                                  ; use absolute distances for extrusion
G1 F900.000 E-4.00000                ; Retract 4 millimetres of filament
G92 E0                               ; Reset the extruder's origin
G1 Z0.350 F6000.000                  ; move to Z=0.35
G1 X5.000 Y31.000                    ; move to X=3, Y=31 (start)
G1 F900.000 E4.00000                 ; Extrude 4 millimetres of filament
G1 X5.000 Y81.000 E50.00000
; Filament gcode

M109 S215 ; set temperature and wait for it to be reached
G21 ; set units to millimeters
G90 ; use absolute coordinates
M82 ; use absolute distances for extrusion
G92 E0
G92 E0
G1 E-3.00000 F2400.00000
G92 E0
G1 Z0.300 F9000.000
G1 X65.867 Y35.800 F9000.000
G1 E3.00000 F2400.00000
G1 F750
G1 X65.700 Y35.633 E3.02421
G1 X45.933 Y35.633 E5.04140
G1 X42.867 Y32.567 E5.48376
G1 X42.867 Y18.433 E6.92619
G1 X45.933 Y15.367 E7.36855
G1 X47.064 Y15.367 E7.48396
G1 X47.196 Y15.291 E7.49962
G1 X48.884 Y12.367 E7.84409
G1 X66.580 Y12.367 E9.64989
G1 X68.268 Y15.291 E9.99436
G1 X68.401 Y15.367 E10.01002
G1 X77.067 Y15.367 E10.89446
G1 X80.133 Y18.433 E11.33681
G1 X80.133 Y65.200 E16.10931
G1 X80.300 Y65.367 E16.13352
G1 X92.567 Y65.367 E17.38535
G1 X95.633 Y68.433 E17.82771
G1 X95.633 Y80.757 E19.08536
G1 X92.567 Y83.822 E19.52772
G1 X80.800 Y83.822 E20.72853
G1 X80.633 Y83.990 E20.75274
G1 X80.633 Y113.010 E23.71425
G1 X80.800 Y113.178 E23.73846
G1 X92.567 Y113.178 E24.93927
G1 X95.633 Y116.243 E25.38163
G1 X95.633 Y121.200 E25.88742
G1 X95.800 Y121.367 E25.91163
G1 X103.067 Y121.367 E26.65322
G1 X106.133 Y124.433 E27.09558
G1 X106.133 Y133.567 E28.02777
G1 X103.067 Y136.633 E28.47013
G1 X68.933 Y136.633 E31.95352
G1 X65.867 Y133.567 E32.39587
G1 X65.867 Y35.860 E42.36670
G1 X66.413 Y35.255 F9000.000
G1 F750
G1 X66.245 Y35.087 E42.39091
G1 X46.159 Y35.087 E44.44071
G1 X43.413 Y32.341 E44.83696
G1 X43.413 Y18.659 E46.23327
G1 X46.159 Y15.913 E46.62952
G1 X47.379 Y15.913 E46.75401
G1 X47.511 Y15.836 E46.76967
G1 X49.199 Y12.913 E47.11414
G1 X66.265 Y12.913 E48.85567
G1 X67.953 Y15.836 E49.20013
G1 X68.086 Y15.913 E49.21579
G1 X76.841 Y15.913 E50.10931
G1 X79.587 Y18.659 E50.50556
G1 X79.587 Y65.745 E55.31066
G1 X79.755 Y65.913 E55.33487
G1 X92.341 Y65.913 E56.61931
G1 X95.087 Y68.659 E57.01555
G1 X95.087 Y80.531 E58.22710
G1 X92.341 Y83.276 E58.62334
G1 X80.255 Y83.276 E59.85676
G1 X80.087 Y83.444 E59.88097
G1 X80.087 Y113.556 E62.95380
G1 X80.255 Y113.724 E62.97801
G1 X92.341 Y113.724 E64.21143
G1 X95.087 Y116.469 E64.60767
G1 X95.087 Y121.745 E65.14607
G1 X95.255 Y121.913 E65.17028
G1 X102.841 Y121.913 E65.94448
G1 X105.587 Y124.659 E66.34073
G1 X105.587 Y133.341 E67.22680
G1 X102.841 Y136.087 E67.62305
G1 X69.159 Y136.087 E71.06033
G1 X66.413 Y133.341 E71.45657
G1 X66.413 Y35.315 E81.46001
G1 X66.958 Y34.709 F9000.000
G1 F750
G1 X66.791 Y34.542 E81.48421
G1 X46.384 Y34.542 E83.56662
G1 X43.958 Y32.116 E83.91676
G1 X43.958 Y18.884 E85.26696
G1 X46.384 Y16.458 E85.61709
G1 X47.693 Y16.458 E85.75067
G1 X47.826 Y16.382 E85.76633
G1 X49.514 Y13.458 E86.11079
G1 X65.950 Y13.458 E87.78805
G1 X67.638 Y16.382 E88.13251
G1 X67.771 Y16.458 E88.14817
G1 X76.616 Y16.458 E89.05078
G1 X79.042 Y18.884 E89.40091
G1 X79.042 Y66.291 E94.23862
G1 X79.209 Y66.458 E94.26282
G1 X92.116 Y66.458 E95.57987
G1 X94.542 Y68.884 E95.93000
G1 X94.542 Y80.305 E97.09543
G1 X92.116 Y82.731 E97.44557
G1 X79.709 Y82.731 E98.71159
G1 X79.542 Y82.899 E98.73580
G1 X79.542 Y114.101 E101.91996
G1 X79.709 Y114.269 E101.94417
G1 X92.116 Y114.269 E103.21019
G1 X94.542 Y116.695 E103.56032
G1 X94.542 Y122.291 E104.13133
G1 X94.709 Y122.458 E104.15554
G1 X102.616 Y122.458 E104.96234
G1 X105.042 Y124.884 E105.31248
G1 X105.042 Y133.116 E106.15244
G1 X102.616 Y135.542 E106.50257
G1 X69.384 Y135.542 E109.89374
G1 X66.958 Y133.116 E110.24387
G1 X66.958 Y34.769 E120.27991
G1 X67.504 Y34.164 F9000.000
G1 F750
G1 X67.336 Y33.996 E120.30412
G1 X46.610 Y33.996 E122.41914
G1 X44.504 Y31.890 E122.72316
G1 X44.504 Y19.110 E124.02725
G1 X46.610 Y17.004 E124.33127
G1 X48.008 Y17.004 E124.47393
G1 X48.141 Y16.927 E124.48959
G1 X49.829 Y14.004 E124.83405
G1 X65.635 Y14.004 E126.44703
G1 X67.323 Y16.927 E126.79150
G1 X67.456 Y17.004 E126.80716
G1 X76.390 Y17.004 E127.71884
G1 X78.496 Y19.110 E128.02286
G1 X78.496 Y66.836 E132.89317
G1 X78.664 Y67.004 E132.91738
G1 X91.890 Y67.004 E134.26704
G1 X93.996 Y69.110 E134.57106
G1 X93.996 Y80.079 E135.69037
G1 X91.890 Y82.186 E135.99439
G1 X79.164 Y82.186 E137.29302
G1 X78.996 Y82.353 E137.31723
G1 X78.996 Y114.647 E140.61272
G1 X79.164 Y114.814 E140.63693
G1 X91.890 Y114.814 E141.93555
G1 X93.996 Y116.921 E142.23958
G1 X93.996 Y122.836 E142.84319
G1 X94.164 Y123.004 E142.86740
G1 X102.390 Y123.004 E143.70681
G1 X104.496 Y125.110 E144.01083
G1 X104.496 Y132.890 E144.80468
G1 X102.390 Y134.996 E145.10870
G1 X69.610 Y134.996 E148.45376
G1 X67.504 Y132.890 E148.75778
G1 X67.504 Y34.224 E158.82642
G1 X68.049 Y33.618 F9000.000
G1 F750
G1 X67.882 Y33.451 E158.85063
G1 X46.836 Y33.451 E160.99825
G1 X45.049 Y31.664 E161.25616
G1 X45.049 Y19.336 E162.51414
G1 X46.836 Y17.549 E162.77205
G1 X48.323 Y17.549 E162.92379
G1 X48.456 Y17.473 E162.93945
G1 X50.144 Y14.549 E163.28391
G1 X65.320 Y14.549 E164.83262
G1 X67.008 Y17.473 E165.17708
G1 X67.141 Y17.549 E165.19274
G1 X76.164 Y17.549 E166.11351
G1 X77.951 Y19.336 E166.37141
G1 X77.951 Y67.382 E171.27433
G1 X78.118 Y67.549 E171.29854
G1 X91.664 Y67.549 E172.68080
G1 X93.451 Y69.336 E172.93871
G1 X93.451 Y79.853 E174.01192
G1 X91.664 Y81.640 E174.26982
G1 X78.618 Y81.640 E175.60106
G1 X78.451 Y81.808 E175.62527
G1 X78.451 Y115.192 E179.03208
G1 X78.618 Y115.360 E179.05629
G1 X91.664 Y115.360 E180.38752
G1 X93.451 Y117.147 E180.64543
G1 X93.451 Y123.382 E181.28165
G1 X93.618 Y123.549 E181.30586
G1 X102.164 Y123.549 E182.17788
G1 X103.951 Y125.336 E182.43579
G1 X103.951 Y132.664 E183.18353
G1 X102.164 Y134.451 E183.44143
G1 X69.836 Y134.451 E186.74038
G1 X68.049 Y132.664 E186.99828
G1 X68.049 Y33.678 E197.09954
G1 X68.595 Y33.073 F9000.000
G1 F750
G1 X68.427 Y32.905 E197.12375
G1 X47.062 Y32.905 E199.30397
G1 X45.595 Y31.438 E199.51577
G1 X45.595 Y19.562 E200.72763
G1 X47.062 Y18.095 E200.93943
G1 X48.967 Y18.095 E201.13384
G1 X49.133 Y17.808 E201.16758
G1 X49.012 Y17.600 E201.19214
G1 X50.459 Y15.095 E201.48735
G1 X65.005 Y15.095 E202.97178
G1 X66.452 Y17.600 E203.26699
G1 X66.331 Y17.808 E203.29155
G1 X66.497 Y18.095 E203.32529
G1 X75.938 Y18.095 E204.28872
G1 X77.405 Y19.562 E204.50052
G1 X77.405 Y67.927 E209.43605
G1 X77.573 Y68.095 E209.46025
G1 X91.438 Y68.095 E210.87512
G1 X92.905 Y69.562 E211.08692
G1 X92.905 Y79.627 E212.11401
G1 X91.438 Y81.095 E212.32580
G1 X78.073 Y81.095 E213.68965
G1 X77.905 Y81.262 E213.71385
G1 X77.905 Y115.738 E217.23199
G1 X78.073 Y115.905 E217.25620
G1 X91.438 Y115.905 E218.62004
G1 X92.905 Y117.373 E218.83184
G1 X92.905 Y123.927 E219.50066
G1 X93.073 Y124.095 E219.52487
G1 X101.938 Y124.095 E220.42950
G1 X103.405 Y125.562 E220.64129
G1 X103.405 Y132.438 E221.34292
G1 X101.938 Y133.905 E221.55471
G1 X70.062 Y133.905 E224.80754
G1 X68.595 Y132.438 E225.01934
G1 X68.595 Y33.133 E235.15320
G1 X69.140 Y32.528 F9000.000
G1 F750
G1 X68.972 Y32.360 E235.17741
G1 X47.288 Y32.360 E237.39024
G1 X46.140 Y31.212 E237.55592
G1 X46.140 Y19.788 E238.72168
G1 X47.288 Y18.640 E238.88736
G1 X49.912 Y18.640 E239.15513
G1 X50.077 Y18.354 E239.18887
G1 X49.642 Y17.600 E239.27769
G1 X50.774 Y15.640 E239.50863
G1 X64.690 Y15.640 E240.92880
G1 X65.822 Y17.600 E241.15973
G1 X65.387 Y18.354 E241.24856
G1 X65.552 Y18.640 E241.28230
G1 X75.712 Y18.640 E242.31909
G1 X76.860 Y19.788 E242.48477
G1 X76.860 Y68.472 E247.45291
G1 X77.028 Y68.640 E247.47712
G1 X91.212 Y68.640 E248.92459
G1 X92.360 Y69.788 E249.09027
G1 X92.360 Y79.401 E250.07125
G1 X91.212 Y80.549 E250.23693
G1 X77.528 Y80.549 E251.63338
G1 X77.360 Y80.717 E251.65759
G1 X77.360 Y116.283 E255.28705
G1 X77.528 Y116.451 E255.31126
G1 X91.212 Y116.451 E256.70771
G1 X92.360 Y117.599 E256.87339
G1 X92.360 Y124.472 E257.57482
G1 X92.528 Y124.640 E257.59903
G1 X101.712 Y124.640 E258.53626
G1 X102.860 Y125.788 E258.70195
G1 X102.860 Y132.212 E259.35746
G1 X101.712 Y133.360 E259.52315
G1 X70.288 Y133.360 E262.72986
G1 X69.140 Y132.212 E262.89555
G1 X69.140 Y32.588 E273.06201
G1 X69.686 Y31.982 F9000.000
G1 F750
G1 X69.518 Y31.814 E273.08622
G1 X47.514 Y31.814 E275.33166
G1 X46.686 Y30.986 E275.45123
G1 X46.686 Y20.014 E276.57087
G1 X47.514 Y19.186 E276.69044
G1 X50.857 Y19.186 E277.03156
G1 X51.022 Y18.899 E277.06531
G1 X50.272 Y17.600 E277.21840
G1 X51.089 Y16.186 E277.38507
G1 X64.375 Y16.186 E278.74096
G1 X65.192 Y17.600 E278.90762
G1 X64.442 Y18.899 E279.06072
G1 X64.607 Y19.186 E279.09446
G1 X75.486 Y19.186 E280.20461
G1 X76.314 Y20.014 E280.32418
G1 X76.314 Y69.018 E285.32492
G1 X76.482 Y69.186 E285.34913
G1 X90.986 Y69.186 E286.82920
G1 X91.814 Y70.014 E286.94878
G1 X91.814 Y79.175 E287.88364
G1 X90.986 Y80.004 E288.00321
G1 X76.982 Y80.004 E289.43227
G1 X76.814 Y80.171 E289.45648
G1 X76.814 Y116.829 E293.19726
G1 X76.982 Y116.996 E293.22147
G1 X90.986 Y116.996 E294.65053
G1 X91.814 Y117.825 E294.77010
G1 X91.814 Y125.018 E295.50414
G1 X91.982 Y125.186 E295.52835
G1 X101.486 Y125.186 E296.49818
G1 X102.314 Y126.014 E296.61775
G1 X102.314 Y131.986 E297.22716
G1 X101.486 Y132.814 E297.34673
G1 X70.514 Y132.814 E300.50733
G1 X69.686 Y131.986 E300.62690
G1 X69.686 Y32.042 E310.82597
G1 X70.231 Y31.437 F9000.000
G1 F750
G1 X70.063 Y31.269 E310.85018
G1 X47.740 Y31.269 E313.12823
G1 X47.231 Y30.760 E313.20169
G1 X47.231 Y20.240 E314.27522
G1 X47.740 Y19.731 E314.34868
G1 X51.802 Y19.731 E314.76315
G1 X51.967 Y19.445 E314.79689
G1 X50.902 Y17.600 E315.01426
G1 X51.404 Y16.731 E315.11665
G1 X64.061 Y16.731 E316.40827
G1 X64.562 Y17.600 E316.51066
G1 X63.497 Y19.445 E316.72803
G1 X63.662 Y19.731 E316.76178
G1 X75.260 Y19.731 E317.94527
G1 X75.769 Y20.240 E318.01873
G1 X75.769 Y69.563 E323.05208
G1 X75.937 Y69.731 E323.07629
G1 X90.760 Y69.731 E324.58897
G1 X91.269 Y70.240 E324.66243
G1 X91.269 Y78.949 E325.55119
G1 X90.760 Y79.458 E325.62464
G1 X76.437 Y79.458 E327.08630
G1 X76.269 Y79.626 E327.11051
G1 X76.269 Y117.374 E330.96262
G1 X76.437 Y117.542 E330.98683
G1 X90.760 Y117.542 E332.44849
G1 X91.269 Y118.051 E332.52195
G1 X91.269 Y125.563 E333.28860
G1 X91.437 Y125.731 E333.31281
G1 X101.260 Y125.731 E334.31525
G1 X101.769 Y126.240 E334.38871
G1 X101.769 Y131.760 E334.95200
G1 X101.260 Y132.269 E335.02546
G1 X70.740 Y132.269 E338.13995
G1 X70.231 Y131.760 E338.21341
G1 X70.231 Y31.497 E348.44509
G1 X70.777 Y30.891 F9000.000
G1 F750
G1 X70.609 Y30.723 E348.46930
G1 X47.966 Y30.723 E350.77995
G1 X47.777 Y30.534 E350.80729
G1 X47.777 Y20.466 E351.83471
G1 X47.966 Y20.277 E351.86206
G1 X52.746 Y20.277 E352.34989
G1 X52.912 Y19.990 E352.38363
G1 X51.532 Y17.600 E352.66527
G1 X51.718 Y17.277 E352.70339
G1 X63.746 Y17.277 E353.93073
G1 X63.932 Y17.600 E353.96885
G1 X62.552 Y19.990 E354.25050
G1 X62.718 Y20.277 E354.28424
G1 X75.034 Y20.277 E355.54109
G1 X75.223 Y20.466 E355.56844
G1 X75.223 Y70.109 E360.63439
G1 X75.391 Y70.277 E360.65860
G1 X90.534 Y70.277 E362.20389
G1 X90.723 Y70.466 E362.23123
G1 X90.723 Y78.723 E363.07388
G1 X90.534 Y78.913 E363.10122
G1 X75.891 Y78.913 E364.59549
G1 X75.723 Y79.081 E364.61970
G1 X75.723 Y117.919 E368.58314
G1 X75.891 Y118.087 E368.60735
G1 X90.534 Y118.087 E370.10161
G1 X90.723 Y118.277 E370.12896
G1 X90.723 Y126.109 E370.92821
G1 X90.891 Y126.277 E370.95242
G1 X101.034 Y126.277 E371.98747
G1 X101.223 Y126.466 E372.01482
G1 X101.223 Y131.534 E372.53199
G1 X101.034 Y131.723 E372.55934
G1 X70.966 Y131.723 E375.62772
G1 X70.777 Y131.534 E375.65507
G1 X70.777 Y30.951 E385.91935
G1 E382.91935 F2400.00000
G92 E0
G1 X74.600 Y70.900 F9000.000
G1 E3.00000 F2400.00000
G1 F375
G1 X90.100 Y70.900 E4.55323
G1 X90.100 Y78.289 E5.29370
G1 X75.100 Y78.289 E6.79682
G1 X75.100 Y118.711 E10.84736
G1 X90.100 Y118.711 E12.35049
G1 X90.100 Y126.900 E13.17112
G1 X100.600 Y126.900 E14.22331
G1 X100.600 Y131.100 E14.64418
G1 X71.400 Y131.100 E17.57026
G1 X71.400 Y30.100 E27.69128
G1 X48.400 Y30.100 E29.99607
G1 X48.400 Y20.900 E30.91798
G1 X54.157 Y20.900 E31.49487
G1 X52.425 Y17.900 E31.84200
G1 X63.039 Y17.900 E32.90565
G1 X61.307 Y20.900 E33.25278
G1 X74.600 Y20.900 E34.58483
G1 X74.600 Y70.840 E39.58922
G1 X74.635 Y71.298 F9000.000
G1 X74.064 Y71.436 F9000.000
G1 F750
G1 X89.564 Y71.436 E41.14245
G1 X89.564 Y77.754 E41.77557
G1 X74.564 Y77.754 E43.27869
G1 X74.564 Y119.246 E47.43658
G1 X89.564 Y119.246 E48.93971
G1 X89.564 Y127.436 E49.76034
G1 X100.064 Y127.436 E50.81253
G1 X100.064 Y130.564 E51.12606
G1 X71.936 Y130.564 E53.94479
G1 X71.936 Y29.564 E64.06581
G1 X48.936 Y29.564 E66.37059
G1 X48.936 Y21.436 E67.18516
G1 X55.085 Y21.436 E67.80134
G1 X53.353 Y18.436 E68.14847
G1 X62.112 Y18.436 E69.02619
G1 X60.379 Y21.436 E69.37332
G1 X74.064 Y21.436 E70.74466
G1 X74.064 Y71.376 E75.74905
G1 X73.529 Y71.971 F9000.000
G1 F750
G1 X89.029 Y71.971 E77.30228
G1 X89.029 Y77.218 E77.82806
G1 X74.029 Y77.218 E79.33118
G1 X74.029 Y119.782 E83.59642
G1 X89.029 Y119.782 E85.09954
G1 X89.029 Y127.971 E85.92018
G1 X99.529 Y127.971 E86.97236
G1 X99.529 Y130.029 E87.17854
G1 X72.471 Y130.029 E89.88993
G1 X72.471 Y29.029 E100.01095
G1 X49.471 Y29.029 E102.31573
G1 X49.471 Y21.971 E103.02295
G1 X56.012 Y21.971 E103.67843
G1 X54.280 Y18.971 E104.02556
G1 X61.184 Y18.971 E104.71734
G1 X59.452 Y21.971 E105.06447
G1 X73.529 Y21.971 E106.47511
G1 X73.529 Y71.911 E111.47950
G1 E108.47950 F2400.00000
G92 E0
G1 X58.524 Y22.507 F9000.000
G1 E3.00000 F2400.00000
G1 F750
G1 X72.993 Y22.507 E4.44992
G1 X72.993 Y28.493 E5.04980
G1 X50.007 Y28.493 E7.35321
G1 X50.007 Y22.507 E7.95309
G1 X56.940 Y22.507 E8.64785
G1 X55.208 Y19.507 E8.99498
G1 X60.256 Y19.507 E9.50084
G1 X58.554 Y22.455 E9.84195
G1 E6.84195 F2400.00000
G92 E0
G1 X73.493 Y76.682 F9000.000
G1 E3.00000 F2400.00000
G1 F750
G1 X73.493 Y120.318 E7.37258
G1 X88.493 Y120.318 E8.87571
G1 X88.493 Y128.507 E9.69634
G1 X98.993 Y128.507 E10.74853
G1 X98.993 Y129.493 E10.84736
G1 X73.007 Y129.493 E13.45140
G1 X73.007 Y72.507 E19.16189
G1 X88.493 Y72.507 E20.71374
G1 X88.493 Y76.682 E21.13217
G1 X73.553 Y76.682 E22.62928
G1 E19.62928 F2400.00000
G92 E0
G1 X73.486 Y73.099 F9000.000
G1 E3.00000 F2400.00000
G1 F750
G1 X73.599 Y72.986 E3.01619
G1 X74.361 Y72.986 E3.09295
G1 X73.486 Y73.861 E3.21771
G1 X73.486 Y74.623 E3.29446
G1 X75.123 Y72.986 E3.52777
G1 X75.885 Y72.986 E3.60453
G1 X73.486 Y75.385 E3.94638
G1 X73.486 Y76.146 E4.02314
G1 X76.646 Y72.986 E4.47354
G1 X77.408 Y72.986 E4.55030
G1 X74.190 Y76.204 E5.00889
G1 X74.952 Y76.204 E5.08564
G1 X78.170 Y72.986 E5.54424
G1 X78.931 Y72.986 E5.62099
G1 X75.713 Y76.204 E6.07958
G1 X76.475 Y76.204 E6.15634
G1 X79.693 Y72.986 E6.61493
G1 X80.455 Y72.986 E6.69168
G1 X77.237 Y76.204 E7.15028
G1 X77.998 Y76.204 E7.22703
G1 X81.216 Y72.986 E7.68562
G1 X81.978 Y72.986 E7.76238
G1 X78.760 Y76.204 E8.22097
G1 X79.522 Y76.204 E8.29773
G1 X82.740 Y72.986 E8.75632
G1 X83.502 Y72.986 E8.83307
G1 X80.284 Y76.204 E9.29166
G1 X81.045 Y76.204 E9.36842
G1 X84.263 Y72.986 E9.82701
G1 X85.025 Y72.986 E9.90377
G1 X81.807 Y76.204 E10.36236
G1 X82.569 Y76.204 E10.43911
G1 X85.787 Y72.986 E10.89771
G1 X86.548 Y72.986 E10.97446
G1 X83.330 Y76.204 E11.43305
G1 X84.092 Y76.204 E11.50981
G1 X87.310 Y72.986 E11.96840
G1 X88.014 Y72.986 E12.03936
G1 X88.014 Y73.043 E12.04515
