; generated by Slic3r 1.3.1-dev (Build 05a2f9028a35c56e039cf7a531d63b7ff7e97645) on 2019-02-23 at 11:11:20

; Filament notes: 
; Benötigt -100um compensation
; 
; external perimeters extrusion width = 0.44mm (1.05mm^3/s)
; perimeters extrusion width = 0.56mm (2.69mm^3/s)
; infill extrusion width = 0.50mm (3.35mm^3/s)
; solid infill extrusion width = 0.56mm (2.69mm^3/s)
; top infill extrusion width = 0.56mm (2.15mm^3/s)

M107
M104 S215 ; set temperature
G21                                  ; set units to millimeters
G90                                  ; use absolute coordinates
G92 E0                               ; Reset the extruder's origin
M82                                  ; use absolute distances for extrusion
G1 F900.000 E-4.00000                ; Retract 4 millimetres of filament
G92 E0                               ; Reset the extruder's origin
G1 Z0.350 F6000.000                  ; move to Z=0.35
G1 X5.000 Y31.000                    ; move to X=3, Y=31 (start)
G1 F900.000 E4.00000                 ; Extrude 4 millimetres of filament
G1 X5.000 Y81.000 E50.00000
; Filament gcode

M109 S215 ; set temperature and wait for it to be reached
G21 ; set units to millimeters
G90 ; use absolute coordinates
M82 ; use absolute distances for extrusion
G92 E0
G92 E0
G1 E-3.00000 F2400.00000
G92 E0
G1 Z0.300 F9000.000
G1 X65.867 Y35.800 F9000.000
G1 E3.00000 F2400.00000
G1 F750
G1 X65.700 Y35.633 E3.02421
G1 X45.933 Y35.633 E5.04140
G1 X42.867 Y32.567 E5.48376
G1 X42.867 Y18.433 E6.92619
G1 X45.933 Y15.367 E7.36855
G1 X47.064 Y15.367 E7.48396
G1 X47.196 Y15.291 E7.49962
G1 X48.884 Y12.367 E7.84409
G1 X66.580 Y12.367 E9.64989
G1 X68.268 Y15.291 E9.99436
G1 X68.401 Y15.367 E10.01002
G1 X77.067 Y15.367 E10.89446
G1 X80.133 Y18.433 E11.33681
G1 X80.133 Y67.871 E16.38190
G1 X80.176 Y67.976 E16.39353
G1 X80.633 Y68.433 E16.45940
G1 X80.633 Y121.200 E21.84418
G1 X80.800 Y121.367 E21.86839
G1 X103.067 Y121.367 E24.14070
G1 X106.133 Y124.433 E24.58306
G1 X106.133 Y133.567 E25.51525
G1 X103.067 Y136.633 E25.95761
G1 X68.933 Y136.633 E29.44100
G1 X65.867 Y133.567 E29.88336
G1 X65.867 Y35.860 E39.85418
G1 X66.413 Y35.255 F9000.000
G1 F750
G1 X66.245 Y35.087 E39.87839
G1 X46.159 Y35.087 E41.92820
G1 X43.413 Y32.341 E42.32444
G1 X43.413 Y18.659 E43.72076
G1 X46.159 Y15.913 E44.11700
G1 X47.379 Y15.913 E44.24150
G1 X47.511 Y15.836 E44.25716
G1 X49.199 Y12.913 E44.60162
G1 X66.265 Y12.913 E46.34315
G1 X67.953 Y15.836 E46.68762
G1 X68.086 Y15.913 E46.70328
G1 X76.841 Y15.913 E47.59680
G1 X79.587 Y18.659 E47.99304
G1 X79.587 Y68.097 E53.03813
G1 X79.631 Y68.202 E53.04976
G1 X80.087 Y68.659 E53.11563
G1 X80.087 Y121.745 E58.53302
G1 X80.255 Y121.913 E58.55723
G1 X102.841 Y121.913 E60.86215
G1 X105.587 Y124.659 E61.25839
G1 X105.587 Y133.341 E62.14447
G1 X102.841 Y136.087 E62.54071
G1 X69.159 Y136.087 E65.97799
G1 X66.413 Y133.341 E66.37424
G1 X66.413 Y35.315 E76.37767
G1 X66.958 Y34.709 F9000.000
G1 F750
G1 X66.791 Y34.542 E76.40188
G1 X46.384 Y34.542 E78.48429
G1 X43.958 Y32.116 E78.83442
G1 X43.958 Y18.884 E80.18463
G1 X46.384 Y16.458 E80.53476
G1 X47.693 Y16.458 E80.66833
G1 X47.826 Y16.382 E80.68399
G1 X49.514 Y13.458 E81.02846
G1 X65.950 Y13.458 E82.70572
G1 X67.638 Y16.382 E83.05018
G1 X67.771 Y16.458 E83.06584
G1 X76.616 Y16.458 E83.96844
G1 X79.042 Y18.884 E84.31857
G1 X79.042 Y68.323 E89.36366
G1 X79.085 Y68.428 E89.37529
G1 X79.542 Y68.884 E89.44116
G1 X79.542 Y122.291 E94.89115
G1 X79.709 Y122.458 E94.91536
G1 X102.616 Y122.458 E97.25289
G1 X105.042 Y124.884 E97.60302
G1 X105.042 Y133.116 E98.44299
G1 X102.616 Y135.542 E98.79312
G1 X69.384 Y135.542 E102.18429
G1 X66.958 Y133.116 E102.53442
G1 X66.958 Y34.769 E112.57046
G1 X67.504 Y34.164 F9000.000
G1 F750
G1 X67.336 Y33.996 E112.59467
G1 X46.610 Y33.996 E114.70968
G1 X44.504 Y31.890 E115.01370
G1 X44.504 Y19.110 E116.31780
G1 X46.610 Y17.004 E116.62182
G1 X48.008 Y17.004 E116.76447
G1 X48.141 Y16.927 E116.78013
G1 X49.829 Y14.004 E117.12460
G1 X65.635 Y14.004 E118.73758
G1 X67.323 Y16.927 E119.08204
G1 X67.456 Y17.004 E119.09771
G1 X76.390 Y17.004 E120.00939
G1 X78.496 Y19.110 E120.31341
G1 X78.496 Y68.549 E125.35850
G1 X78.540 Y68.654 E125.37012
G1 X78.996 Y69.110 E125.43599
G1 X78.996 Y122.836 E130.91859
G1 X79.164 Y123.004 E130.94280
G1 X102.390 Y123.004 E133.31294
G1 X104.496 Y125.110 E133.61696
G1 X104.496 Y132.890 E134.41081
G1 X102.390 Y134.996 E134.71483
G1 X69.610 Y134.996 E138.05988
G1 X67.504 Y132.890 E138.36390
G1 X67.504 Y34.224 E148.43255
G1 X68.049 Y33.618 F9000.000
G1 F750
G1 X67.882 Y33.451 E148.45676
G1 X46.836 Y33.451 E150.60438
G1 X45.049 Y31.664 E150.86229
G1 X45.049 Y19.336 E152.12027
G1 X46.836 Y17.549 E152.37817
G1 X48.323 Y17.549 E152.52991
G1 X48.456 Y17.473 E152.54557
G1 X50.144 Y14.549 E152.89004
G1 X65.320 Y14.549 E154.43875
G1 X67.008 Y17.473 E154.78321
G1 X67.141 Y17.549 E154.79887
G1 X76.164 Y17.549 E155.71963
G1 X77.951 Y19.336 E155.97754
G1 X77.951 Y68.775 E161.02263
G1 X77.994 Y68.880 E161.03426
G1 X78.451 Y69.336 E161.10012
G1 X78.451 Y123.382 E166.61533
G1 X78.618 Y123.549 E166.63954
G1 X102.164 Y123.549 E169.04228
G1 X103.951 Y125.336 E169.30019
G1 X103.951 Y132.664 E170.04793
G1 X102.164 Y134.451 E170.30584
G1 X69.836 Y134.451 E173.60478
G1 X68.049 Y132.664 E173.86269
G1 X68.049 Y33.678 E183.96394
G1 X68.595 Y33.073 F9000.000
G1 F750
G1 X68.427 Y32.905 E183.98815
G1 X47.062 Y32.905 E186.16838
G1 X45.595 Y31.438 E186.38017
G1 X45.595 Y19.562 E187.59204
G1 X47.062 Y18.095 E187.80384
G1 X48.967 Y18.095 E187.99825
G1 X49.133 Y17.808 E188.03199
G1 X49.012 Y17.600 E188.05654
G1 X50.459 Y15.095 E188.35175
G1 X65.005 Y15.095 E189.83619
G1 X66.452 Y17.600 E190.13140
G1 X66.331 Y17.808 E190.15595
G1 X66.497 Y18.095 E190.18969
G1 X75.938 Y18.095 E191.15313
G1 X77.405 Y19.562 E191.36492
G1 X77.405 Y69.001 E196.41002
G1 X77.449 Y69.106 E196.42164
G1 X77.905 Y69.562 E196.48751
G1 X77.905 Y123.927 E202.03532
G1 X78.073 Y124.095 E202.05953
G1 X101.938 Y124.095 E204.49488
G1 X103.405 Y125.562 E204.70668
G1 X103.405 Y132.438 E205.40830
G1 X101.938 Y133.905 E205.62010
G1 X70.062 Y133.905 E208.87293
G1 X68.595 Y132.438 E209.08472
G1 X68.595 Y33.133 E219.21858
G1 X69.140 Y32.528 F9000.000
G1 F750
G1 X68.972 Y32.360 E219.24279
G1 X47.288 Y32.360 E221.45562
G1 X46.140 Y31.212 E221.62131
G1 X46.140 Y19.788 E222.78706
G1 X47.288 Y18.640 E222.95275
G1 X49.912 Y18.640 E223.22051
G1 X50.077 Y18.354 E223.25425
G1 X49.642 Y17.600 E223.34308
G1 X50.774 Y15.640 E223.57401
G1 X64.690 Y15.640 E224.99418
G1 X65.822 Y17.600 E225.22512
G1 X65.387 Y18.354 E225.31394
G1 X65.552 Y18.640 E225.34768
G1 X75.712 Y18.640 E226.38447
G1 X76.860 Y19.788 E226.55016
G1 X76.860 Y69.227 E231.59525
G1 X76.903 Y69.332 E231.60687
G1 X77.360 Y69.788 E231.67274
G1 X77.360 Y124.472 E237.25316
G1 X77.528 Y124.640 E237.27737
G1 X101.712 Y124.640 E239.74532
G1 X102.860 Y125.788 E239.91101
G1 X102.860 Y132.212 E240.56652
G1 X101.712 Y133.360 E240.73221
G1 X70.288 Y133.360 E243.93892
G1 X69.140 Y132.212 E244.10461
G1 X69.140 Y32.588 E254.27107
G1 X69.686 Y31.982 F9000.000
G1 F750
G1 X69.518 Y31.814 E254.29528
G1 X47.514 Y31.814 E256.54072
G1 X46.686 Y30.986 E256.66029
G1 X46.686 Y20.014 E257.77993
G1 X47.514 Y19.186 E257.89950
G1 X50.857 Y19.186 E258.24062
G1 X51.022 Y18.899 E258.27437
G1 X50.272 Y17.600 E258.42746
G1 X51.089 Y16.186 E258.59413
G1 X64.375 Y16.186 E259.95002
G1 X65.192 Y17.600 E260.11668
G1 X64.442 Y18.899 E260.26978
G1 X64.607 Y19.186 E260.30352
G1 X75.486 Y19.186 E261.41367
G1 X76.314 Y20.014 E261.53324
G1 X76.314 Y69.452 E266.57833
G1 X76.358 Y69.558 E266.58995
G1 X76.814 Y70.014 E266.65582
G1 X76.814 Y125.018 E272.26885
G1 X76.982 Y125.186 E272.29306
G1 X101.486 Y125.186 E274.79362
G1 X102.314 Y126.014 E274.91319
G1 X102.314 Y131.986 E275.52259
G1 X101.486 Y132.814 E275.64216
G1 X70.514 Y132.814 E278.80277
G1 X69.686 Y131.986 E278.92234
G1 X69.686 Y32.042 E289.12141
G1 X70.231 Y31.437 F9000.000
G1 F750
G1 X70.063 Y31.269 E289.14562
G1 X47.740 Y31.269 E291.42366
G1 X47.231 Y30.760 E291.49712
G1 X47.231 Y20.240 E292.57065
G1 X47.740 Y19.731 E292.64411
G1 X51.802 Y19.731 E293.05858
G1 X51.967 Y19.445 E293.09233
G1 X50.902 Y17.600 E293.30970
G1 X51.404 Y16.731 E293.41209
G1 X64.061 Y16.731 E294.70371
G1 X64.562 Y17.600 E294.80610
G1 X63.497 Y19.445 E295.02347
G1 X63.662 Y19.731 E295.05721
G1 X75.260 Y19.731 E296.24071
G1 X75.769 Y20.240 E296.31417
G1 X75.769 Y69.678 E301.35926
G1 X75.813 Y69.784 E301.37088
G1 X76.269 Y70.240 E301.43675
G1 X76.269 Y125.563 E307.08239
G1 X76.437 Y125.731 E307.10659
G1 X101.260 Y125.731 E309.63976
G1 X101.769 Y126.240 E309.71322
G1 X101.769 Y131.760 E310.27651
G1 X101.260 Y132.269 E310.34997
G1 X70.740 Y132.269 E313.46446
G1 X70.231 Y131.760 E313.53792
G1 X70.231 Y31.497 E323.76960
G1 X70.777 Y30.891 F9000.000
G1 F750
G1 X70.609 Y30.723 E323.79381
G1 X47.966 Y30.723 E326.10446
G1 X47.777 Y30.534 E326.13180
G1 X47.777 Y20.466 E327.15922
G1 X47.966 Y20.277 E327.18657
G1 X52.746 Y20.277 E327.67439
G1 X52.912 Y19.990 E327.70814
G1 X51.532 Y17.600 E327.98978
G1 X51.718 Y17.277 E328.02790
G1 X63.746 Y17.277 E329.25524
G1 X63.932 Y17.600 E329.29336
G1 X62.552 Y19.990 E329.57500
G1 X62.718 Y20.277 E329.60875
G1 X75.034 Y20.277 E330.86560
G1 X75.223 Y20.466 E330.89295
G1 X75.223 Y70.109 E335.95890
G1 X75.391 Y70.277 E335.98311
G1 X75.534 Y70.277 E335.99768
G1 X75.723 Y70.466 E336.02502
G1 X75.723 Y126.109 E341.70326
G1 X75.891 Y126.277 E341.72747
G1 X101.034 Y126.277 E344.29324
G1 X101.223 Y126.466 E344.32059
G1 X101.223 Y131.534 E344.83777
G1 X101.034 Y131.723 E344.86511
G1 X70.966 Y131.723 E347.93349
G1 X70.777 Y131.534 E347.96084
G1 X70.777 Y30.951 E358.22513
G1 E355.22513 F2400.00000
G92 E0
G1 X74.600 Y70.900 F9000.000
G1 E3.00000 F2400.00000
G1 F375
G1 X75.100 Y70.900 E3.05010
G1 X75.100 Y126.900 E8.66176
G1 X100.600 Y126.900 E11.21707
G1 X100.600 Y131.100 E11.63794
G1 X71.400 Y131.100 E14.56402
G1 X71.400 Y30.100 E24.68504
G1 X48.400 Y30.100 E26.98982
G1 X48.400 Y20.900 E27.91174
G1 X54.157 Y20.900 E28.48863
G1 X52.425 Y17.900 E28.83576
G1 X63.039 Y17.900 E29.89940
G1 X61.307 Y20.900 E30.24653
G1 X74.600 Y20.900 E31.57858
G1 X74.600 Y70.840 E36.58298
G1 X74.635 Y71.298 F9000.000
G1 X74.064 Y71.436 F9000.000
G1 F750
G1 X74.564 Y71.436 E36.63308
G1 X74.564 Y127.436 E42.24473
G1 X100.064 Y127.436 E44.80004
G1 X100.064 Y130.564 E45.11357
G1 X71.936 Y130.564 E47.93230
G1 X71.936 Y29.564 E58.05332
G1 X48.936 Y29.564 E60.35811
G1 X48.936 Y21.436 E61.17267
G1 X55.085 Y21.436 E61.78885
G1 X53.353 Y18.436 E62.13599
G1 X62.112 Y18.436 E63.01370
G1 X60.379 Y21.436 E63.36083
G1 X74.064 Y21.436 E64.73217
G1 X74.064 Y71.376 E69.73657
G1 X73.529 Y71.971 F9000.000
G1 F750
G1 X74.029 Y71.971 E69.78667
G1 X74.029 Y127.971 E75.39832
G1 X99.529 Y127.971 E77.95363
G1 X99.529 Y130.029 E78.15981
G1 X72.471 Y130.029 E80.87120
G1 X72.471 Y29.029 E90.99221
G1 X49.471 Y29.029 E93.29700
G1 X49.471 Y21.971 E94.00422
G1 X56.012 Y21.971 E94.65970
G1 X54.280 Y18.971 E95.00683
G1 X61.184 Y18.971 E95.69861
G1 X59.452 Y21.971 E96.04574
G1 X73.529 Y21.971 E97.45638
G1 X73.529 Y71.911 E102.46077
G1 E99.46077 F2400.00000
G92 E0
G1 X58.524 Y22.507 F9000.000
G1 E3.00000 F2400.00000
G1 F750
G1 X72.993 Y22.507 E4.44992
G1 X72.993 Y28.493 E5.04980
G1 X50.007 Y28.493 E7.35321
G1 X50.007 Y22.507 E7.95309
G1 X56.940 Y22.507 E8.64785
G1 X55.208 Y19.507 E8.99498
G1 X60.256 Y19.507 E9.50084
G1 X58.554 Y22.455 E9.84195
G1 E6.84195 F2400.00000
G92 E0
G1 X73.493 Y128.507 F9000.000
G1 E3.00000 F2400.00000
G1 F750
G1 X98.993 Y128.507 E5.55531
G1 X98.993 Y129.493 E5.65414
G1 X73.007 Y129.493 E8.25818
G1 X73.007 Y72.507 E13.96867
G1 X73.493 Y72.507 E14.01740
G1 X73.493 Y128.447 E19.62304
G1 X73.275 Y129.000 F9000.000
G1 F300
G1 X98.725 Y129.000 E21.46235
G1 E18.46235 F2400.00000
G92 E0
G1 X73.000 Y72.239 F9000.000
G1 E3.00000 F2400.00000
G1 F300
G1 X73.000 Y28.761 E6.72162
G1 X72.401 Y28.014 F9000.000
G1 F750
G1 X72.514 Y27.901 E6.74018
G1 X72.514 Y27.134 E6.82863
G1 X71.634 Y28.014 E6.97229
G1 X70.867 Y28.014 E7.06074
G1 X72.514 Y26.367 E7.32947
G1 X72.514 Y25.601 E7.41792
G1 X70.101 Y28.014 E7.81175
G1 X69.334 Y28.014 E7.90020
G1 X72.514 Y24.834 E8.41911
G1 X72.514 Y24.068 E8.50756
G1 X68.568 Y28.014 E9.15156
G1 X67.801 Y28.014 E9.24001
G1 X72.514 Y23.301 E10.00910
G1 X72.514 Y22.986 E10.04551
G1 X72.063 Y22.986 E10.09755
G1 X67.035 Y28.014 E10.91812
G1 X66.268 Y28.014 E11.00657
G1 X71.297 Y22.986 E11.82715
G1 X70.530 Y22.986 E11.91560
G1 X65.501 Y28.014 E12.73618
G1 X64.735 Y28.014 E12.82463
G1 X69.764 Y22.986 E13.64520
G1 X68.997 Y22.986 E13.73365
G1 X63.968 Y28.014 E14.55423
G1 X63.202 Y28.014 E14.64268
G1 X68.230 Y22.986 E15.46326
G1 X67.464 Y22.986 E15.55171
G1 X62.435 Y28.014 E16.37228
G1 X61.669 Y28.014 E16.46073
G1 X66.697 Y22.986 E17.28131
G1 X65.931 Y22.986 E17.36976
G1 X60.902 Y28.014 E18.19033
G1 X60.136 Y28.014 E18.27878
G1 X65.164 Y22.986 E19.09936
G1 X64.398 Y22.986 E19.18781
G1 X59.369 Y28.014 E20.00839
G1 X58.602 Y28.014 E20.09684
G1 X63.631 Y22.986 E20.91741
G1 X62.865 Y22.986 E21.00586
G1 X57.836 Y28.014 E21.82644
G1 X57.069 Y28.014 E21.91489
G1 X62.098 Y22.986 E22.73547
G1 X61.331 Y22.986 E22.82392
G1 X56.303 Y28.014 E23.64449
G1 X55.536 Y28.014 E23.73294
G1 X60.565 Y22.986 E24.55352
G1 X59.798 Y22.986 E24.64197
G1 X54.770 Y28.014 E25.46255
G1 X54.003 Y28.014 E25.55100
G1 X59.032 Y22.986 E26.37157
G1 X58.265 Y22.986 E26.46002
G1 X53.236 Y28.014 E27.28060
G1 X52.470 Y28.014 E27.36905
G1 X57.499 Y22.986 E28.18962
G1 X56.732 Y22.986 E28.27807
G1 X51.703 Y28.014 E29.09865
G1 X50.937 Y28.014 E29.18710
G1 X55.965 Y22.986 E30.00768
G1 X55.199 Y22.986 E30.09613
G1 X50.486 Y27.699 E30.86522
G1 X50.486 Y26.932 E30.95367
G1 X54.432 Y22.986 E31.59767
G1 X53.666 Y22.986 E31.68612
G1 X50.486 Y26.166 E32.20504
G1 X50.486 Y25.399 E32.29349
G1 X52.899 Y22.986 E32.68732
G1 X52.133 Y22.986 E32.77577
G1 X50.486 Y24.633 E33.04452
G1 X50.486 Y23.866 E33.13297
G1 X51.366 Y22.986 E33.27662
G1 X50.599 Y22.986 E33.36507
G1 X50.486 Y23.099 E33.38361
G1 E30.38361 F2400.00000
G92 E0
G1 X56.079 Y20.099 F9000.000
G1 E3.00000 F2400.00000
G1 F750
G1 X56.193 Y19.986 E3.01854
G1 X57.065 Y19.986 E3.11918
G1 X56.398 Y20.652 E3.22796
G1 X56.717 Y21.205 E3.30164
G1 X57.937 Y19.986 E3.50065
G1 X58.809 Y19.986 E3.60129
G1 X57.037 Y21.758 E3.89053
G1 X57.356 Y22.311 E3.96421
G1 X58.980 Y20.687 E4.22930
G1 X57.789 Y22.750 E4.50425
G1 X57.675 Y22.864 E4.52283
M106 S255
M104 S210 ; set temperature
G1 E1.52283 F2400.00000
G92 E0
G1 Z0.400 F9000.000
G1 X73.624 Y128.376 F9000.000
G1 E3.00000 F2400.00000
G1 F3000
G1 X99.124 Y128.376 E3.85641
G1 X99.124 Y129.624 E3.89835
G1 X72.876 Y129.624 E4.77991
G1 X72.876 Y72.376 E6.70260
G1 X73.624 Y72.376 E6.72775
G1 X73.624 Y128.316 E8.60649
G1 E5.60649 F2400.00000
G92 E0
G1 X58.751 Y22.376 F9000.000
G1 E3.00000 F2400.00000
G1 F3000
G1 X73.124 Y22.376 E3.48272
G1 X73.124 Y28.624 E3.69258
G1 X49.876 Y28.624 E4.47339
G1 X49.876 Y22.376 E4.68325
G1 X56.713 Y22.376 E4.91287
G1 X54.981 Y19.376 E5.02922
G1 X60.483 Y19.376 E5.21402
G1 X58.781 Y22.324 E5.32835
G1 X59.684 Y21.837 F9000.000
G1 F3000
G1 X73.663 Y21.837 E5.79782
G1 X73.663 Y71.837 E7.47707
G1 X74.163 Y71.837 E7.49386
G1 X74.163 Y127.837 E9.37461
G1 X99.663 Y127.837 E10.23102
G1 X99.663 Y130.163 E10.30913
G1 X72.337 Y130.163 E11.22687
G1 X72.337 Y29.163 E14.61894
G1 X49.337 Y29.163 E15.39139
G1 X49.337 Y21.837 E15.63742
G1 X55.780 Y21.837 E15.85381
G1 X54.048 Y18.837 E15.97015
G1 X61.416 Y18.837 E16.21761
G1 X59.714 Y21.785 E16.33194
G1 X60.617 Y21.299 F9000.000
G1 F3000
G1 X74.201 Y21.299 E16.78817
G1 X74.201 Y71.299 E18.46741
G1 X74.701 Y71.299 E18.48421
G1 X74.701 Y127.299 E20.36496
G1 X100.201 Y127.299 E21.22137
G1 X100.201 Y130.701 E21.33566
G1 X71.799 Y130.701 E22.28956
G1 X71.799 Y29.701 E25.68163
G1 X48.799 Y29.701 E26.45408
G1 X48.799 Y21.299 E26.73629
G1 X54.847 Y21.299 E26.93944
G1 X53.115 Y18.299 E27.05578
G1 X62.349 Y18.299 E27.36589
G1 X60.647 Y21.247 E27.48022
G1 X61.446 Y20.820 F9000.000
G1 F1500
G1 X74.680 Y20.820 E27.82565
G1 X74.680 Y70.820 E29.13071
G1 X75.180 Y70.820 E29.14376
