; generated by Slic3r 1.3.1-dev (Build 05a2f9028a35c56e039cf7a531d63b7ff7e97645) on 2019-03-24 at 23:51:17

; Filament notes: 
; Benötigt -100um compensation
; 
; external perimeters extrusion width = 0.44mm (1.05mm^3/s)
; perimeters extrusion width = 0.56mm (2.69mm^3/s)
; infill extrusion width = 0.50mm (3.35mm^3/s)
; solid infill extrusion width = 0.56mm (2.69mm^3/s)
; top infill extrusion width = 0.56mm (2.15mm^3/s)

M107
M104 S215 ; set temperature
G21                                  ; set units to millimeters
G90                                  ; use absolute coordinates
G92 E0                               ; Reset the extruder's origin
M82                                  ; use absolute distances for extrusion
G1 F900.000 E-4.00000                ; Retract 4 millimetres of filament
G92 E0                               ; Reset the extruder's origin
G1 Z0.350 F6000.000                  ; move to Z=0.35
G1 X5.000 Y31.000                    ; move to X=3, Y=31 (start)
G1 F900.000 E4.00000                 ; Extrude 4 millimetres of filament
G1 X5.000 Y81.000 E50.00000
; Filament gcode

M109 S215 ; set temperature and wait for it to be reached
G21 ; set units to millimeters
G90 ; use absolute coordinates
M82 ; use absolute distances for extrusion
G92 E0
G92 E0
G1 E-3.00000 F2400.00000
G92 E0
G1 Z0.300 F9000.000
G1 X27.867 Y8.433 F9000.000
G1 E3.00000 F2400.00000
G1 F750
G1 X30.933 Y5.367 E3.44236
G1 X118.067 Y5.367 E12.33430
G1 X121.133 Y8.433 E12.77666
G1 X121.133 Y140.567 E26.26077
G1 X118.067 Y143.633 E26.70313
G1 X30.933 Y143.633 E35.59507
G1 X27.867 Y140.567 E36.03743
G1 X27.867 Y8.493 E49.51541
G1 X28.413 Y8.659 F9000.000
G1 F750
G1 X31.159 Y5.913 E49.91166
G1 X117.841 Y5.913 E58.75749
G1 X120.587 Y8.659 E59.15374
G1 X120.587 Y140.341 E72.59173
G1 X117.841 Y143.087 E72.98798
G1 X31.159 Y143.087 E81.83381
G1 X28.413 Y140.341 E82.23005
G1 X28.413 Y8.719 E95.66193
G1 X28.958 Y8.884 F9000.000
G1 F750
G1 X31.384 Y6.458 E96.01206
G1 X117.616 Y6.458 E104.81178
G1 X120.042 Y8.884 E105.16191
G1 X120.042 Y140.116 E118.55380
G1 X117.616 Y142.542 E118.90393
G1 X31.384 Y142.542 E127.70365
G1 X28.958 Y140.116 E128.05378
G1 X28.958 Y8.944 E141.43954
G1 X29.504 Y9.110 F9000.000
G1 F750
G1 X31.610 Y7.004 E141.74356
G1 X117.390 Y7.004 E150.49717
G1 X119.496 Y9.110 E150.80119
G1 X119.496 Y139.890 E164.14696
G1 X117.390 Y141.996 E164.45098
G1 X31.610 Y141.996 E173.20459
G1 X29.504 Y139.890 E173.50861
G1 X29.504 Y9.170 E186.84826
G1 X30.049 Y9.336 F9000.000
G1 F750
G1 X31.836 Y7.549 E187.10617
G1 X117.164 Y7.549 E195.81366
G1 X118.951 Y9.336 E196.07157
G1 X118.951 Y139.664 E209.37123
G1 X117.164 Y141.451 E209.62914
G1 X31.836 Y141.451 E218.33663
G1 X30.049 Y139.664 E218.59454
G1 X30.049 Y9.396 E231.88808
G1 X30.595 Y9.562 F9000.000
G1 F750
G1 X32.062 Y8.095 E232.09987
G1 X116.938 Y8.095 E240.76126
G1 X118.405 Y9.562 E240.97305
G1 X118.405 Y139.438 E254.22660
G1 X116.938 Y140.905 E254.43839
G1 X32.062 Y140.905 E263.09978
G1 X30.595 Y139.438 E263.31157
G1 X30.595 Y9.622 E276.55900
G1 X31.140 Y9.788 F9000.000
G1 F750
G1 X32.288 Y8.640 E276.72468
G1 X116.712 Y8.640 E285.33995
G1 X117.860 Y9.788 E285.50563
G1 X117.860 Y139.212 E298.71307
G1 X116.712 Y140.360 E298.87875
G1 X32.288 Y140.360 E307.49402
G1 X31.140 Y139.212 E307.65970
G1 X31.140 Y9.848 E320.86102
G1 X31.686 Y10.014 F9000.000
G1 F750
G1 X32.514 Y9.186 E320.98059
G1 X116.486 Y9.186 E329.54974
G1 X117.314 Y10.014 E329.66931
G1 X117.314 Y138.986 E342.83064
G1 X116.486 Y139.814 E342.95021
G1 X32.514 Y139.814 E351.51937
G1 X31.686 Y138.986 E351.63894
G1 X31.686 Y10.074 E364.79414
G1 X32.231 Y10.240 F9000.000
G1 F750
G1 X32.740 Y9.731 E364.86759
G1 X116.260 Y9.731 E373.39064
G1 X116.769 Y10.240 E373.46410
G1 X116.769 Y138.760 E386.57931
G1 X116.260 Y139.269 E386.65277
G1 X32.740 Y139.269 E395.17581
G1 X32.231 Y138.760 E395.24927
G1 X32.231 Y10.300 E408.35836
G1 X32.777 Y10.466 F9000.000
G1 F750
G1 X32.966 Y10.277 E408.38570
G1 X116.034 Y10.277 E416.86264
G1 X116.223 Y10.466 E416.88998
G1 X116.223 Y138.534 E429.95908
G1 X116.034 Y138.723 E429.98643
G1 X32.966 Y138.723 E438.46336
G1 X32.777 Y138.534 E438.49070
G1 X32.777 Y10.526 E451.55368
G1 X33.400 Y10.900 F9000.000
G1 F375
G1 X115.600 Y10.900 E459.79079
G1 X115.600 Y138.100 E472.53726
G1 X33.400 Y138.100 E480.77437
G1 X33.400 Y10.960 E493.51483
G1 X33.778 Y11.031 F9000.000
G1 X33.936 Y11.436 F9000.000
G1 F750
G1 X115.064 Y11.436 E501.64459
G1 X115.064 Y137.564 E514.28371
G1 X33.936 Y137.564 E522.41347
G1 X33.936 Y11.496 E535.04658
G1 X34.471 Y11.971 F9000.000
G1 F750
G1 X114.529 Y11.971 E543.06900
G1 X114.529 Y137.029 E555.60078
G1 X34.471 Y137.029 E563.62319
G1 X34.471 Y12.031 E576.14896
G1 X35.007 Y12.507 F9000.000
G1 F750
G1 X113.993 Y12.507 E584.06402
G1 X113.993 Y136.493 E596.48846
G1 X35.007 Y136.493 E604.40352
G1 X35.007 Y12.567 E616.82194
G1 E613.82194 F2400.00000
G92 E0
G1 X39.450 Y89.950 F9000.000
G1 E3.00000 F2400.00000
G1 F375
G1 X55.550 Y89.950 E4.61335
G1 X55.550 Y133.050 E8.93232
G1 X39.450 Y133.050 E10.54567
G1 X39.450 Y90.010 E14.85863
G1 X39.402 Y89.553 F9000.000
G1 X38.914 Y89.414 F9000.000
G1 F750
G1 X56.086 Y89.414 E16.57933
G1 X56.086 Y133.586 E21.00564
G1 X38.914 Y133.586 E22.72634
G1 X38.914 Y89.474 E27.14664
G1 X38.379 Y88.879 F9000.000
G1 F750
G1 X56.621 Y88.879 E28.97469
G1 X56.621 Y134.121 E33.50835
G1 X38.379 Y134.121 E35.33639
G1 X38.379 Y88.939 E39.86405
G1 X37.843 Y88.343 F9000.000
G1 F750
G1 X57.157 Y88.343 E41.79944
G1 X57.157 Y134.657 E46.44045
G1 X37.843 Y134.657 E48.37584
G1 X37.843 Y88.403 E53.01083
G1 E50.01083 F2400.00000
G92 E0
G1 X35.486 Y88.884 F9000.000
G1 E3.00000 F2400.00000
G1 F750
G1 X35.486 Y89.642 E3.07598
G1 X37.364 Y87.764 E3.34235
G1 X37.364 Y88.521 E3.41833
G1 X35.486 Y90.400 E3.68470
G1 X35.486 Y91.158 E3.76068
G1 X37.364 Y89.279 E4.02705
G1 X37.364 Y90.037 E4.10303
G1 X35.486 Y91.916 E4.36941
G1 X35.486 Y92.674 E4.44538
G1 X37.364 Y90.795 E4.71176
G1 X37.364 Y91.553 E4.78774
G1 X35.486 Y93.432 E5.05411
G1 X35.486 Y94.189 E5.13009
G1 X37.364 Y92.311 E5.39646
G1 X37.364 Y93.069 E5.47244
G1 X35.486 Y94.947 E5.73881
G1 X35.486 Y95.705 E5.81479
G1 X37.364 Y93.826 E6.08116
G1 X37.364 Y94.584 E6.15714
G1 X35.486 Y96.463 E6.42351
G1 X35.486 Y97.221 E6.49949
G1 X37.364 Y95.342 E6.76586
G1 X37.364 Y96.100 E6.84184
G1 X35.486 Y97.979 E7.10822
G1 X35.486 Y98.736 E7.18419
G1 X37.364 Y96.858 E7.45057
G1 X37.364 Y97.616 E7.52655
G1 X35.486 Y99.494 E7.79292
G1 X35.486 Y100.252 E7.86890
G1 X37.364 Y98.373 E8.13527
G1 X37.364 Y99.131 E8.21125
G1 X35.486 Y101.010 E8.47762
G1 X35.486 Y101.768 E8.55360
G1 X37.364 Y99.889 E8.81997
G1 X37.364 Y100.647 E8.89595
G1 X35.486 Y102.526 E9.16232
G1 X35.486 Y103.284 E9.23830
G1 X37.364 Y101.405 E9.50467
G1 X37.364 Y102.163 E9.58065
G1 X35.486 Y104.041 E9.84703
G1 X35.486 Y104.799 E9.92301
G1 X37.364 Y102.921 E10.18938
G1 X37.364 Y103.678 E10.26536
G1 X35.486 Y105.557 E10.53173
G1 X35.486 Y106.315 E10.60771
G1 X37.364 Y104.436 E10.87408
G1 X37.364 Y105.194 E10.95006
G1 X35.486 Y107.073 E11.21643
G1 X35.486 Y107.831 E11.29241
G1 X37.364 Y105.952 E11.55878
G1 X37.364 Y106.710 E11.63476
G1 X35.486 Y108.589 E11.90113
G1 X35.486 Y109.346 E11.97711
G1 X37.364 Y107.468 E12.24349
G1 X37.364 Y108.225 E12.31946
G1 X35.486 Y110.104 E12.58584
G1 X35.486 Y110.862 E12.66182
G1 X37.364 Y108.983 E12.92819
G1 X37.364 Y109.741 E13.00417
G1 X35.486 Y111.620 E13.27054
G1 X35.486 Y112.378 E13.34652
G1 X37.364 Y110.499 E13.61289
G1 X37.364 Y111.257 E13.68887
G1 X35.486 Y113.136 E13.95524
G1 X35.486 Y113.893 E14.03122
G1 X37.364 Y112.015 E14.29759
G1 X37.364 Y112.773 E14.37357
G1 X35.486 Y114.651 E14.63994
G1 X35.486 Y115.409 E14.71592
G1 X37.364 Y113.530 E14.98230
G1 X37.364 Y114.288 E15.05828
G1 X35.486 Y116.167 E15.32465
G1 X35.486 Y116.925 E15.40063
G1 X37.364 Y115.046 E15.66700
G1 X37.364 Y115.804 E15.74298
G1 X35.486 Y117.683 E16.00935
G1 X35.486 Y118.441 E16.08533
G1 X37.364 Y116.562 E16.35170
G1 X37.364 Y117.320 E16.42768
G1 X35.486 Y119.198 E16.69405
G1 X35.486 Y119.956 E16.77003
G1 X37.364 Y118.078 E17.03640
G1 X37.364 Y118.835 E17.11238
G1 X35.486 Y120.714 E17.37876
G1 X35.486 Y121.472 E17.45473
G1 X37.364 Y119.593 E17.72111
G1 X37.364 Y120.351 E17.79709
G1 X35.486 Y122.230 E18.06346
G1 X35.486 Y122.988 E18.13944
G1 X37.364 Y121.109 E18.40581
G1 X37.364 Y121.867 E18.48179
G1 X35.486 Y123.745 E18.74816
G1 X35.486 Y124.503 E18.82414
G1 X37.364 Y122.625 E19.09051
G1 X37.364 Y123.382 E19.16649
G1 X35.486 Y125.261 E19.43286
G1 X35.486 Y126.019 E19.50884
G1 X37.364 Y124.140 E19.77522
G1 X37.364 Y124.898 E19.85120
G1 X35.486 Y126.777 E20.11757
G1 X35.486 Y127.535 E20.19355
G1 X37.364 Y125.656 E20.45992
G1 X37.364 Y126.414 E20.53590
G1 X35.486 Y128.293 E20.80227
G1 X35.486 Y129.050 E20.87825
G1 X37.364 Y127.172 E21.14462
G1 X37.364 Y127.930 E21.22060
G1 X35.486 Y129.808 E21.48697
G1 X35.486 Y130.566 E21.56295
G1 X37.364 Y128.687 E21.82932
G1 X37.364 Y129.445 E21.90530
G1 X35.486 Y131.324 E22.17168
G1 X35.486 Y132.082 E22.24765
G1 X37.364 Y130.203 E22.51403
G1 X37.364 Y130.961 E22.59001
G1 X35.486 Y132.840 E22.85638
G1 X35.486 Y133.597 E22.93236
G1 X37.364 Y131.719 E23.19873
G1 X37.364 Y132.477 E23.27471
G1 X35.486 Y134.355 E23.54108
G1 X35.486 Y135.113 E23.61706
G1 X37.364 Y133.234 E23.88343
G1 X37.364 Y133.992 E23.95941
G1 X35.486 Y135.871 E24.22578
G1 X35.486 Y136.014 E24.24015
G1 X36.100 Y136.014 E24.30176
G1 X37.364 Y134.750 E24.48101
G1 X37.364 Y135.136 E24.51966
G1 X37.737 Y135.136 E24.55699
G1 X36.858 Y136.014 E24.68157
G1 X37.616 Y136.014 E24.75755
G1 X38.495 Y135.136 E24.88214
G1 X39.252 Y135.136 E24.95812
G1 X38.374 Y136.014 E25.08271
G1 X39.132 Y136.014 E25.15869
G1 X40.010 Y135.136 E25.28328
G1 X40.768 Y135.136 E25.35925
G1 X39.889 Y136.014 E25.48384
G1 X40.647 Y136.014 E25.55982
G1 X41.526 Y135.136 E25.68441
G1 X42.284 Y135.136 E25.76039
G1 X41.405 Y136.014 E25.88498
G1 X42.163 Y136.014 E25.96096
G1 X43.042 Y135.136 E26.08554
G1 X43.799 Y135.136 E26.16152
G1 X42.921 Y136.014 E26.28611
G1 X43.679 Y136.014 E26.36209
G1 X44.557 Y135.136 E26.48668
G1 X45.315 Y135.136 E26.56266
G1 X44.436 Y136.014 E26.68724
G1 X45.194 Y136.014 E26.76322
G1 X46.073 Y135.136 E26.88781
G1 X46.831 Y135.136 E26.96379
G1 X45.952 Y136.014 E27.08838
G1 X46.710 Y136.014 E27.16436
G1 X47.589 Y135.136 E27.28895
G1 X48.347 Y135.136 E27.36493
G1 X47.468 Y136.014 E27.48951
G1 X48.226 Y136.014 E27.56549
G1 X49.104 Y135.136 E27.69008
G1 X49.862 Y135.136 E27.76606
G1 X48.984 Y136.014 E27.89065
G1 X49.741 Y136.014 E27.96663
G1 X50.620 Y135.136 E28.09121
G1 X51.378 Y135.136 E28.16719
G1 X50.499 Y136.014 E28.29178
G1 X51.257 Y136.014 E28.36776
G1 X52.136 Y135.136 E28.49235
G1 X52.894 Y135.136 E28.56833
G1 X52.015 Y136.014 E28.69292
G1 X52.773 Y136.014 E28.76890
G1 X53.652 Y135.136 E28.89348
G1 X54.409 Y135.136 E28.96946
G1 X53.531 Y136.014 E29.09405
G1 X54.288 Y136.014 E29.17003
G1 X55.167 Y135.136 E29.29462
G1 X55.925 Y135.136 E29.37060
G1 X55.046 Y136.014 E29.49518
G1 X55.804 Y136.014 E29.57116
G1 X56.683 Y135.136 E29.69575
G1 X57.441 Y135.136 E29.77173
G1 X56.562 Y136.014 E29.89632
G1 E26.89632 F2400.00000
G92 E0
G1 X113.401 Y136.014 F9000.000
G1 E3.00000 F2400.00000
G1 F750
G1 X113.514 Y135.901 E3.01613
G1 X113.514 Y135.143 E3.09211
G1 X112.643 Y136.014 E3.21569
G1 X111.885 Y136.014 E3.29167
G1 X113.514 Y134.385 E3.52270
G1 X113.514 Y133.627 E3.59868
G1 X111.127 Y136.014 E3.93716
G1 X110.369 Y136.014 E4.01314
G1 X113.514 Y132.869 E4.45907
G1 X113.514 Y132.111 E4.53505
G1 X109.611 Y136.014 E5.08844
G1 X108.854 Y136.014 E5.16442
G1 X113.514 Y131.354 E5.82525
G1 X113.514 Y130.596 E5.90123
G1 X108.096 Y136.014 E6.66952
G1 X107.338 Y136.014 E6.74550
G1 X113.514 Y129.838 E7.62123
G1 X113.514 Y129.080 E7.69721
G1 X106.580 Y136.014 E8.68040
G1 X105.822 Y136.014 E8.75638
G1 X113.514 Y128.322 E9.84702
G1 X113.514 Y127.564 E9.92300
G1 X105.064 Y136.014 E11.12109
G1 X104.306 Y136.014 E11.19707
G1 X113.514 Y126.806 E12.50261
G1 X113.514 Y126.049 E12.57859
G1 X103.549 Y136.014 E13.99158
G1 X102.791 Y136.014 E14.06756
G1 X113.514 Y125.291 E15.58800
G1 X113.514 Y124.533 E15.66398
G1 X102.033 Y136.014 E17.29187
G1 X101.275 Y136.014 E17.36785
G1 X113.514 Y123.775 E19.10320
G1 X113.514 Y123.017 E19.17918
G1 X100.517 Y136.014 E21.02197
G1 X99.759 Y136.014 E21.09795
G1 X113.514 Y122.259 E23.04820
G1 X113.514 Y121.501 E23.12417
G1 X99.001 Y136.014 E25.18187
G1 X98.244 Y136.014 E25.25785
G1 X113.514 Y120.744 E27.42300
G1 X113.514 Y119.986 E27.49898
G1 X97.486 Y136.014 E29.77158
G1 X96.728 Y136.014 E29.84756
G1 X113.514 Y119.228 E32.22761
G1 X113.514 Y118.470 E32.30358
G1 X95.970 Y136.014 E34.79108
G1 X95.212 Y136.014 E34.86706
G1 X113.514 Y117.712 E37.46202
G1 X113.514 Y116.954 E37.53799
G1 X94.454 Y136.014 E40.24040
G1 X93.697 Y136.014 E40.31638
G1 X113.514 Y116.197 E43.12623
G1 X113.514 Y115.439 E43.20221
G1 X92.939 Y136.014 E46.11951
G1 X92.181 Y136.014 E46.19549
G1 X113.514 Y114.681 E49.22025
G1 X113.514 Y113.923 E49.29622
G1 X91.423 Y136.014 E52.42843
G1 X90.665 Y136.014 E52.50441
G1 X113.514 Y113.165 E55.74407
G1 X113.514 Y112.407 E55.82005
G1 X89.907 Y136.014 E59.16715
G1 X89.149 Y136.014 E59.24313
G1 X113.514 Y111.649 E62.69769
G1 X113.514 Y110.892 E62.77367
G1 X88.392 Y136.014 E66.33568
G1 X87.634 Y136.014 E66.41166
G1 X113.514 Y110.134 E70.08112
G1 X113.514 Y109.376 E70.15710
G1 X86.876 Y136.014 E73.93401
G1 X86.118 Y136.014 E74.00999
G1 X113.514 Y108.618 E77.89435
G1 X113.514 Y107.860 E77.97033
G1 X85.360 Y136.014 E81.96214
G1 X84.602 Y136.014 E82.03812
G1 X113.514 Y107.102 E86.13739
G1 X113.514 Y106.345 E86.21336
G1 X83.845 Y136.014 E90.42008
G1 X83.087 Y136.014 E90.49606
G1 X113.514 Y105.587 E94.81022
G1 X113.514 Y104.829 E94.88620
G1 X82.329 Y136.014 E99.30782
G1 X81.571 Y136.014 E99.38380
G1 X113.514 Y104.071 E103.91287
G1 X113.514 Y103.313 E103.98885
G1 X80.813 Y136.014 E108.62536
G1 X80.055 Y136.014 E108.70134
G1 X113.514 Y102.555 E113.44531
G1 X113.514 Y101.797 E113.52129
G1 X79.297 Y136.014 E118.37271
G1 X78.540 Y136.014 E118.44869
G1 X113.514 Y101.040 E123.40756
G1 X113.514 Y100.282 E123.48354
G1 X77.782 Y136.014 E128.54986
G1 X77.024 Y136.014 E128.62584
G1 X113.514 Y99.524 E133.79961
G1 X113.514 Y98.766 E133.87559
G1 X76.266 Y136.014 E139.15682
G1 X75.508 Y136.014 E139.23280
G1 X113.514 Y98.008 E144.62147
G1 X113.514 Y97.250 E144.69745
G1 X74.750 Y136.014 E150.19357
G1 X73.993 Y136.014 E150.26955
G1 X113.514 Y96.493 E155.87313
G1 X113.514 Y95.735 E155.94911
G1 X73.235 Y136.014 E161.66014
G1 X72.477 Y136.014 E161.73612
G1 X113.514 Y94.977 E167.55459
G1 X113.514 Y94.219 E167.63057
G1 X71.719 Y136.014 E173.55650
G1 X70.961 Y136.014 E173.63248
G1 X113.514 Y93.461 E179.66586
G1 X113.514 Y92.703 E179.74184
G1 X70.203 Y136.014 E185.88267
G1 X69.445 Y136.014 E185.95865
G1 X113.514 Y91.945 E192.20693
G1 X113.514 Y91.188 E192.28291
G1 X68.688 Y136.014 E198.63864
G1 X67.930 Y136.014 E198.71462
G1 X113.514 Y90.430 E205.17780
G1 X113.514 Y89.672 E205.25378
G1 X67.172 Y136.014 E211.82442
G1 X66.414 Y136.014 E211.90040
G1 X113.514 Y88.914 E218.57848
G1 X113.514 Y88.156 E218.65446
G1 X65.656 Y136.014 E225.44000
G1 X64.898 Y136.014 E225.51598
G1 X113.514 Y87.398 E232.40896
G1 X113.514 Y86.641 E232.48494
G1 X64.141 Y136.014 E239.48538
G1 X63.383 Y136.014 E239.56136
G1 X113.514 Y85.883 E246.66925
G1 X113.514 Y85.125 E246.74523
G1 X62.625 Y136.014 E253.96056
G1 X61.867 Y136.014 E254.03654
G1 X113.514 Y84.367 E261.35933
G1 X113.514 Y83.609 E261.43531
G1 X61.109 Y136.014 E268.86555
G1 X60.351 Y136.014 E268.94153
G1 X113.514 Y82.851 E276.47923
G1 X113.514 Y82.093 E276.55521
G1 X59.593 Y136.014 E284.20035
G1 X58.836 Y136.014 E284.27633
G1 X113.514 Y81.336 E292.02892
G1 X113.514 Y80.578 E292.10490
G1 X58.078 Y136.014 E299.96495
G1 X57.320 Y136.014 E300.04092
G1 X113.514 Y79.820 E308.00842
G1 X113.514 Y79.062 E308.08440
G1 X57.636 Y134.941 E316.00712
G1 X57.636 Y134.183 E316.08310
G1 X113.514 Y78.304 E324.00583
G1 X113.514 Y77.546 E324.08181
G1 X57.636 Y133.425 E332.00453
G1 X57.636 Y132.667 E332.08051
G1 X113.514 Y76.789 E340.00324
G1 X113.514 Y76.031 E340.07922
G1 X57.636 Y131.909 E348.00194
