; generated by Slic3r 1.3.1-dev (Build 05a2f9028a35c56e039cf7a531d63b7ff7e97645) on 2019-03-24 at 21:11:31

; Filament notes: 
; Benötigt -100um compensation
; 
; external perimeters extrusion width = 0.44mm (1.05mm^3/s)
; perimeters extrusion width = 0.56mm (2.69mm^3/s)
; infill extrusion width = 0.50mm (3.35mm^3/s)
; solid infill extrusion width = 0.56mm (2.69mm^3/s)
; top infill extrusion width = 0.56mm (2.15mm^3/s)

M107
M104 S215 ; set temperature
G21                                  ; set units to millimeters
G90                                  ; use absolute coordinates
G92 E0                               ; Reset the extruder's origin
M82                                  ; use absolute distances for extrusion
G1 F900.000 E-4.00000                ; Retract 4 millimetres of filament
G92 E0                               ; Reset the extruder's origin
G1 Z0.350 F6000.000                  ; move to Z=0.35
G1 X5.000 Y31.000                    ; move to X=3, Y=31 (start)
G1 F900.000 E4.00000                 ; Extrude 4 millimetres of filament
G1 X5.000 Y81.000 E50.00000
; Filament gcode

M109 S215 ; set temperature and wait for it to be reached
G21 ; set units to millimeters
G90 ; use absolute coordinates
M82 ; use absolute distances for extrusion
G92 E0
G92 E0
G1 E-3.00000 F2400.00000
G92 E0
G1 Z0.300 F9000.000
G1 X61.867 Y40.933 F9000.000
G1 E3.00000 F2400.00000
G1 F750
G1 X64.933 Y37.867 E3.44236
G1 X84.067 Y37.867 E5.39503
G1 X87.133 Y40.933 E5.83738
G1 X87.133 Y110.067 E12.89246
G1 X84.067 Y113.133 E13.33482
G1 X64.933 Y113.133 E15.28749
G1 X61.867 Y110.067 E15.72985
G1 X61.867 Y40.993 E22.77880
G1 X62.413 Y41.159 F9000.000
G1 F750
G1 X65.159 Y38.413 E23.17505
G1 X83.841 Y38.413 E25.08160
G1 X86.587 Y41.159 E25.47785
G1 X86.587 Y109.841 E32.48681
G1 X83.841 Y112.587 E32.88306
G1 X65.159 Y112.587 E34.78962
G1 X62.413 Y109.841 E35.18586
G1 X62.413 Y41.219 E42.18870
G1 X62.958 Y41.384 F9000.000
G1 F750
G1 X65.384 Y38.958 E42.53884
G1 X83.616 Y38.958 E44.39928
G1 X86.042 Y41.384 E44.74941
G1 X86.042 Y109.616 E51.71227
G1 X83.616 Y112.042 E52.06240
G1 X65.384 Y112.042 E53.92284
G1 X62.958 Y109.616 E54.27298
G1 X62.958 Y41.444 E61.22971
G1 X63.504 Y41.610 F9000.000
G1 F750
G1 X65.610 Y39.504 E61.53373
G1 X83.390 Y39.504 E63.34806
G1 X85.496 Y41.610 E63.65208
G1 X85.496 Y109.390 E70.56882
G1 X83.390 Y111.496 E70.87284
G1 X65.610 Y111.496 E72.68717
G1 X63.504 Y109.390 E72.99119
G1 X63.504 Y41.670 E79.90181
G1 X64.049 Y41.836 F9000.000
G1 F750
G1 X65.836 Y40.049 E80.15972
G1 X83.164 Y40.049 E81.92794
G1 X84.951 Y41.836 E82.18585
G1 X84.951 Y109.164 E89.05647
G1 X83.164 Y110.951 E89.31438
G1 X65.836 Y110.951 E91.08260
G1 X64.049 Y109.164 E91.34051
G1 X64.049 Y41.896 E98.20502
G1 X64.595 Y42.062 F9000.000
G1 F750
G1 X66.062 Y40.595 E98.41681
G1 X82.938 Y40.595 E100.13892
G1 X84.405 Y42.062 E100.35071
G1 X84.405 Y108.938 E107.17523
G1 X82.938 Y110.405 E107.38703
G1 X66.062 Y110.405 E109.10913
G1 X64.595 Y108.938 E109.32093
G1 X64.595 Y42.122 E116.13932
G1 X65.140 Y42.288 F9000.000
G1 F750
G1 X66.288 Y41.140 E116.30500
G1 X82.712 Y41.140 E117.98100
G1 X83.860 Y42.288 E118.14668
G1 X83.860 Y108.712 E124.92509
G1 X82.712 Y109.860 E125.09077
G1 X66.288 Y109.860 E126.76676
G1 X65.140 Y108.712 E126.93245
G1 X65.140 Y42.348 E133.70473
G1 X65.686 Y42.514 F9000.000
G1 F750
G1 X66.514 Y41.686 E133.82430
G1 X82.486 Y41.686 E135.45418
G1 X83.314 Y42.514 E135.57375
G1 X83.314 Y108.486 E142.30604
G1 X82.486 Y109.314 E142.42561
G1 X66.514 Y109.314 E144.05550
G1 X65.686 Y108.486 E144.17507
G1 X65.686 Y42.574 E150.90124
G1 X66.231 Y42.740 F9000.000
G1 F750
G1 X66.740 Y42.231 E150.97469
G1 X82.260 Y42.231 E152.55847
G1 X82.769 Y42.740 E152.63192
G1 X82.769 Y108.260 E159.31810
G1 X82.260 Y108.769 E159.39156
G1 X66.740 Y108.769 E160.97533
G1 X66.231 Y108.260 E161.04879
G1 X66.231 Y42.800 E167.72884
G1 X66.777 Y42.966 F9000.000
G1 F750
G1 X66.966 Y42.777 E167.75619
G1 X82.034 Y42.777 E169.29385
G1 X82.223 Y42.966 E169.32120
G1 X82.223 Y108.034 E175.96126
G1 X82.034 Y108.223 E175.98861
G1 X66.966 Y108.223 E177.52627
G1 X66.777 Y108.034 E177.55361
G1 X66.777 Y43.026 E184.18755
G1 E181.18755 F2400.00000
G92 E0
G1 X81.600 Y107.600 F9000.000
G1 E3.00000 F2400.00000
G1 F375
G1 X67.400 Y107.600 E4.42296
G1 X67.400 Y43.400 E10.85632
G1 X81.600 Y43.400 E12.27927
G1 X81.600 Y107.540 E18.70662
G1 X81.240 Y107.426 F9000.000
G1 X81.064 Y107.064 F9000.000
G1 F750
G1 X67.936 Y107.064 E20.02223
G1 X67.936 Y43.936 E26.34824
G1 X81.064 Y43.936 E27.66385
G1 X81.064 Y107.004 E33.98385
G1 X80.529 Y106.529 F9000.000
G1 F750
G1 X68.471 Y106.529 E35.19211
G1 X68.471 Y44.471 E41.41078
G1 X80.529 Y44.471 E42.61904
G1 X80.529 Y106.469 E48.83170
G1 X79.993 Y105.993 F9000.000
G1 F750
G1 X69.007 Y105.993 E49.93261
G1 X69.007 Y45.007 E56.04393
G1 X79.993 Y45.007 E57.14485
G1 X79.993 Y105.933 E63.25016
G1 X79.401 Y105.514 F9000.000
G1 F750
G1 X79.514 Y105.401 E63.26631
G1 X79.514 Y104.642 E63.34253
G1 X78.642 Y105.514 E63.46647
G1 X77.883 Y105.514 E63.54268
G1 X79.514 Y103.883 E63.77440
G1 X79.514 Y103.124 E63.85062
G1 X77.124 Y105.514 E64.19012
G1 X76.365 Y105.514 E64.26634
G1 X79.514 Y102.365 E64.71363
G1 X79.514 Y101.605 E64.78984
G1 X75.605 Y105.514 E65.34492
G1 X74.846 Y105.514 E65.42113
G1 X79.514 Y100.846 E66.08399
G1 X79.514 Y100.087 E66.16020
G1 X74.087 Y105.514 E66.93084
G1 X73.328 Y105.514 E67.00706
G1 X79.514 Y99.328 E67.88548
G1 X79.514 Y98.569 E67.96169
G1 X72.569 Y105.514 E68.94790
G1 X71.810 Y105.514 E69.02412
G1 X79.514 Y97.810 E70.11811
G1 X79.514 Y97.051 E70.19432
G1 X71.051 Y105.514 E71.39609
G1 X70.292 Y105.514 E71.47231
G1 X79.514 Y96.292 E72.78187
G1 X79.514 Y95.533 E72.85808
G1 X69.533 Y105.514 E74.27542
G1 X69.486 Y105.514 E74.28021
G1 X69.486 Y104.803 E74.35164
G1 X79.514 Y94.774 E75.77575
G1 X79.514 Y94.015 E75.85197
G1 X69.486 Y104.044 E77.27608
G1 X69.486 Y103.285 E77.35229
G1 X79.514 Y93.256 E78.77641
G1 X79.514 Y92.497 E78.85262
G1 X69.486 Y102.526 E80.27674
G1 X69.486 Y101.767 E80.35295
G1 X79.514 Y91.738 E81.77707
G1 X79.514 Y90.979 E81.85328
G1 X69.486 Y101.008 E83.27739
G1 X69.486 Y100.249 E83.35361
G1 X79.514 Y90.220 E84.77772
G1 X79.514 Y89.461 E84.85394
G1 X69.486 Y99.490 E86.27805
G1 X69.486 Y98.731 E86.35426
G1 X79.514 Y88.702 E87.77838
G1 X79.514 Y87.943 E87.85459
G1 X69.486 Y97.972 E89.27871
G1 X69.486 Y97.213 E89.35492
G1 X79.514 Y87.184 E90.77903
G1 X79.514 Y86.425 E90.85525
G1 X69.486 Y96.454 E92.27936
G1 X69.486 Y95.695 E92.35558
G1 X79.514 Y85.666 E93.77969
G1 X79.514 Y84.907 E93.85591
G1 X69.486 Y94.936 E95.28002
G1 X69.486 Y94.177 E95.35623
G1 X79.514 Y84.148 E96.78035
G1 X79.514 Y83.389 E96.85656
G1 X69.486 Y93.418 E98.28068
G1 X69.486 Y92.659 E98.35689
G1 X79.514 Y82.630 E99.78100
G1 X79.514 Y81.871 E99.85722
G1 X69.486 Y91.900 E101.28133
G1 X69.486 Y91.141 E101.35755
G1 X79.514 Y81.112 E102.78166
G1 X79.514 Y80.353 E102.85787
G1 X69.486 Y90.382 E104.28199
G1 X69.486 Y89.623 E104.35820
G1 X79.514 Y79.594 E105.78232
G1 X79.514 Y78.835 E105.85853
G1 X69.486 Y88.864 E107.28264
G1 X69.486 Y88.105 E107.35886
G1 X79.514 Y78.076 E108.78297
G1 X79.514 Y77.317 E108.85919
G1 X69.486 Y87.346 E110.28330
G1 X69.486 Y86.587 E110.35952
G1 X79.514 Y76.558 E111.78363
G1 X79.514 Y75.799 E111.85984
G1 X69.486 Y85.828 E113.28396
G1 X69.486 Y85.069 E113.36017
G1 X79.514 Y75.040 E114.78429
G1 X79.514 Y74.281 E114.86050
G1 X69.486 Y84.309 E116.28461
G1 X69.486 Y83.550 E116.36083
G1 X79.514 Y73.522 E117.78494
G1 X79.514 Y72.763 E117.86116
G1 X69.486 Y82.791 E119.28527
G1 X69.486 Y82.032 E119.36148
G1 X79.514 Y72.004 E120.78560
G1 X79.514 Y71.245 E120.86181
G1 X69.486 Y81.273 E122.28593
G1 X69.486 Y80.514 E122.36214
G1 X79.514 Y70.486 E123.78625
G1 X79.514 Y69.727 E123.86247
G1 X69.486 Y79.755 E125.28658
G1 X69.486 Y78.996 E125.36280
G1 X79.514 Y68.968 E126.78691
G1 X79.514 Y68.209 E126.86313
G1 X69.486 Y78.237 E128.28724
G1 X69.486 Y77.478 E128.36345
G1 X79.514 Y67.450 E129.78757
G1 X79.514 Y66.691 E129.86378
G1 X69.486 Y76.719 E131.28790
G1 X69.486 Y75.960 E131.36411
G1 X79.514 Y65.932 E132.78822
G1 X79.514 Y65.173 E132.86444
G1 X69.486 Y75.201 E134.28855
G1 X69.486 Y74.442 E134.36477
G1 X79.514 Y64.414 E135.78888
G1 X79.514 Y63.655 E135.86510
G1 X69.486 Y73.683 E137.28921
G1 X69.486 Y72.924 E137.36542
G1 X79.514 Y62.895 E138.78954
G1 X79.514 Y62.136 E138.86575
G1 X69.486 Y72.165 E140.28987
G1 X69.486 Y71.406 E140.36608
G1 X79.514 Y61.377 E141.79019
G1 X79.514 Y60.618 E141.86641
G1 X69.486 Y70.647 E143.29052
G1 X69.486 Y69.888 E143.36674
G1 X79.514 Y59.859 E144.79085
G1 X79.514 Y59.100 E144.86707
G1 X69.486 Y69.129 E146.29118
G1 X69.486 Y68.370 E146.36739
G1 X79.514 Y58.341 E147.79151
G1 X79.514 Y57.582 E147.86772
G1 X69.486 Y67.611 E149.29184
G1 X69.486 Y66.852 E149.36805
G1 X79.514 Y56.823 E150.79216
G1 X79.514 Y56.064 E150.86838
G1 X69.486 Y66.093 E152.29249
G1 X69.486 Y65.334 E152.36871
G1 X79.514 Y55.305 E153.79282
G1 X79.514 Y54.546 E153.86904
G1 X69.486 Y64.575 E155.29315
G1 X69.486 Y63.816 E155.36936
G1 X79.514 Y53.787 E156.79348
G1 X79.514 Y53.028 E156.86969
G1 X69.486 Y63.057 E158.29381
G1 X69.486 Y62.298 E158.37002
G1 X79.514 Y52.269 E159.79413
G1 X79.514 Y51.510 E159.87035
G1 X69.486 Y61.539 E161.29446
G1 X69.486 Y60.780 E161.37068
G1 X79.514 Y50.751 E162.79479
G1 X79.514 Y49.992 E162.87100
G1 X69.486 Y60.021 E164.29512
G1 X69.486 Y59.262 E164.37133
G1 X79.514 Y49.233 E165.79545
G1 X79.514 Y48.474 E165.87166
G1 X69.486 Y58.503 E167.29577
G1 X69.486 Y57.744 E167.37199
G1 X79.514 Y47.715 E168.79610
G1 X79.514 Y46.956 E168.87232
G1 X69.486 Y56.985 E170.29643
G1 X69.486 Y56.226 E170.37265
G1 X79.514 Y46.197 E171.79676
G1 X79.514 Y45.486 E171.86819
G1 X79.467 Y45.486 E171.87297
G1 X69.486 Y55.467 E173.29033
G1 X69.486 Y54.708 E173.36654
G1 X78.708 Y45.486 E174.67611
G1 X77.949 Y45.486 E174.75233
G1 X69.486 Y53.949 E175.95412
G1 X69.486 Y53.190 E176.03033
G1 X77.190 Y45.486 E177.12433
G1 X76.431 Y45.486 E177.20055
G1 X69.486 Y52.431 E178.18677
G1 X69.486 Y51.672 E178.26298
G1 X75.672 Y45.486 E179.14142
G1 X74.913 Y45.486 E179.21763
G1 X69.486 Y50.913 E179.98829
G1 X69.486 Y50.154 E180.06450
G1 X74.154 Y45.486 E180.72737
G1 X73.395 Y45.486 E180.80358
G1 X69.486 Y49.395 E181.35867
G1 X69.486 Y48.636 E181.43488
G1 X72.636 Y45.486 E181.88219
G1 X71.877 Y45.486 E181.95840
G1 X69.486 Y47.877 E182.29792
G1 X69.486 Y47.118 E182.37413
G1 X71.118 Y45.486 E182.60587
G1 X70.359 Y45.486 E182.68208
G1 X69.486 Y46.359 E182.80603
G1 X69.486 Y45.599 E182.88225
G1 X69.599 Y45.486 E182.89841
M106 S255
M104 S210 ; set temperature
G1 E179.89841 F2400.00000
G92 E0
G1 Z0.400 F9000.000
G1 X80.124 Y106.124 F9000.000
G1 E3.00000 F2400.00000
G1 F3000
G1 X68.876 Y106.124 E3.37779
G1 X68.876 Y44.876 E5.43482
G1 X80.124 Y44.876 E5.81261
G1 X80.124 Y106.064 E7.86762
G1 X80.663 Y106.663 F9000.000
G1 F3000
G1 X68.337 Y106.663 E8.28158
G1 X68.337 Y44.337 E10.37478
G1 X80.663 Y44.337 E10.78874
G1 X80.663 Y106.603 E12.87993
G1 X81.201 Y107.201 F9000.000
G1 F3000
G1 X67.799 Y107.201 E13.33007
G1 X67.799 Y43.799 E15.45944
G1 X81.201 Y43.799 E15.90958
G1 X81.201 Y107.141 E18.03694
G1 X81.680 Y107.680 F9000.000
G1 F1500
G1 X67.320 Y107.680 E18.41175
G1 X67.320 Y43.320 E20.09163
G1 X81.680 Y43.320 E20.46645
G1 X81.680 Y107.620 E22.14476
G1 X81.320 Y107.506 F9000.000
G1 X69.357 Y105.529 F9000.000
G1 F3000
G1 X69.471 Y105.643 E22.15022
G1 X70.236 Y105.643 E22.17600
G1 X69.357 Y104.764 E22.21792
G1 X69.357 Y103.999 E22.24370
G1 X71.001 Y105.643 E22.32207
G1 X71.765 Y105.643 E22.34785
G1 X69.357 Y103.235 E22.46268
G1 X69.357 Y102.470 E22.48846
G1 X72.530 Y105.643 E22.63975
G1 X73.294 Y105.643 E22.66553
G1 X69.357 Y101.706 E22.85328
G1 X69.357 Y100.941 E22.87906
G1 X74.059 Y105.643 E23.10327
G1 X74.824 Y105.643 E23.12905
G1 X69.357 Y100.176 E23.38971
G1 X69.357 Y99.412 E23.41549
G1 X75.588 Y105.643 E23.71261
G1 X76.353 Y105.643 E23.73839
G1 X69.357 Y98.647 E24.07197
G1 X69.357 Y97.883 E24.09775
G1 X77.117 Y105.643 E24.46779
G1 X77.882 Y105.643 E24.49357
G1 X69.357 Y97.118 E24.90006
G1 X69.357 Y96.353 E24.92584
G1 X78.647 Y105.643 E25.36880
G1 X79.411 Y105.643 E25.39458
G1 X69.357 Y95.589 E25.87399
G1 X69.357 Y94.824 E25.89977
G1 X79.643 Y105.110 E26.39023
G1 X79.643 Y104.346 E26.41601
G1 X69.357 Y94.060 E26.90647
G1 X69.357 Y93.295 E26.93225
G1 X79.643 Y103.581 E27.42271
G1 X79.643 Y102.816 E27.44849
G1 X69.357 Y92.530 E27.93895
G1 X69.357 Y91.766 E27.96473
G1 X79.643 Y102.052 E28.45519
G1 X79.643 Y101.287 E28.48097
G1 X69.357 Y91.001 E28.97143
G1 X69.357 Y90.237 E28.99721
G1 X79.643 Y100.523 E29.48767
G1 X79.643 Y99.758 E29.51345
G1 X69.357 Y89.472 E30.00391
G1 X69.357 Y88.707 E30.02969
G1 X79.643 Y98.993 E30.52015
G1 X79.643 Y98.229 E30.54593
G1 X69.357 Y87.943 E31.03639
G1 X69.357 Y87.178 E31.06217
G1 X79.643 Y97.464 E31.55263
G1 X79.643 Y96.700 E31.57841
G1 X69.357 Y86.414 E32.06887
G1 X69.357 Y85.649 E32.09465
G1 X79.643 Y95.935 E32.58512
G1 X79.643 Y95.170 E32.61090
G1 X69.357 Y84.884 E33.10136
G1 X69.357 Y84.120 E33.12714
G1 X79.643 Y94.406 E33.61760
G1 X79.643 Y93.641 E33.64338
G1 X69.357 Y83.355 E34.13384
G1 X69.357 Y82.591 E34.15962
G1 X79.643 Y92.877 E34.65008
G1 X79.643 Y92.112 E34.67586
G1 X69.357 Y81.826 E35.16632
G1 X69.357 Y81.061 E35.19210
G1 X79.643 Y91.347 E35.68256
G1 X79.643 Y90.583 E35.70834
G1 X69.357 Y80.297 E36.19880
G1 X69.357 Y79.532 E36.22458
G1 X79.643 Y89.818 E36.71504
G1 X79.643 Y89.054 E36.74082
G1 X69.357 Y78.768 E37.23128
G1 X69.357 Y78.003 E37.25706
G1 X79.643 Y88.289 E37.74752
G1 X79.643 Y87.524 E37.77330
G1 X69.357 Y77.238 E38.26376
G1 X69.357 Y76.474 E38.28954
G1 X79.643 Y86.760 E38.78000
G1 X79.643 Y85.995 E38.80578
G1 X69.357 Y75.709 E39.29624
G1 X69.357 Y74.945 E39.32202
G1 X79.643 Y85.231 E39.81248
G1 X79.643 Y84.466 E39.83826
G1 X69.357 Y74.180 E40.32872
G1 X69.357 Y73.415 E40.35450
G1 X79.643 Y83.701 E40.84496
G1 X79.643 Y82.937 E40.87074
G1 X69.357 Y72.651 E41.36120
G1 X69.357 Y71.886 E41.38698
G1 X79.643 Y82.172 E41.87744
G1 X79.643 Y81.408 E41.90322
G1 X69.357 Y71.122 E42.39368
G1 X69.357 Y70.357 E42.41946
G1 X79.643 Y80.643 E42.90992
G1 X79.643 Y79.878 E42.93570
G1 X69.357 Y69.592 E43.42616
G1 X69.357 Y68.828 E43.45194
G1 X79.643 Y79.114 E43.94240
G1 X79.643 Y78.349 E43.96818
G1 X69.357 Y68.063 E44.45865
G1 X69.357 Y67.299 E44.48442
G1 X79.643 Y77.585 E44.97489
G1 X79.643 Y76.820 E45.00067
G1 X69.357 Y66.534 E45.49113
G1 X69.357 Y65.769 E45.51691
G1 X79.643 Y76.055 E46.00737
G1 X79.643 Y75.291 E46.03315
G1 X69.357 Y65.005 E46.52361
G1 X69.357 Y64.240 E46.54939
G1 X79.643 Y74.526 E47.03985
G1 X79.643 Y73.762 E47.06563
G1 X69.357 Y63.476 E47.55609
G1 X69.357 Y62.711 E47.58187
G1 X79.643 Y72.997 E48.07233
G1 X79.643 Y72.232 E48.09811
G1 X69.357 Y61.946 E48.58857
G1 X69.357 Y61.182 E48.61435
G1 X79.643 Y71.468 E49.10481
G1 X79.643 Y70.703 E49.13059
G1 X69.357 Y60.417 E49.62105
G1 X69.357 Y59.653 E49.64683
G1 X79.643 Y69.939 E50.13729
G1 X79.643 Y69.174 E50.16307
G1 X69.357 Y58.888 E50.65353
G1 X69.357 Y58.123 E50.67931
G1 X79.643 Y68.409 E51.16977
G1 X79.643 Y67.645 E51.19555
G1 X69.357 Y57.359 E51.68601
G1 X69.357 Y56.594 E51.71179
G1 X79.643 Y66.880 E52.20225
G1 X79.643 Y66.116 E52.22803
G1 X69.357 Y55.830 E52.71849
G1 X69.357 Y55.065 E52.74427
G1 X79.643 Y65.351 E53.23473
G1 X79.643 Y64.586 E53.26051
G1 X69.357 Y54.300 E53.75097
G1 X69.357 Y53.536 E53.77675
G1 X79.643 Y63.822 E54.26721
G1 X79.643 Y63.057 E54.29299
G1 X69.357 Y52.771 E54.78345
G1 X69.357 Y52.007 E54.80923
G1 X79.643 Y62.293 E55.29969
G1 X79.643 Y61.528 E55.32547
G1 X69.357 Y51.242 E55.81594
G1 X69.357 Y50.477 E55.84172
G1 X79.643 Y60.763 E56.33218
G1 X79.643 Y59.999 E56.35796
G1 X69.357 Y49.713 E56.84842
G1 X69.357 Y48.948 E56.87420
G1 X79.643 Y59.234 E57.36466
G1 X79.643 Y58.470 E57.39044
G1 X69.357 Y48.184 E57.88090
G1 X69.357 Y47.419 E57.90668
G1 X79.643 Y57.705 E58.39714
G1 X79.643 Y56.940 E58.42292
G1 X69.357 Y46.654 E58.91338
G1 X69.357 Y45.890 E58.93916
G1 X79.643 Y56.176 E59.42962
G1 X79.643 Y55.411 E59.45540
G1 X69.589 Y45.357 E59.93481
G1 X70.353 Y45.357 E59.96059
G1 X79.643 Y54.647 E60.40354
G1 X79.643 Y53.882 E60.42932
