; generated by Slic3r 1.3.1-dev (Build 05a2f9028a35c56e039cf7a531d63b7ff7e97645) on 2019-03-10 at 09:50:14

; Filament notes: 
; Benötigt -100um compensation
; 
; external perimeters extrusion width = 0.44mm (1.05mm^3/s)
; perimeters extrusion width = 0.56mm (2.69mm^3/s)
; infill extrusion width = 0.50mm (3.35mm^3/s)
; solid infill extrusion width = 0.56mm (2.69mm^3/s)
; top infill extrusion width = 0.56mm (2.15mm^3/s)

M107
M104 S215 ; set temperature
G21                                  ; set units to millimeters
G90                                  ; use absolute coordinates
G92 E0                               ; Reset the extruder's origin
M82                                  ; use absolute distances for extrusion
G1 F900.000 E-4.00000                ; Retract 4 millimetres of filament
G92 E0                               ; Reset the extruder's origin
G1 Z0.350 F6000.000                  ; move to Z=0.35
G1 X5.000 Y31.000                    ; move to X=3, Y=31 (start)
G1 F900.000 E4.00000                 ; Extrude 4 millimetres of filament
G1 X5.000 Y81.000 E50.00000
; Filament gcode

M109 S215 ; set temperature and wait for it to be reached
G21 ; set units to millimeters
G90 ; use absolute coordinates
M82 ; use absolute distances for extrusion
G92 E0
G92 E0
G1 E-3.00000 F2400.00000
G92 E0
G1 Z0.300 F9000.000
G1 X64.885 Y79.252 F9000.000
G1 E3.00000 F2400.00000
G1 F750
G1 X69.196 Y76.756 E3.40670
G1 X70.823 Y74.995 E3.60244
G1 X77.819 Y74.995 E4.17360
G1 X77.924 Y74.951 E4.18290
G1 X77.965 Y74.910 E4.18760
G1 X86.227 Y74.910 E4.86208
G1 X87.853 Y76.671 E5.05779
G1 X92.165 Y79.168 E5.46453
G1 X92.165 Y92.130 E6.52277
G1 X89.100 Y95.195 E6.87665
G1 X79.231 Y95.195 E7.68237
G1 X79.125 Y95.239 E7.69167
G1 X79.085 Y95.280 E7.69637
G1 X67.950 Y95.280 E8.60539
G1 X64.885 Y92.214 E8.95928
G1 X64.885 Y79.312 E10.01264
G1 X65.430 Y79.566 F9000.000
G1 F750
G1 X69.541 Y77.186 E10.40046
G1 X71.062 Y75.540 E10.58344
G1 X78.045 Y75.540 E11.15349
G1 X78.150 Y75.496 E11.16279
G1 X78.191 Y75.456 E11.16749
G1 X85.987 Y75.456 E11.80396
G1 X87.508 Y77.102 E11.98691
G1 X91.620 Y79.482 E12.37476
G1 X91.620 Y91.904 E13.38889
G1 X88.874 Y94.650 E13.70588
G1 X79.005 Y94.650 E14.51160
G1 X78.899 Y94.693 E14.52090
G1 X78.859 Y94.734 E14.52560
G1 X68.176 Y94.734 E15.39773
G1 X65.430 Y91.989 E15.71473
G1 X65.430 Y79.626 E16.72396
G1 X65.976 Y79.881 F9000.000
G1 F750
G1 X69.887 Y77.617 E17.09292
G1 X71.302 Y76.086 E17.26313
G1 X78.271 Y76.086 E17.83206
G1 X78.376 Y76.042 E17.84136
G1 X78.417 Y76.001 E17.84606
G1 X85.748 Y76.001 E18.44452
G1 X87.163 Y77.532 E18.61471
G1 X91.074 Y79.797 E18.98369
G1 X91.074 Y91.678 E19.95370
G1 X88.648 Y94.104 E20.23380
G1 X78.779 Y94.104 E21.03952
G1 X78.673 Y94.148 E21.04882
G1 X78.633 Y94.189 E21.05352
G1 X68.402 Y94.189 E21.88877
G1 X65.976 Y91.763 E22.16887
G1 X65.976 Y79.941 E23.13399
G1 X66.521 Y80.195 F9000.000
G1 F750
G1 X70.232 Y78.047 E23.48407
G1 X71.542 Y76.631 E23.64152
G1 X78.497 Y76.631 E24.20933
G1 X78.602 Y76.587 E24.21863
G1 X78.643 Y76.547 E24.22333
G1 X85.508 Y76.547 E24.78379
G1 X86.817 Y77.962 E24.94121
G1 X90.529 Y80.111 E25.29132
G1 X90.529 Y91.452 E26.21720
G1 X88.422 Y93.559 E26.46042
G1 X78.553 Y93.559 E27.26613
G1 X78.447 Y93.603 E27.27543
G1 X78.407 Y93.643 E27.28013
G1 X68.628 Y93.643 E28.07849
G1 X66.521 Y91.537 E28.32171
G1 X66.521 Y80.255 E29.24270
G1 X67.066 Y80.510 F9000.000
G1 F750
G1 X70.111 Y78.747 E29.52991
G1 X70.148 Y78.769 E29.53342
G1 X70.347 Y78.738 E29.54982
G1 X71.781 Y77.176 E29.72292
G1 X78.181 Y77.176 E30.24537
G1 X78.364 Y77.360 E30.26652
G1 X78.601 Y77.360 E30.28589
G1 X78.869 Y77.092 E30.31677
G1 X85.268 Y77.092 E30.83922
G1 X86.703 Y78.654 E31.01234
G1 X86.901 Y78.685 E31.02873
G1 X86.939 Y78.663 E31.03226
G1 X89.983 Y80.426 E31.31945
G1 X89.983 Y86.183 E31.78944
G1 X89.768 Y86.398 E31.81429
G1 X89.768 Y86.635 E31.83366
G1 X89.983 Y86.850 E31.85850
G1 X89.983 Y91.226 E32.21577
G1 X88.196 Y93.013 E32.42210
G1 X78.869 Y93.013 E33.18357
G1 X78.686 Y92.830 E33.20472
G1 X78.448 Y92.830 E33.22408
G1 X78.181 Y93.098 E33.25497
G1 X68.854 Y93.098 E34.01644
G1 X67.066 Y91.311 E34.22276
G1 X67.066 Y86.934 E34.58003
G1 X67.282 Y86.719 E34.60488
G1 X67.282 Y86.482 E34.62425
G1 X67.066 Y86.267 E34.64909
G1 X67.066 Y80.570 E35.11419
G1 E32.11419 F2400.00000
G92 E0
G1 X68.053 Y86.719 F9000.000
G1 E3.00000 F2400.00000
G1 F750
G1 X68.053 Y86.482 E3.01937
G1 X67.612 Y86.041 E3.07030
G1 X67.612 Y80.824 E3.49617
G1 X70.112 Y79.377 E3.73203
G1 X70.255 Y79.459 E3.74548
G1 X70.454 Y79.428 E3.76188
G1 X72.021 Y77.722 E3.95103
G1 X77.955 Y77.722 E4.43547
G1 X78.364 Y78.131 E4.48271
G1 X78.601 Y78.131 E4.50208
G1 X79.095 Y77.638 E4.55904
G1 X85.029 Y77.638 E5.04349
G1 X86.596 Y79.344 E5.23265
G1 X86.795 Y79.375 E5.24904
G1 X86.938 Y79.293 E5.26250
G1 X89.438 Y80.740 E5.49835
G1 X89.438 Y85.957 E5.92422
G1 X88.997 Y86.398 E5.97515
G1 X88.997 Y86.635 E5.99452
G1 X89.438 Y87.076 E6.04545
G1 X89.438 Y91.000 E6.36583
G1 X87.970 Y92.468 E6.53527
G1 X79.095 Y92.468 E7.25984
G1 X78.686 Y92.059 E7.30708
G1 X78.448 Y92.059 E7.32645
G1 X77.955 Y92.552 E7.38342
G1 X69.079 Y92.552 E8.10799
G1 X67.612 Y91.085 E8.27743
G1 X67.612 Y87.160 E8.59781
G1 X68.011 Y86.762 E8.64384
G1 X68.824 Y86.719 F9000.000
G1 F750
G1 X68.824 Y86.482 E8.66321
G1 X68.157 Y85.815 E8.74023
G1 X68.157 Y81.139 E9.12198
G1 X70.113 Y80.007 E9.30649
G1 X70.864 Y80.438 E9.37719
G1 X71.157 Y80.252 E9.40549
G1 X71.096 Y79.536 E9.46416
G1 X72.261 Y78.267 E9.60473
G1 X77.729 Y78.267 E10.05117
G1 X78.364 Y78.902 E10.12449
G1 X78.601 Y78.902 E10.14386
G1 X79.321 Y78.183 E10.22691
G1 X84.789 Y78.183 E10.67335
G1 X85.954 Y79.451 E10.81392
G1 X85.893 Y80.167 E10.87260
G1 X86.185 Y80.354 E10.90089
G1 X86.936 Y79.922 E10.97161
G1 X88.892 Y81.055 E11.15610
G1 X88.892 Y85.731 E11.53786
G1 X88.225 Y86.398 E11.61487
G1 X88.225 Y86.635 E11.63424
G1 X88.892 Y87.302 E11.71125
G1 X88.892 Y90.775 E11.99475
G1 X87.744 Y91.923 E12.12729
G1 X79.321 Y91.923 E12.81498
G1 X78.686 Y91.288 E12.88830
G1 X78.448 Y91.288 E12.90767
G1 X77.729 Y92.007 E12.99072
G1 X69.305 Y92.007 E13.67841
G1 X68.157 Y90.859 E13.81096
G1 X68.157 Y87.386 E14.09445
G1 X68.782 Y86.762 E14.16656
G1 X69.596 Y86.719 F9000.000
G1 F750
G1 X69.596 Y86.482 E14.18593
G1 X68.703 Y85.589 E14.28903
G1 X68.703 Y81.453 E14.62667
G1 X70.114 Y80.636 E14.75982
G1 X70.794 Y81.026 E14.82380
G1 X70.959 Y81.096 E14.83838
G1 X71.096 Y81.124 E14.84982
G1 X71.235 Y81.122 E14.86117
G1 X71.362 Y81.087 E14.87193
G1 X71.471 Y81.029 E14.88200
G1 X71.558 Y80.953 E14.89148
G1 X71.627 Y80.855 E14.90120
G1 X71.711 Y80.599 E14.92324
G1 X71.719 Y80.426 E14.93735
G1 X71.660 Y79.728 E14.99455
G1 X72.500 Y78.813 E15.09600
G1 X77.503 Y78.813 E15.50443
G1 X78.364 Y79.674 E15.60384
G1 X78.601 Y79.674 E15.62320
G1 X79.547 Y78.728 E15.73234
G1 X84.549 Y78.728 E16.14077
G1 X85.390 Y79.644 E16.24222
G1 X85.331 Y80.342 E16.29942
G1 X85.338 Y80.514 E16.31353
G1 X85.423 Y80.771 E16.33557
G1 X85.491 Y80.868 E16.34529
G1 X85.579 Y80.945 E16.35477
G1 X85.688 Y81.003 E16.36484
G1 X85.815 Y81.038 E16.37560
G1 X85.954 Y81.039 E16.38695
G1 X86.091 Y81.011 E16.39839
G1 X86.256 Y80.942 E16.41297
G1 X86.935 Y80.552 E16.47695
G1 X88.347 Y81.369 E16.61010
G1 X88.347 Y85.505 E16.94773
G1 X87.454 Y86.398 E17.05084
G1 X87.454 Y86.635 E17.07020
G1 X88.347 Y87.528 E17.17330
G1 X88.347 Y90.549 E17.41990
G1 X87.518 Y91.377 E17.51556
G1 X79.547 Y91.377 E18.16636
G1 X78.686 Y90.516 E18.26577
G1 X78.448 Y90.516 E18.28513
G1 X77.503 Y91.461 E18.39427
G1 X69.531 Y91.461 E19.04507
G1 X68.703 Y90.633 E19.14073
G1 X68.703 Y87.612 E19.38733
G1 X69.553 Y86.762 E19.48553
G1 E16.48553 F2400.00000
G92 E0
G1 X79.263 Y87.754 F9000.000
G1 E3.00000 F2400.00000
G1 F750
G1 X79.772 Y87.245 E3.05877
G1 X87.292 Y87.245 E3.67268
G1 X87.801 Y87.754 E3.73144
G1 X87.801 Y90.323 E3.94115
G1 X87.292 Y90.832 E3.99992
G1 X79.772 Y90.832 E4.61383
G1 X79.263 Y90.323 E4.67260
G1 X79.263 Y87.814 E4.87741
G1 X79.998 Y87.790 F9000.000
G1 F750
G1 X87.066 Y87.790 E5.45443
G1 X87.256 Y87.980 E5.47631
G1 X87.256 Y90.097 E5.64913
G1 X87.066 Y90.286 E5.67101
G1 X79.998 Y90.286 E6.24802
G1 X79.809 Y90.097 E6.26990
G1 X79.809 Y87.980 E6.44272
G1 X79.956 Y87.833 E6.45970
G1 E3.45970 F2400.00000
G92 E0
G1 X79.998 Y85.788 F9000.000
G1 E3.00000 F2400.00000
G1 F750
G1 X79.772 Y85.788 E3.01844
G1 X79.263 Y85.279 E3.07721
G1 X79.263 Y79.783 E3.52588
G1 X79.772 Y79.274 E3.58465
G1 X84.310 Y79.274 E3.95507
G1 X84.826 Y79.836 E4.01740
G1 X84.784 Y80.417 E4.06493
G1 X84.798 Y80.590 E4.07914
G1 X84.843 Y80.791 E4.09592
G1 X84.917 Y80.980 E4.11252
G1 X85.014 Y81.143 E4.12798
G1 X85.131 Y81.280 E4.14271
G1 X85.271 Y81.396 E4.15754
G1 X85.438 Y81.490 E4.17320
G1 X85.613 Y81.552 E4.18835
G1 X85.795 Y81.584 E4.20339
G1 X86.005 Y81.583 E4.22055
G1 X86.252 Y81.533 E4.24113
G1 X86.424 Y81.468 E4.25613
G1 X86.934 Y81.181 E4.30391
G1 X87.801 Y81.683 E4.38571
G1 X87.801 Y85.279 E4.67923
G1 X87.292 Y85.788 E4.73799
G1 X80.058 Y85.788 E5.32856
G1 X79.998 Y85.242 F9000.000
G1 F750
G1 X79.809 Y85.053 E5.35043
G1 X79.809 Y80.009 E5.76221
G1 X79.998 Y79.819 E5.78409
G1 X84.070 Y79.819 E6.11651
G1 X84.262 Y80.029 E6.13971
G1 X84.238 Y80.366 E6.16732
G1 X84.251 Y80.609 E6.18714
G1 X84.296 Y80.861 E6.20807
G1 X84.391 Y81.141 E6.23220
G1 X84.519 Y81.385 E6.25472
G1 X84.627 Y81.536 E6.26987
G1 X84.757 Y81.678 E6.28558
G1 X84.964 Y81.846 E6.30737
G1 X85.128 Y81.945 E6.32302
G1 X85.375 Y82.050 E6.34491
G1 X85.744 Y82.128 E6.37573
G1 X86.046 Y82.127 E6.40033
G1 X86.301 Y82.085 E6.42144
G1 X86.650 Y81.964 E6.45160
G1 X86.933 Y81.811 E6.47787
G1 X87.256 Y81.998 E6.50833
G1 X87.256 Y85.053 E6.75772
G1 X87.066 Y85.242 E6.77960
G1 X80.058 Y85.242 E7.35172
G1 E4.35172 F2400.00000
G92 E0
G1 X77.786 Y85.242 F9000.000
G1 E3.00000 F2400.00000
G1 F750
G1 X77.786 Y85.363 E3.00986
G1 X77.277 Y85.872 E3.06862
G1 X69.757 Y85.872 E3.68253
G1 X69.248 Y85.363 E3.74130
G1 X69.248 Y81.768 E4.03482
G1 X70.115 Y81.266 E4.11662
G1 X70.626 Y81.552 E4.16440
G1 X70.798 Y81.617 E4.17940
G1 X71.045 Y81.667 E4.19998
G1 X71.255 Y81.669 E4.21714
G1 X71.436 Y81.637 E4.23217
G1 X71.611 Y81.574 E4.24732
G1 X71.778 Y81.480 E4.26298
G1 X71.919 Y81.365 E4.27781
G1 X72.036 Y81.228 E4.29255
G1 X72.132 Y81.065 E4.30800
G1 X72.207 Y80.875 E4.32461
G1 X72.252 Y80.675 E4.34139
G1 X72.265 Y80.501 E4.35560
G1 X72.223 Y79.921 E4.40313
G1 X72.740 Y79.358 E4.46546
G1 X77.277 Y79.358 E4.83588
G1 X77.786 Y79.867 E4.89464
G1 X77.786 Y85.182 E5.32856
G1 X77.051 Y85.327 F9000.000
G1 F750
G1 X69.983 Y85.327 E5.90558
G1 X69.794 Y85.137 E5.92746
G1 X69.794 Y82.082 E6.17685
G1 X70.117 Y81.895 E6.20730
G1 X70.400 Y82.049 E6.23358
G1 X70.749 Y82.169 E6.26374
G1 X71.004 Y82.211 E6.28484
G1 X71.305 Y82.212 E6.30944
G1 X71.675 Y82.135 E6.34027
G1 X71.921 Y82.030 E6.36215
G1 X72.086 Y81.931 E6.37780
G1 X72.293 Y81.762 E6.39960
G1 X72.423 Y81.620 E6.41531
G1 X72.531 Y81.469 E6.43046
G1 X72.659 Y81.225 E6.45297
G1 X72.753 Y80.945 E6.47711
G1 X72.799 Y80.695 E6.49787
G1 X72.811 Y80.450 E6.51786
G1 X72.787 Y80.113 E6.54547
G1 X72.979 Y79.904 E6.56867
G1 X77.051 Y79.904 E6.90108
G1 X77.241 Y80.093 E6.92296
G1 X77.241 Y85.137 E7.33474
G1 X77.094 Y85.284 E7.35172
G1 X78.448 Y85.472 F9000.000
G1 F750
G1 X78.686 Y85.472 E7.37109
G1 X79.611 Y86.398 E7.47794
G1 X79.611 Y86.635 E7.49730
G1 X78.601 Y87.645 E7.61389
G1 X78.364 Y87.645 E7.63325
G1 X77.439 Y86.719 E7.74010
G1 X77.439 Y86.482 E7.75947
G1 X78.406 Y85.515 E7.87115
G1 E4.87115 F2400.00000
G92 E0
G1 X77.277 Y87.329 F9000.000
G1 E3.00000 F2400.00000
G1 F750
G1 X77.786 Y87.838 E3.05877
G1 X77.786 Y90.407 E3.26848
G1 X77.277 Y90.916 E3.32725
G1 X69.757 Y90.916 E3.94115
G1 X69.248 Y90.407 E3.99992
G1 X69.248 Y87.838 E4.20963
G1 X69.757 Y87.329 E4.26840
G1 X77.217 Y87.329 E4.87741
G1 X77.051 Y87.875 F9000.000
G1 F750
G1 X77.241 Y88.064 E4.89929
G1 X77.241 Y90.181 E5.07211
G1 X77.051 Y90.371 E5.09399
G1 X69.983 Y90.371 E5.67101
G1 X69.794 Y90.181 E5.69288
G1 X69.794 Y88.064 E5.86570
G1 X69.983 Y87.875 E5.88758
G1 X76.991 Y87.875 E6.45970
G1 E3.45970 F2400.00000
G92 E0
G1 X86.632 Y89.663 F9000.000
G1 E3.00000 F2400.00000
G1 F450
G1 X80.432 Y89.663 E3.49703
G1 X80.432 Y88.414 E3.59716
G1 X86.632 Y88.414 E4.09419
G1 X86.632 Y89.603 E4.18950
G1 X86.233 Y89.636 F9000.000
G1 X86.365 Y89.038 F9000.000
G1 F300
G1 X80.700 Y89.038 E4.73968
G1 E1.73968 F2400.00000
G92 E0
G1 X86.632 Y84.619 F9000.000
G1 E3.00000 F2400.00000
G1 F450
G1 X80.432 Y84.619 E3.49703
G1 X80.432 Y80.443 E3.83181
G1 X83.605 Y80.443 E4.08616
G1 X83.661 Y80.879 E4.12140
G1 X83.731 Y81.155 E4.14427
G1 X83.867 Y81.496 E4.17366
G1 X83.995 Y81.724 E4.19461
G1 X84.146 Y81.933 E4.21530
G1 X84.322 Y82.126 E4.23626
G1 X84.612 Y82.362 E4.26621
G1 X84.837 Y82.498 E4.28724
G1 X85.183 Y82.645 E4.31741
G1 X85.551 Y82.733 E4.34774
G1 X85.813 Y82.757 E4.36887
G1 X86.110 Y82.748 E4.39269
G1 X86.632 Y82.662 E4.43512
G1 X86.632 Y84.559 E4.58719
G1 X86.269 Y84.451 F9000.000
G1 X86.097 Y84.083 F9000.000
G1 F450
G1 X80.968 Y84.083 E4.99834
G1 X80.968 Y80.978 E5.24724
G1 X83.134 Y80.978 E5.42084
G1 X83.221 Y81.321 E5.44919
G1 X83.382 Y81.727 E5.48420
G1 X83.542 Y82.013 E5.51045
G1 X83.730 Y82.272 E5.53610
G1 X83.954 Y82.517 E5.56270
G1 X84.303 Y82.801 E5.59882
G1 X84.592 Y82.976 E5.62590
G1 X85.014 Y83.155 E5.66267
G1 X85.463 Y83.263 E5.69969
G1 X85.797 Y83.294 E5.72652
G1 X86.097 Y83.285 E5.75059
G1 X86.097 Y84.023 E5.80981
G1 E2.80981 F2400.00000
G92 E0
G1 X84.048 Y83.548 F9000.000
G1 E3.00000 F2400.00000
G1 F450
G1 X81.504 Y83.548 E3.20395
G1 X81.504 Y81.514 E3.36697
G1 X82.721 Y81.514 E3.46458
G1 X82.898 Y81.958 E3.50287
G1 X83.090 Y82.301 E3.53440
G1 X83.313 Y82.611 E3.56503
G1 X83.585 Y82.907 E3.59726
G1 X83.994 Y83.241 E3.63954
G1 X84.113 Y83.312 E3.65069
G1 X84.064 Y83.490 E3.66546
G1 X82.942 Y83.012 F9000.000
G1 F450
G1 X82.039 Y83.012 E3.73785
G1 X82.039 Y82.050 E3.81499
G1 X82.358 Y82.050 E3.84053
G1 X82.413 Y82.189 E3.85253
G1 X82.638 Y82.589 E3.88935
G1 X82.907 Y82.963 E3.92629
G1 X84.333 Y83.522 F9000.000
G1 F300
G1 X84.882 Y83.610 E3.95606
G1 F300
G1 X85.218 Y83.650 E3.97156
G1 F300
G1 X85.829 Y83.691 E3.99208
G1 E0.99208 F2400.00000
G92 E0
G1 Z0.300 F9000.000
G1 X76.617 Y88.498 F9000.000
G1 E3.00000 F2400.00000
G1 F450
G1 X76.617 Y89.747 E3.10012
G1 X70.417 Y89.747 E3.59716
G1 X70.417 Y88.498 E3.69728
G1 X76.557 Y88.498 E4.18950
G1 X76.441 Y88.857 F9000.000
G1 X76.349 Y89.123 F9000.000
G1 F300
G1 X70.685 Y89.123 E4.73968
G1 E1.73968 F2400.00000
G92 E0
G1 X76.617 Y84.703 F9000.000
G1 E3.00000 F2400.00000
G1 F450
G1 X70.417 Y84.703 E3.49703
G1 X70.417 Y82.746 E3.65391
G1 X70.939 Y82.833 E3.69634
G1 X71.236 Y82.842 E3.72016
G1 X71.499 Y82.817 E3.74129
G1 X71.867 Y82.729 E3.77162
G1 X72.213 Y82.582 E3.80179
G1 X72.438 Y82.446 E3.82281
G1 X72.727 Y82.210 E3.85277
G1 X72.904 Y82.018 E3.87373
G1 X73.057 Y81.805 E3.89475
G1 X73.235 Y81.467 E3.92533
G1 X73.351 Y81.125 E3.95433
G1 X73.410 Y80.835 E3.97806
G1 X73.434 Y80.527 E4.00279
G1 X76.617 Y80.527 E4.25797
G1 X76.617 Y84.643 E4.58794
G1 X76.236 Y84.582 F9000.000
G1 X76.082 Y84.168 F9000.000
G1 F450
G1 X70.953 Y84.168 E4.99909
G1 X70.953 Y83.369 E5.06312
G1 X71.253 Y83.378 E5.08719
G1 X71.586 Y83.347 E5.11403
G1 X72.035 Y83.240 E5.15104
G1 X72.457 Y83.060 E5.18781
G1 X72.747 Y82.886 E5.21489
G1 X73.096 Y82.601 E5.25101
G1 X73.320 Y82.356 E5.27761
G1 X73.514 Y82.087 E5.30419
G1 X73.728 Y81.679 E5.34113
G1 X73.870 Y81.265 E5.37623
G1 X73.911 Y81.063 E5.39278
G1 X76.082 Y81.063 E5.56682
G1 X76.082 Y84.108 E5.81091
G1 X75.546 Y83.632 F9000.000
G1 F450
G1 X73.002 Y83.632 E6.01486
G1 X72.936 Y83.397 E6.03444
G1 X73.056 Y83.325 E6.04559
G1 X73.464 Y82.992 E6.08787
G1 X73.736 Y82.695 E6.12011
G1 X73.971 Y82.370 E6.15225
G1 X74.222 Y81.892 E6.19556
G1 X74.322 Y81.598 E6.22040
G1 X75.546 Y81.598 E6.31854
G1 X75.546 Y83.572 E6.47675
G1 X75.010 Y83.096 F9000.000
G1 F450
G1 X74.107 Y83.096 E6.54914
G1 X74.427 Y82.652 E6.59300
G1 X74.699 Y82.134 E6.63994
G1 X75.010 Y82.134 E6.66486
G1 X75.010 Y83.036 E6.73719
G1 E3.73719 F2400.00000
G92 E0
G1 X72.717 Y83.606 F9000.000
G1 E3.00000 F2400.00000
G1 F300
G1 X71.999 Y83.714 E3.03880
G1 F300
