; generated by Slic3r 1.3.1-dev (Build 05a2f9028a35c56e039cf7a531d63b7ff7e97645) on 2019-02-24 at 17:02:04

; Filament notes: 
; Benötigt -100um compensation
; 
; external perimeters extrusion width = 0.44mm (1.05mm^3/s)
; perimeters extrusion width = 0.56mm (2.69mm^3/s)
; infill extrusion width = 0.50mm (3.35mm^3/s)
; solid infill extrusion width = 0.56mm (2.69mm^3/s)
; top infill extrusion width = 0.56mm (2.15mm^3/s)

M107
M104 S215 ; set temperature
G21                                  ; set units to millimeters
G90                                  ; use absolute coordinates
G92 E0                               ; Reset the extruder's origin
M82                                  ; use absolute distances for extrusion
G1 F900.000 E-4.00000                ; Retract 4 millimetres of filament
G92 E0                               ; Reset the extruder's origin
G1 Z0.350 F6000.000                  ; move to Z=0.35
G1 X5.000 Y31.000                    ; move to X=3, Y=31 (start)
G1 F900.000 E4.00000                 ; Extrude 4 millimetres of filament
G1 X5.000 Y81.000 E50.00000
; Filament gcode

M109 S215 ; set temperature and wait for it to be reached
G21 ; set units to millimeters
G90 ; use absolute coordinates
M82 ; use absolute distances for extrusion
G92 E0
G92 E0
G1 E-3.00000 F2400.00000
G92 E0
G1 Z0.300 F9000.000
G1 X69.367 Y52.800 F9000.000
G1 E3.00000 F2400.00000
G1 F750
G1 X69.200 Y52.633 E3.02421
G1 X67.433 Y52.633 E3.20454
G1 X64.367 Y49.567 E3.64689
G1 X64.367 Y40.433 E4.57908
G1 X67.433 Y37.367 E5.02144
G1 X81.567 Y37.367 E6.46387
G1 X84.633 Y40.433 E6.90623
G1 X84.633 Y108.567 E13.85926
G1 X81.567 Y111.633 E14.30161
G1 X67.433 Y111.633 E15.74404
G1 X64.367 Y108.567 E16.18640
G1 X64.367 Y99.433 E17.11859
G1 X67.433 Y96.367 E17.56095
G1 X69.200 Y96.367 E17.74128
G1 X69.367 Y96.200 E17.76548
G1 X69.367 Y52.860 E22.18819
G1 X69.913 Y52.255 F9000.000
G1 F750
G1 X69.745 Y52.087 E22.21240
G1 X67.659 Y52.087 E22.42533
G1 X64.913 Y49.341 E22.82158
G1 X64.913 Y40.659 E23.70765
G1 X67.659 Y37.913 E24.10390
G1 X81.341 Y37.913 E25.50022
G1 X84.087 Y40.659 E25.89646
G1 X84.087 Y108.341 E32.80338
G1 X81.341 Y111.087 E33.19962
G1 X67.659 Y111.087 E34.59594
G1 X64.913 Y108.341 E34.99218
G1 X64.913 Y99.659 E35.87826
G1 X67.659 Y96.913 E36.27451
G1 X69.745 Y96.913 E36.48744
G1 X69.913 Y96.745 E36.51165
G1 X69.913 Y52.315 E41.04568
G1 X70.458 Y51.709 F9000.000
G1 F750
G1 X70.291 Y51.542 E41.06989
G1 X67.884 Y51.542 E41.31543
G1 X65.458 Y49.116 E41.66556
G1 X65.458 Y40.884 E42.50553
G1 X67.884 Y38.458 E42.85566
G1 X81.116 Y38.458 E44.20586
G1 X83.542 Y40.884 E44.55600
G1 X83.542 Y108.116 E51.41680
G1 X81.116 Y110.542 E51.76693
G1 X67.884 Y110.542 E53.11714
G1 X65.458 Y108.116 E53.46727
G1 X65.458 Y99.884 E54.30723
G1 X67.884 Y97.458 E54.65737
G1 X70.291 Y97.458 E54.90291
G1 X70.458 Y97.291 E54.92712
G1 X70.458 Y51.769 E59.57247
G1 X71.004 Y51.164 F9000.000
G1 F750
G1 X70.836 Y50.996 E59.59668
G1 X68.110 Y50.996 E59.87483
G1 X66.004 Y48.890 E60.17885
G1 X66.004 Y41.110 E60.97270
G1 X68.110 Y39.004 E61.27672
G1 X80.890 Y39.004 E62.58081
G1 X82.996 Y41.110 E62.88483
G1 X82.996 Y107.890 E69.69952
G1 X80.890 Y109.996 E70.00354
G1 X68.110 Y109.996 E71.30764
G1 X66.004 Y107.890 E71.61166
G1 X66.004 Y100.110 E72.40551
G1 X68.110 Y98.004 E72.70953
G1 X70.836 Y98.004 E72.98768
G1 X71.004 Y97.836 E73.01188
G1 X71.004 Y51.224 E77.76856
G1 X71.549 Y50.618 F9000.000
G1 F750
G1 X71.382 Y50.451 E77.79277
G1 X68.336 Y50.451 E78.10353
G1 X66.549 Y48.664 E78.36143
G1 X66.549 Y41.336 E79.10917
G1 X68.336 Y39.549 E79.36708
G1 X80.664 Y39.549 E80.62506
G1 X82.451 Y41.336 E80.88297
G1 X82.451 Y107.664 E87.65155
G1 X80.664 Y109.451 E87.90946
G1 X68.336 Y109.451 E89.16744
G1 X66.549 Y107.664 E89.42534
G1 X66.549 Y100.336 E90.17308
G1 X68.336 Y98.549 E90.43099
G1 X71.382 Y98.549 E90.74175
G1 X71.549 Y98.382 E90.76595
G1 X71.549 Y50.678 E95.63396
G1 X72.095 Y50.073 F9000.000
G1 F750
G1 X71.927 Y49.905 E95.65817
G1 X68.562 Y49.905 E96.00153
G1 X67.095 Y48.438 E96.21332
G1 X67.095 Y41.562 E96.91495
G1 X68.562 Y40.095 E97.12675
G1 X80.438 Y40.095 E98.33861
G1 X81.905 Y41.562 E98.55041
G1 X81.905 Y107.438 E105.27288
G1 X80.438 Y108.905 E105.48467
G1 X68.562 Y108.905 E106.69654
G1 X67.095 Y107.438 E106.90834
G1 X67.095 Y100.562 E107.60996
G1 X68.562 Y99.095 E107.82176
G1 X71.927 Y99.095 E108.16512
G1 X72.095 Y98.927 E108.18933
G1 X72.095 Y50.133 E113.16866
G1 X72.640 Y49.528 F9000.000
G1 F750
G1 X72.472 Y49.360 E113.19287
G1 X68.788 Y49.360 E113.56883
G1 X67.640 Y48.212 E113.73452
G1 X67.640 Y41.788 E114.39003
G1 X68.788 Y40.640 E114.55571
G1 X80.212 Y40.640 E115.72147
G1 X81.360 Y41.788 E115.88715
G1 X81.360 Y107.212 E122.56351
G1 X80.212 Y108.360 E122.72919
G1 X68.788 Y108.360 E123.89494
G1 X67.640 Y107.212 E124.06063
G1 X67.640 Y100.788 E124.71614
G1 X68.788 Y99.640 E124.88182
G1 X72.472 Y99.640 E125.25779
G1 X72.640 Y99.472 E125.28200
G1 X72.640 Y49.588 E130.37266
G1 X73.186 Y48.982 F9000.000
G1 F750
G1 X73.018 Y48.814 E130.39686
G1 X69.014 Y48.814 E130.80544
G1 X68.186 Y47.986 E130.92501
G1 X68.186 Y42.014 E131.53441
G1 X69.014 Y41.186 E131.65398
G1 X79.986 Y41.186 E132.77362
G1 X80.814 Y42.014 E132.89319
G1 X80.814 Y106.986 E139.52344
G1 X79.986 Y107.814 E139.64301
G1 X69.014 Y107.814 E140.76265
G1 X68.186 Y106.986 E140.88222
G1 X68.186 Y101.014 E141.49162
G1 X69.014 Y100.186 E141.61119
G1 X73.018 Y100.186 E142.01977
G1 X73.186 Y100.018 E142.04398
G1 X73.186 Y49.042 E147.24596
G1 X73.731 Y48.437 F9000.000
G1 F750
G1 X73.563 Y48.269 E147.27016
G1 X69.240 Y48.269 E147.71134
G1 X68.731 Y47.760 E147.78480
G1 X68.731 Y42.240 E148.34809
G1 X69.240 Y41.731 E148.42155
G1 X79.760 Y41.731 E149.49508
G1 X80.269 Y42.240 E149.56854
G1 X80.269 Y106.760 E156.15267
G1 X79.760 Y107.269 E156.22613
G1 X69.240 Y107.269 E157.29966
G1 X68.731 Y106.760 E157.37312
G1 X68.731 Y101.240 E157.93641
G1 X69.240 Y100.731 E158.00986
G1 X73.563 Y100.731 E158.45104
G1 X73.731 Y100.563 E158.47525
G1 X73.731 Y48.497 E163.78856
G1 X74.277 Y47.891 F9000.000
G1 F750
G1 X74.109 Y47.723 E163.81277
G1 X69.466 Y47.723 E164.28655
G1 X69.277 Y47.534 E164.31390
G1 X69.277 Y42.466 E164.83108
G1 X69.466 Y42.277 E164.85842
G1 X79.534 Y42.277 E165.88584
G1 X79.723 Y42.466 E165.91319
G1 X79.723 Y106.534 E172.45120
G1 X79.534 Y106.723 E172.47855
G1 X69.466 Y106.723 E173.50597
G1 X69.277 Y106.534 E173.53331
G1 X69.277 Y101.466 E174.05049
G1 X69.466 Y101.277 E174.07784
G1 X74.109 Y101.277 E174.55162
G1 X74.277 Y101.109 E174.57583
G1 X74.277 Y47.951 E180.00046
G1 E177.00046 F2400.00000
G92 E0
G1 X74.900 Y101.900 F9000.000
G1 E3.00000 F2400.00000
G1 F375
G1 X74.900 Y47.100 E8.49140
G1 X69.900 Y47.100 E8.99245
G1 X69.900 Y42.900 E9.41332
G1 X79.100 Y42.900 E10.33523
G1 X79.100 Y106.100 E16.66839
G1 X69.900 Y106.100 E17.59030
G1 X69.900 Y101.900 E18.01118
G1 X74.840 Y101.900 E18.50620
G1 X75.289 Y101.808 F9000.000
G1 X75.436 Y102.436 F9000.000
G1 F750
G1 X75.436 Y46.564 E24.10496
G1 X70.436 Y46.564 E24.60600
G1 X70.436 Y43.436 E24.91952
G1 X78.564 Y43.436 E25.73409
G1 X78.564 Y105.564 E31.95990
G1 X70.436 Y105.564 E32.77446
G1 X70.436 Y102.436 E33.08799
G1 X75.376 Y102.436 E33.58302
G1 X75.971 Y102.971 F9000.000
G1 F750
G1 X75.971 Y46.029 E39.28912
G1 X70.971 Y46.029 E39.79016
G1 X70.971 Y43.971 E39.99634
G1 X78.029 Y43.971 E40.70356
G1 X78.029 Y105.029 E46.82202
G1 X70.971 Y105.029 E47.52924
G1 X70.971 Y102.971 E47.73542
G1 X75.911 Y102.971 E48.23045
G1 X76.507 Y103.507 F9000.000
G1 F750
G1 X76.507 Y45.493 E54.04389
G1 X71.507 Y45.493 E54.54494
G1 X71.507 Y44.507 E54.64377
G1 X77.493 Y44.507 E55.24364
G1 X77.493 Y104.493 E61.25476
G1 X71.507 Y104.493 E61.85463
G1 X71.507 Y103.507 E61.95346
G1 X76.447 Y103.507 E62.44849
G1 X77.000 Y103.775 F9000.000
G1 F300
G1 X77.000 Y45.225 E66.67984
G1 X76.981 Y45.132 E66.68673
G1 F300
G1 X76.961 Y45.039 E66.69500
G1 X76.775 Y45.000 E66.71154
G1 F300
G1 X71.775 Y45.000 E67.07288
G1 E64.07288 F2400.00000
G92 E0
G1 X71.775 Y104.000 F9000.000
G1 E3.00000 F2400.00000
G1 F300
G1 X76.775 Y104.000 E3.36135
G1 X76.868 Y103.981 E3.36824
G1 F300
G1 X76.961 Y103.961 E3.37651
G1 X77.000 Y103.775 E3.39304
M106 S255
M104 S210 ; set temperature
G1 E0.39304 F2400.00000
G92 E0
G1 Z0.400 F9000.000
G1 X76.376 Y103.376 F9000.000
G1 E3.00000 F2400.00000
G1 F1552.57
G1 X76.376 Y45.624 E4.93957
G1 X71.376 Y45.624 E5.10749
G1 X71.376 Y44.376 E5.14943
G1 X77.624 Y44.376 E5.35929
G1 X77.624 Y104.624 E7.38274
G1 X71.376 Y104.624 E7.59260
G1 X71.376 Y103.376 E7.63454
G1 X76.316 Y103.376 E7.80045
G1 X75.837 Y102.837 F9000.000
G1 F1552.57
G1 X75.837 Y46.163 E9.70384
G1 X70.837 Y46.163 E9.87177
G1 X70.837 Y43.837 E9.94988
G1 X78.163 Y43.837 E10.19592
G1 X78.163 Y105.163 E12.25553
G1 X70.837 Y105.163 E12.50157
G1 X70.837 Y102.837 E12.57968
G1 X75.777 Y102.837 E12.74559
G1 X75.299 Y102.299 F9000.000
G1 F1552.57
G1 X75.299 Y46.701 E14.61281
G1 X70.299 Y46.701 E14.78074
G1 X70.299 Y43.299 E14.89502
G1 X78.701 Y43.299 E15.17723
G1 X78.701 Y105.701 E17.27302
G1 X70.299 Y105.701 E17.55523
G1 X70.299 Y102.299 E17.66952
G1 X75.239 Y102.299 E17.83543
G1 X74.820 Y101.820 F9000.000
G1 F1500
G1 X74.820 Y47.180 E19.26161
G1 X69.820 Y47.180 E19.39211
G1 X69.820 Y42.820 E19.50591
G1 X79.180 Y42.820 E19.75022
G1 X79.180 Y106.180 E21.40400
G1 X69.820 Y106.180 E21.64831
G1 X69.820 Y101.820 E21.76211
G1 X74.760 Y101.820 E21.89105
G1 X75.209 Y101.725 F9000.000
G1 X77.000 Y103.645 F9000.000
G1 F621.027
G1 X77.000 Y45.355 E24.39480
G1 X76.980 Y45.257 E24.39911
G1 F621.027
G1 X76.939 Y45.061 E24.40872
G1 X76.645 Y45.000 E24.42315
G1 F621.027
G1 X71.645 Y45.000 E24.63792
G1 E21.63792 F2400.00000
G92 E0
G1 X77.000 Y103.645 F9000.000
G1 E3.00000 F2400.00000
G1 F621.027
G1 X76.939 Y103.939 E3.01443
G1 X76.743 Y103.980 E3.02404
G1 F621.027
G1 X76.645 Y104.000 E3.02835
G1 X71.645 Y104.000 E3.24311
G1 E0.24311 F2400.00000
G92 E0
G1 Z0.500 F9000.000
G1 X76.376 Y103.376 F9000.000
G1 E3.00000 F2400.00000
G1 F1552.57
G1 X76.376 Y45.624 E4.93957
G1 X71.376 Y45.624 E5.10749
G1 X71.376 Y44.376 E5.14943
G1 X77.624 Y44.376 E5.35929
G1 X77.624 Y104.624 E7.38274
G1 X71.376 Y104.624 E7.59260
G1 X71.376 Y103.376 E7.63454
G1 X76.316 Y103.376 E7.80045
G1 X75.837 Y102.837 F9000.000
G1 F1552.57
G1 X75.837 Y46.163 E9.70384
G1 X70.837 Y46.163 E9.87177
G1 X70.837 Y43.837 E9.94988
G1 X78.163 Y43.837 E10.19592
G1 X78.163 Y105.163 E12.25553
G1 X70.837 Y105.163 E12.50157
G1 X70.837 Y102.837 E12.57968
G1 X75.777 Y102.837 E12.74559
G1 X75.299 Y102.299 F9000.000
G1 F1552.57
G1 X75.299 Y46.701 E14.61281
G1 X70.299 Y46.701 E14.78074
G1 X70.299 Y43.299 E14.89502
G1 X78.701 Y43.299 E15.17723
G1 X78.701 Y105.701 E17.27302
G1 X70.299 Y105.701 E17.55523
G1 X70.299 Y102.299 E17.66952
G1 X75.239 Y102.299 E17.83543
G1 X74.820 Y101.820 F9000.000
G1 F1500
G1 X74.820 Y47.180 E19.26161
G1 X69.820 Y47.180 E19.39211
G1 X69.820 Y42.820 E19.50591
G1 X79.180 Y42.820 E19.75022
G1 X79.180 Y106.180 E21.40400
G1 X69.820 Y106.180 E21.64831
G1 X69.820 Y101.820 E21.76211
G1 X74.760 Y101.820 E21.89105
G1 X75.209 Y101.725 F9000.000
G1 X77.000 Y103.645 F9000.000
G1 F621.027
G1 X77.000 Y45.355 E24.39480
G1 X76.980 Y45.257 E24.39911
G1 F621.027
G1 X76.939 Y45.061 E24.40872
G1 X76.645 Y45.000 E24.42315
G1 F621.027
G1 X71.645 Y45.000 E24.63792
G1 E21.63792 F2400.00000
G92 E0
G1 X77.000 Y103.645 F9000.000
G1 E3.00000 F2400.00000
G1 F621.027
G1 X76.939 Y103.939 E3.01443
G1 X76.743 Y103.980 E3.02404
G1 F621.027
G1 X76.645 Y104.000 E3.02835
G1 X71.645 Y104.000 E3.24311
G1 E0.24311 F2400.00000
G92 E0
G1 Z0.600 F9000.000
G1 X76.376 Y103.376 F9000.000
G1 E3.00000 F2400.00000
G1 F1552.57
G1 X76.376 Y45.624 E4.93957
G1 X71.376 Y45.624 E5.10749
G1 X71.376 Y44.376 E5.14943
G1 X77.624 Y44.376 E5.35929
G1 X77.624 Y104.624 E7.38274
G1 X71.376 Y104.624 E7.59260
G1 X71.376 Y103.376 E7.63454
G1 X76.316 Y103.376 E7.80045
G1 X75.837 Y102.837 F9000.000
G1 F1552.57
G1 X75.837 Y46.163 E9.70384
G1 X70.837 Y46.163 E9.87177
G1 X70.837 Y43.837 E9.94988
G1 X78.163 Y43.837 E10.19592
G1 X78.163 Y105.163 E12.25553
G1 X70.837 Y105.163 E12.50157
G1 X70.837 Y102.837 E12.57968
G1 X75.777 Y102.837 E12.74559
G1 X75.299 Y102.299 F9000.000
G1 F1552.57
G1 X75.299 Y46.701 E14.61281
G1 X70.299 Y46.701 E14.78074
G1 X70.299 Y43.299 E14.89502
G1 X78.701 Y43.299 E15.17723
G1 X78.701 Y105.701 E17.27302
G1 X70.299 Y105.701 E17.55523
G1 X70.299 Y102.299 E17.66952
G1 X75.239 Y102.299 E17.83543
G1 X74.820 Y101.820 F9000.000
G1 F1500
G1 X74.820 Y47.180 E19.26161
G1 X69.820 Y47.180 E19.39211
G1 X69.820 Y42.820 E19.50591
G1 X79.180 Y42.820 E19.75022
G1 X79.180 Y106.180 E21.40400
G1 X69.820 Y106.180 E21.64831
G1 X69.820 Y101.820 E21.76211
G1 X74.760 Y101.820 E21.89105
G1 X75.209 Y101.725 F9000.000
G1 X77.000 Y103.645 F9000.000
G1 F621.027
G1 X77.000 Y45.355 E24.39480
G1 X76.980 Y45.257 E24.39911
G1 F621.027
G1 X76.939 Y45.061 E24.40872
G1 X76.645 Y45.000 E24.42315
G1 F621.027
G1 X71.645 Y45.000 E24.63792
G1 E21.63792 F2400.00000
G92 E0
G1 X77.000 Y103.645 F9000.000
G1 E3.00000 F2400.00000
G1 F621.027
G1 X76.939 Y103.939 E3.01443
G1 X76.743 Y103.980 E3.02404
G1 F621.027
G1 X76.645 Y104.000 E3.02835
G1 X71.645 Y104.000 E3.24311
G1 E0.24311 F2400.00000
G92 E0
G1 Z0.700 F9000.000
G1 X76.376 Y103.376 F9000.000
G1 E3.00000 F2400.00000
G1 F1552.57
G1 X76.376 Y45.624 E4.93957
G1 X71.376 Y45.624 E5.10749
G1 X71.376 Y44.376 E5.14943
G1 X77.624 Y44.376 E5.35929
G1 X77.624 Y104.624 E7.38274
G1 X71.376 Y104.624 E7.59260
G1 X71.376 Y103.376 E7.63454
G1 X76.316 Y103.376 E7.80045
G1 X75.837 Y102.837 F9000.000
G1 F1552.57
G1 X75.837 Y46.163 E9.70384
G1 X70.837 Y46.163 E9.87177
G1 X70.837 Y43.837 E9.94988
G1 X78.163 Y43.837 E10.19592
G1 X78.163 Y105.163 E12.25553
G1 X70.837 Y105.163 E12.50157
G1 X70.837 Y102.837 E12.57968
G1 X75.777 Y102.837 E12.74559
G1 X75.299 Y102.299 F9000.000
G1 F1552.57
G1 X75.299 Y46.701 E14.61281
G1 X70.299 Y46.701 E14.78074
G1 X70.299 Y43.299 E14.89502
G1 X78.701 Y43.299 E15.17723
G1 X78.701 Y105.701 E17.27302
G1 X70.299 Y105.701 E17.55523
G1 X70.299 Y102.299 E17.66952
G1 X75.239 Y102.299 E17.83543
G1 X74.820 Y101.820 F9000.000
G1 F1500
G1 X74.820 Y47.180 E19.26161
G1 X69.820 Y47.180 E19.39211
G1 X69.820 Y42.820 E19.50591
G1 X79.180 Y42.820 E19.75022
G1 X79.180 Y106.180 E21.40400
G1 X69.820 Y106.180 E21.64831
G1 X69.820 Y101.820 E21.76211
G1 X74.760 Y101.820 E21.89105
G1 X75.209 Y101.725 F9000.000
G1 X77.000 Y103.645 F9000.000
G1 F621.027
G1 X77.000 Y45.355 E24.39480
G1 X76.980 Y45.257 E24.39911
G1 F621.027
G1 X76.939 Y45.061 E24.40872
G1 X76.645 Y45.000 E24.42315
G1 F621.027
G1 X71.645 Y45.000 E24.63792
G1 E21.63792 F2400.00000
G92 E0
G1 X77.000 Y103.645 F9000.000
G1 E3.00000 F2400.00000
G1 F621.027
G1 X76.939 Y103.939 E3.01443
G1 X76.743 Y103.980 E3.02404
G1 F621.027
G1 X76.645 Y104.000 E3.02835
G1 X71.645 Y104.000 E3.24311
G1 E0.24311 F2400.00000
G92 E0
G1 Z0.800 F9000.000
G1 X76.376 Y103.376 F9000.000
G1 E3.00000 F2400.00000
G1 F1552.57
G1 X76.376 Y45.624 E4.93957
G1 X71.376 Y45.624 E5.10749
G1 X71.376 Y44.376 E5.14943
G1 X77.624 Y44.376 E5.35929
G1 X77.624 Y104.624 E7.38274
G1 X71.376 Y104.624 E7.59260
G1 X71.376 Y103.376 E7.63454
G1 X76.316 Y103.376 E7.80045
G1 X75.837 Y102.837 F9000.000
G1 F1552.57
G1 X75.837 Y46.163 E9.70384
G1 X70.837 Y46.163 E9.87177
G1 X70.837 Y43.837 E9.94988
G1 X78.163 Y43.837 E10.19592
G1 X78.163 Y105.163 E12.25553
G1 X70.837 Y105.163 E12.50157
G1 X70.837 Y102.837 E12.57968
G1 X75.777 Y102.837 E12.74559
G1 X75.299 Y102.299 F9000.000
G1 F1552.57
G1 X75.299 Y46.701 E14.61281
G1 X70.299 Y46.701 E14.78074
G1 X70.299 Y43.299 E14.89502
G1 X78.701 Y43.299 E15.17723
G1 X78.701 Y105.701 E17.27302
G1 X70.299 Y105.701 E17.55523
G1 X70.299 Y102.299 E17.66952
G1 X75.239 Y102.299 E17.83543
G1 X74.820 Y101.820 F9000.000
G1 F1500
G1 X74.820 Y47.180 E19.26161
G1 X69.820 Y47.180 E19.39211
G1 X69.820 Y42.820 E19.50591
G1 X79.180 Y42.820 E19.75022
G1 X79.180 Y106.180 E21.40400
G1 X69.820 Y106.180 E21.64831
G1 X69.820 Y101.820 E21.76211
G1 X74.760 Y101.820 E21.89105
G1 X75.209 Y101.725 F9000.000
G1 X77.000 Y103.645 F9000.000
G1 F621.027
G1 X77.000 Y45.355 E24.39480
G1 X76.980 Y45.257 E24.39911
